;FLAVOR:Marlin
;TIME:1778
;Filament used: 0.981926m
;Layer height: 0.2
;MINX:83.208
;MINY:83.208
;MINZ:0.2
;MAXX:136.792
;MAXY:136.792
;MAXZ:30
;Generated with Cura_SteamEngine 4.8.0
M140 S60
M105
M190 S60
M104 S200
M105
M109 S200
M82 ;absolute extrusion mode
; Ender 3 Custom Start G-code
G92 E0 ; Reset Extruder
G28 ; Home all axes
G1 Z2.0 F3000 ; Move Z Axis up little to prevent scratching of Heat Bed
G1 X0.1 Y20 Z0.3 F5000.0 ; Move to start position
G1 X0.1 Y200.0 Z0.3 F1500.0 E15 ; Draw the first line
G1 X0.4 Y200.0 Z0.3 F5000.0 ; Move to side a little
G1 X0.4 Y20 Z0.3 F1500.0 E30 ; Draw the second line
G92 E0 ; Reset Extruder
G1 Z2.0 F3000 ; Move Z Axis up little to prevent scratching of Heat Bed
G1 X5 Y20 Z0.3 F5000.0 ; Move over to prevent blob squish
G92 E0
G92 E0
G1 F1500 E-6.5
;LAYER_COUNT:150
;LAYER:0
M107
G0 F6000 X91.048 Y91.065 Z0.2
;TYPE:SKIRT
G1 F1500 E0
G1 F480 X91.262 Y90.852 E0.01004
G1 X91.615 Y90.514 E0.0263
G1 X92.037 Y90.123 E0.04543
G1 X92.313 Y89.876 E0.05775
G1 X92.627 Y89.607 E0.0715
G1 X93.103 Y89.211 E0.0921
G1 X93.361 Y89.002 E0.10314
G1 X93.72 Y88.725 E0.11822
G1 X94.223 Y88.348 E0.13913
G1 X94.49 Y88.154 E0.15011
G1 X94.798 Y87.94 E0.16258
G1 X95.324 Y87.587 E0.18365
G1 X95.746 Y87.315 E0.20035
G1 X96.009 Y87.153 E0.21062
G1 X96.521 Y86.847 E0.23046
G1 X96.862 Y86.65 E0.24356
G1 X97.132 Y86.501 E0.25382
G1 X97.685 Y86.207 E0.27465
G1 X97.93 Y86.081 E0.28381
G1 X98.142 Y85.975 E0.29169
G1 X98.414 Y85.844 E0.30174
G1 X98.989 Y85.576 E0.32283
G1 X99.277 Y85.446 E0.33334
G1 X99.528 Y85.34 E0.34241
G1 X100.157 Y85.082 E0.36502
G1 X100.421 Y84.977 E0.37447
G1 X100.563 Y84.923 E0.37952
G1 X100.83 Y84.826 E0.38897
G1 X101.397 Y84.627 E0.40896
G1 X101.793 Y84.495 E0.42284
G1 X102.071 Y84.409 E0.43252
G1 X102.769 Y84.203 E0.45672
G1 X103.285 Y84.064 E0.4745
G1 X104.042 Y83.88 E0.50041
G1 X104.524 Y83.774 E0.51682
G1 X105.223 Y83.637 E0.54051
G1 X105.748 Y83.548 E0.55823
G1 X106.48 Y83.441 E0.58283
G1 X106.988 Y83.378 E0.59986
G1 X107.726 Y83.305 E0.62452
G1 X108.227 Y83.267 E0.64123
G1 X108.944 Y83.229 E0.66511
G1 X109.432 Y83.214 E0.68135
G1 X110.132 Y83.208 E0.70464
G1 X110.623 Y83.215 E0.72097
G1 X111.315 Y83.24 E0.744
G1 X111.809 Y83.269 E0.76046
G1 X112.547 Y83.329 E0.78508
G1 X113.07 Y83.384 E0.80258
G1 X113.795 Y83.478 E0.82689
G1 X114.282 Y83.553 E0.84328
G1 X115 Y83.679 E0.86753
G1 X115.501 Y83.778 E0.88451
G1 X116.343 Y83.968 E0.91322
G1 X116.467 Y83.998 E0.91746
G1 X116.833 Y84.094 E0.93005
G1 X117.522 Y84.286 E0.95384
G1 X118.006 Y84.433 E0.97066
G1 X118.684 Y84.656 E0.9944
G1 X118.978 Y84.757 E1.00474
G1 X119.276 Y84.865 E1.01528
G1 X119.855 Y85.086 E1.03589
G1 X120.209 Y85.229 E1.04859
G1 X120.537 Y85.369 E1.06045
G1 X121.206 Y85.665 E1.08479
G1 X121.687 Y85.892 E1.10248
G1 X122.315 Y86.207 E1.12584
G1 X122.611 Y86.361 E1.13694
G1 X122.954 Y86.549 E1.14995
G1 X123.526 Y86.874 E1.17183
G1 X123.866 Y87.075 E1.18497
G1 X124.114 Y87.227 E1.19464
G1 X124.623 Y87.551 E1.21471
G1 X124.886 Y87.725 E1.2252
G1 X125.312 Y88.017 E1.24238
G1 X125.823 Y88.381 E1.26325
G1 X126.11 Y88.592 E1.27509
G1 X126.378 Y88.799 E1.28636
G1 X126.91 Y89.221 E1.30894
G1 X127.253 Y89.503 E1.32371
G1 X127.496 Y89.711 E1.33435
G1 X128.089 Y90.237 E1.36071
G1 X128.263 Y90.397 E1.36858
G1 X128.511 Y90.633 E1.37996
G1 X128.935 Y91.048 E1.3997
G1 X129.148 Y91.262 E1.40974
G1 X129.486 Y91.615 E1.42599
G1 X129.877 Y92.037 E1.44513
G1 X130.124 Y92.313 E1.45745
G1 X130.393 Y92.627 E1.4712
G1 X130.789 Y93.103 E1.49179
G1 X130.965 Y93.32 E1.50109
G1 X131.089 Y93.477 E1.50774
G1 X131.263 Y93.703 E1.51723
G1 X131.656 Y94.228 E1.53904
G1 X131.922 Y94.598 E1.55419
G1 X132.06 Y94.798 E1.56228
G1 X132.413 Y95.324 E1.58335
G1 X132.685 Y95.746 E1.60004
G1 X132.847 Y96.009 E1.61032
G1 X133.153 Y96.521 E1.63016
G1 X133.35 Y96.862 E1.64326
G1 X133.499 Y97.132 E1.65351
G1 X133.793 Y97.685 E1.67434
G1 X133.919 Y97.93 E1.68351
G1 X134.025 Y98.142 E1.69139
G1 X134.153 Y98.407 E1.70118
G1 X134.421 Y98.981 E1.72225
G1 X134.623 Y99.442 E1.73899
G1 X134.91 Y100.138 E1.76403
G1 X135.023 Y100.421 E1.77416
G1 X135.077 Y100.563 E1.77922
G1 X135.174 Y100.83 E1.78866
G1 X135.373 Y101.397 E1.80865
G1 X135.498 Y101.771 E1.82177
G1 X135.592 Y102.074 E1.83232
G1 X135.798 Y102.773 E1.85656
G1 X135.93 Y103.262 E1.8734
G1 X136.116 Y104.02 E1.89936
G1 X136.232 Y104.549 E1.91737
G1 X136.367 Y105.246 E1.94099
G1 X136.453 Y105.749 E1.95796
G1 X136.56 Y106.482 E1.9826
G1 X136.621 Y106.985 E1.99945
G1 X136.694 Y107.721 E2.02405
G1 X136.733 Y108.226 E2.0409
G1 X136.771 Y108.945 E2.06484
G1 X136.786 Y109.432 E2.08105
G1 X136.792 Y110.132 E2.10433
G1 X136.785 Y110.623 E2.12066
G1 X136.76 Y111.315 E2.14369
G1 X136.731 Y111.809 E2.16015
G1 X136.671 Y112.547 E2.18478
G1 X136.616 Y113.07 E2.20227
G1 X136.522 Y113.795 E2.22659
G1 X136.447 Y114.282 E2.24298
G1 X136.321 Y115 E2.26722
G1 X136.222 Y115.501 E2.28421
G1 X136.032 Y116.343 E2.31292
G1 X136.002 Y116.467 E2.31716
G1 X135.907 Y116.83 E2.32964
G1 X135.716 Y117.516 E2.35332
G1 X135.568 Y118.003 E2.37025
G1 X135.344 Y118.684 E2.3941
G1 X135.243 Y118.978 E2.40444
G1 X135.135 Y119.276 E2.41498
G1 X134.914 Y119.855 E2.43559
G1 X134.771 Y120.209 E2.44829
G1 X134.629 Y120.542 E2.46033
G1 X134.333 Y121.21 E2.48463
G1 X134.112 Y121.68 E2.50191
G1 X133.797 Y122.309 E2.5253
G1 X133.58 Y122.721 E2.54079
G1 X133.449 Y122.959 E2.54983
G1 X133.123 Y123.532 E2.57175
G1 X132.925 Y123.866 E2.58467
G1 X132.773 Y124.114 E2.59434
G1 X132.449 Y124.623 E2.61441
G1 X132.275 Y124.886 E2.6249
G1 X131.983 Y125.312 E2.64208
G1 X131.619 Y125.823 E2.66294
G1 X131.408 Y126.11 E2.67479
G1 X131.201 Y126.378 E2.68605
G1 X130.779 Y126.91 E2.70864
G1 X130.497 Y127.253 E2.72341
G1 X130.289 Y127.496 E2.73405
G1 X129.763 Y128.089 E2.76041
G1 X129.603 Y128.263 E2.76827
G1 X129.367 Y128.511 E2.77966
G1 X128.952 Y128.935 E2.79939
G1 X128.738 Y129.148 E2.80944
G1 X128.385 Y129.486 E2.82569
G1 X127.963 Y129.877 E2.84483
G1 X127.714 Y130.101 E2.85596
G1 X127.375 Y130.392 E2.87082
G1 X126.891 Y130.794 E2.89175
G1 X126.646 Y130.992 E2.90223
G1 X126.28 Y131.275 E2.91762
G1 X125.777 Y131.652 E2.93852
G1 X125.425 Y131.906 E2.95296
G1 X125.218 Y132.049 E2.96133
G1 X124.679 Y132.411 E2.98292
G1 X124.254 Y132.685 E2.99974
G1 X123.991 Y132.847 E3.01002
G1 X123.479 Y133.153 E3.02985
G1 X123.138 Y133.35 E3.04295
G1 X122.868 Y133.499 E3.05321
G1 X122.315 Y133.793 E3.07404
G1 X122.07 Y133.919 E3.0832
G1 X121.858 Y134.025 E3.09109
G1 X121.586 Y134.156 E3.10113
G1 X121.011 Y134.424 E3.12223
G1 X120.723 Y134.554 E3.13274
G1 X120.472 Y134.66 E3.1418
G1 X119.843 Y134.918 E3.16441
G1 X119.424 Y135.081 E3.17937
G1 X119.177 Y135.172 E3.18812
G1 X118.608 Y135.372 E3.20818
G1 X118.207 Y135.505 E3.22223
G1 X117.929 Y135.591 E3.23191
G1 X117.231 Y135.797 E3.25612
G1 X116.738 Y135.93 E3.2731
G1 X115.98 Y136.116 E3.29906
G1 X115.451 Y136.232 E3.31707
G1 X114.754 Y136.367 E3.34069
G1 X114.251 Y136.453 E3.35766
G1 X113.518 Y136.56 E3.3823
G1 X113.012 Y136.622 E3.39925
G1 X112.274 Y136.695 E3.42392
G1 X111.773 Y136.733 E3.44063
G1 X111.056 Y136.771 E3.46451
G1 X110.568 Y136.786 E3.48075
G1 X109.868 Y136.792 E3.50403
G1 X109.377 Y136.785 E3.52036
G1 X108.685 Y136.76 E3.54339
G1 X108.191 Y136.731 E3.55985
G1 X107.453 Y136.671 E3.58448
G1 X106.93 Y136.616 E3.60197
G1 X106.205 Y136.522 E3.62629
G1 X105.718 Y136.447 E3.64268
G1 X105 Y136.321 E3.66692
G1 X104.499 Y136.222 E3.68391
G1 X103.657 Y136.032 E3.71262
G1 X103.533 Y136.002 E3.71686
G1 X103.167 Y135.906 E3.72944
G1 X102.478 Y135.714 E3.75323
G1 X101.994 Y135.567 E3.77006
G1 X101.316 Y135.344 E3.7938
G1 X101.022 Y135.243 E3.80414
G1 X100.724 Y135.135 E3.81468
G1 X100.145 Y134.914 E3.83529
G1 X99.791 Y134.771 E3.84799
G1 X99.472 Y134.635 E3.85952
G1 X98.806 Y134.341 E3.88374
G1 X98.31 Y134.107 E3.90198
G1 X97.679 Y133.79 E3.92546
G1 X97.389 Y133.639 E3.93634
G1 X97.046 Y133.451 E3.94935
G1 X96.474 Y133.126 E3.97123
G1 X96.134 Y132.925 E3.98437
G1 X95.886 Y132.773 E3.99404
G1 X95.377 Y132.449 E4.01411
G1 X95.114 Y132.275 E4.0246
G1 X94.685 Y131.981 E4.04189
G1 X94.173 Y131.616 E4.06281
G1 X93.902 Y131.417 E4.07399
G1 X93.622 Y131.201 E4.08575
G1 X93.09 Y130.779 E4.10834
G1 X92.74 Y130.491 E4.12341
G1 X92.504 Y130.289 E4.13375
G1 X92.079 Y129.914 E4.1526
G1 X91.865 Y129.721 E4.16218
G1 X91.679 Y129.548 E4.17063
G1 X91.489 Y129.366 E4.17938
G1 X91.076 Y128.963 E4.19857
G1 X90.85 Y128.736 E4.20923
G1 X90.515 Y128.386 E4.22534
G1 X90.123 Y127.963 E4.24452
G1 X89.873 Y127.684 E4.25698
G1 X89.595 Y127.36 E4.27118
G1 X89.202 Y126.887 E4.29164
G1 X89.012 Y126.651 E4.30171
G1 X88.862 Y126.46 E4.30979
G1 X88.694 Y126.241 E4.31897
G1 X88.319 Y125.738 E4.33984
G1 X88.089 Y125.418 E4.35295
G1 X87.939 Y125.201 E4.36172
G1 X87.586 Y124.675 E4.38279
G1 X87.307 Y124.241 E4.39995
G1 X87.148 Y123.983 E4.41003
G1 X86.842 Y123.47 E4.4299
G1 X86.668 Y123.169 E4.44146
G1 X86.502 Y122.869 E4.45286
G1 X86.201 Y122.303 E4.47419
G1 X86.064 Y122.038 E4.48411
G1 X85.965 Y121.839 E4.4915
G1 X85.844 Y121.586 E4.50083
G1 X85.576 Y121.011 E4.52193
G1 X85.446 Y120.723 E4.53244
G1 X85.34 Y120.472 E4.5415
G1 X85.082 Y119.843 E4.56411
G1 X84.977 Y119.579 E4.57356
G1 X84.923 Y119.437 E4.57861
G1 X84.826 Y119.17 E4.58806
G1 X84.627 Y118.603 E4.60805
G1 X84.495 Y118.207 E4.62193
G1 X84.409 Y117.929 E4.63161
G1 X84.203 Y117.231 E4.65582
G1 X84.07 Y116.738 E4.6728
G1 X83.884 Y115.98 E4.69876
G1 X83.768 Y115.451 E4.71677
G1 X83.633 Y114.754 E4.74039
G1 X83.547 Y114.251 E4.75736
G1 X83.44 Y113.518 E4.782
G1 X83.378 Y113.012 E4.79895
G1 X83.305 Y112.274 E4.82362
G1 X83.267 Y111.773 E4.84033
G1 X83.229 Y111.056 E4.86421
G1 X83.214 Y110.568 E4.88045
G1 X83.208 Y109.868 E4.90373
G1 X83.215 Y109.377 E4.92006
G1 X83.24 Y108.685 E4.94309
G1 X83.269 Y108.191 E4.95955
G1 X83.329 Y107.453 E4.98418
G1 X83.384 Y106.93 E5.00167
G1 X83.478 Y106.205 E5.02599
G1 X83.553 Y105.718 E5.04238
G1 X83.679 Y105 E5.06662
G1 X83.78 Y104.493 E5.08382
G1 X83.97 Y103.653 E5.11246
G1 X83.996 Y103.545 E5.11615
G1 X84.094 Y103.167 E5.12914
G1 X84.286 Y102.478 E5.15293
G1 X84.433 Y101.993 E5.16979
G1 X84.66 Y101.303 E5.19395
G1 X84.763 Y101.003 E5.2045
G1 X84.865 Y100.724 E5.21438
G1 X85.086 Y100.145 E5.23499
G1 X85.224 Y99.802 E5.24729
G1 X85.371 Y99.456 E5.25979
G1 X85.661 Y98.8 E5.28365
G1 X85.899 Y98.298 E5.30212
G1 X86.223 Y97.655 E5.32607
G1 X86.402 Y97.313 E5.33891
G1 X86.552 Y97.039 E5.3493
G1 X86.889 Y96.447 E5.37196
G1 X87.092 Y96.105 E5.38518
G1 X87.227 Y95.886 E5.39374
G1 X87.551 Y95.377 E5.41381
G1 X87.725 Y95.114 E5.4243
G1 X88.017 Y94.688 E5.44148
G1 X88.381 Y94.177 E5.46234
G1 X88.592 Y93.89 E5.47419
G1 X88.799 Y93.622 E5.48545
G1 X89.221 Y93.09 E5.50804
G1 X89.407 Y92.862 E5.51783
G1 X89.536 Y92.708 E5.52451
G1 X89.718 Y92.496 E5.5338
G1 X90.084 Y92.081 E5.5522
G1 X90.397 Y91.737 E5.56767
G1 X90.633 Y91.489 E5.57906
G1 X91.048 Y91.065 E5.59879
G0 F6000 X91.334 Y91.344
G1 F480 X91.54 Y91.139 E5.60846
G1 X91.722 Y90.963 E5.61688
G1 X92.309 Y90.417 E5.64354
G1 X92.575 Y90.178 E5.65544
G1 X92.883 Y89.914 E5.66893
G1 X93.359 Y89.518 E5.68952
G1 X93.608 Y89.317 E5.70017
G1 X93.96 Y89.045 E5.71496
G1 X94.463 Y88.668 E5.73587
G1 X94.72 Y88.481 E5.74644
G1 X95.021 Y88.272 E5.75863
G1 X95.547 Y87.919 E5.7797
G1 X95.763 Y87.778 E5.78828
G1 X95.961 Y87.652 E5.79608
G1 X96.214 Y87.496 E5.80597
G1 X96.726 Y87.19 E5.82581
G1 X97.06 Y86.998 E5.83862
G1 X97.32 Y86.855 E5.84849
G1 X97.873 Y86.561 E5.86932
G1 X98.109 Y86.439 E5.87816
G1 X98.321 Y86.333 E5.88604
G1 X98.583 Y86.206 E5.89573
G1 X99.158 Y85.938 E5.91683
G1 X99.438 Y85.812 E5.92704
G1 X99.679 Y85.71 E5.93574
G1 X100.308 Y85.452 E5.95835
G1 X100.705 Y85.297 E5.97253
G1 X100.963 Y85.203 E5.98166
G1 X101.53 Y85.004 E6.00165
G1 X101.917 Y84.875 E6.01522
G1 X102.185 Y84.793 E6.02454
G1 X102.883 Y84.587 E6.04874
G1 X103.379 Y84.453 E6.06583
G1 X104.136 Y84.269 E6.09174
G1 X104.601 Y84.167 E6.10758
G1 X105.3 Y84.03 E6.13127
G1 X105.806 Y83.943 E6.14834
G1 X106.538 Y83.836 E6.17295
G1 X107.028 Y83.776 E6.18937
G1 X107.766 Y83.703 E6.21403
G1 X108.248 Y83.667 E6.23011
G1 X108.965 Y83.629 E6.25399
G1 X109.435 Y83.614 E6.26963
G1 X110.135 Y83.608 E6.29291
G1 X110.609 Y83.615 E6.30868
G1 X111.301 Y83.64 E6.33171
G1 X111.777 Y83.668 E6.34757
G1 X112.515 Y83.728 E6.3722
G1 X113.019 Y83.781 E6.38905
G1 X113.744 Y83.875 E6.41337
G1 X114.213 Y83.947 E6.42915
G1 X114.931 Y84.073 E6.4534
G1 X115.413 Y84.169 E6.46974
G1 X116.249 Y84.357 E6.49824
G1 X116.373 Y84.387 E6.50249
G1 X116.725 Y84.479 E6.51459
G1 X117.414 Y84.671 E6.53838
G1 X117.881 Y84.813 E6.55461
G1 X118.74 Y85.097 E6.5847
G1 X119.133 Y85.239 E6.5986
G1 X119.712 Y85.46 E6.61921
G1 X120.054 Y85.597 E6.63147
G1 X120.375 Y85.734 E6.64308
G1 X121.044 Y86.03 E6.66741
G1 X121.508 Y86.249 E6.68447
G1 X122.136 Y86.564 E6.70784
G1 X122.421 Y86.713 E6.71854
G1 X122.756 Y86.897 E6.73125
G1 X123.328 Y87.222 E6.75313
G1 X123.661 Y87.418 E6.76598
G1 X123.899 Y87.565 E6.77529
G1 X124.408 Y87.889 E6.79535
G1 X124.662 Y88.056 E6.80546
G1 X125.08 Y88.342 E6.82231
G1 X125.591 Y88.706 E6.84318
G1 X125.868 Y88.91 E6.85462
G1 X126.129 Y89.112 E6.8656
G1 X126.661 Y89.534 E6.88818
G1 X126.997 Y89.81 E6.90264
G1 X127.231 Y90.011 E6.9129
G1 X127.818 Y90.531 E6.93899
G1 X127.992 Y90.691 E6.94685
G1 X128.232 Y90.919 E6.95786
G1 X128.656 Y91.334 E6.97759
G1 X128.861 Y91.54 E6.98726
G1 X129.037 Y91.722 E6.99568
G1 X129.583 Y92.309 E7.02234
G1 X129.822 Y92.575 E7.03424
G1 X130.086 Y92.883 E7.04773
G1 X130.482 Y93.359 E7.06832
G1 X130.775 Y93.725 E7.08392
G1 X130.943 Y93.943 E7.09307
G1 X131.336 Y94.468 E7.11488
G1 X131.595 Y94.828 E7.12963
G1 X131.728 Y95.021 E7.13743
G1 X132.081 Y95.547 E7.1585
G1 X132.222 Y95.763 E7.16708
G1 X132.348 Y95.961 E7.17488
G1 X132.504 Y96.214 E7.18477
G1 X132.81 Y96.726 E7.20461
G1 X133.002 Y97.06 E7.21742
G1 X133.145 Y97.32 E7.22729
G1 X133.439 Y97.873 E7.24812
G1 X133.561 Y98.109 E7.25696
G1 X133.667 Y98.321 E7.26484
G1 X133.791 Y98.577 E7.2743
G1 X134.059 Y99.151 E7.29537
G1 X134.254 Y99.594 E7.31147
G1 X134.541 Y100.29 E7.33651
G1 X134.703 Y100.705 E7.35133
G1 X134.797 Y100.963 E7.36046
G1 X134.996 Y101.53 E7.38045
G1 X135.118 Y101.895 E7.39325
G1 X135.209 Y102.188 E7.40345
G1 X135.415 Y102.887 E7.42769
G1 X135.542 Y103.357 E7.44388
G1 X135.728 Y104.115 E7.46984
G1 X135.84 Y104.625 E7.48721
G1 X135.975 Y105.322 E7.51082
G1 X136.057 Y105.807 E7.52718
G1 X136.164 Y106.54 E7.55182
G1 X136.223 Y107.025 E7.56807
G1 X136.296 Y107.761 E7.59267
G1 X136.333 Y108.248 E7.60891
G1 X136.371 Y108.967 E7.63286
G1 X136.386 Y109.435 E7.64843
G1 X136.392 Y110.135 E7.67172
G1 X136.385 Y110.609 E7.68748
G1 X136.36 Y111.301 E7.71052
G1 X136.332 Y111.777 E7.72637
G1 X136.272 Y112.515 E7.751
G1 X136.219 Y113.019 E7.76786
G1 X136.125 Y113.744 E7.79217
G1 X136.053 Y114.213 E7.80795
G1 X135.927 Y114.931 E7.8322
G1 X135.831 Y115.413 E7.84855
G1 X135.643 Y116.249 E7.87705
G1 X135.613 Y116.373 E7.88129
G1 X135.522 Y116.723 E7.89332
G1 X135.331 Y117.409 E7.917
G1 X135.188 Y117.878 E7.93331
G1 X134.903 Y118.74 E7.96351
G1 X134.761 Y119.133 E7.9774
G1 X134.54 Y119.712 E7.99802
G1 X134.403 Y120.054 E8.01027
G1 X134.263 Y120.38 E8.02207
G1 X133.967 Y121.048 E8.04637
G1 X133.754 Y121.5 E8.06299
G1 X133.439 Y122.129 E8.08639
G1 X133.301 Y122.396 E8.09639
G1 X133.101 Y122.761 E8.11023
G1 X132.775 Y123.334 E8.13216
G1 X132.582 Y123.661 E8.14478
G1 X132.435 Y123.899 E8.15409
G1 X132.111 Y124.408 E8.17416
G1 X131.944 Y124.662 E8.18427
G1 X131.658 Y125.08 E8.20111
G1 X131.294 Y125.591 E8.22198
G1 X131.09 Y125.868 E8.23342
G1 X130.888 Y126.129 E8.2444
G1 X130.466 Y126.661 E8.26698
G1 X130.19 Y126.997 E8.28145
G1 X129.989 Y127.231 E8.29171
G1 X129.469 Y127.818 E8.31779
G1 X129.309 Y127.992 E8.32565
G1 X129.081 Y128.232 E8.33666
G1 X128.666 Y128.656 E8.35639
G1 X128.46 Y128.861 E8.36606
G1 X128.278 Y129.037 E8.37448
G1 X127.691 Y129.583 E8.40114
G1 X127.451 Y129.799 E8.41188
G1 X127.12 Y130.084 E8.42641
G1 X126.636 Y130.486 E8.44734
G1 X126.4 Y130.677 E8.45744
G1 X126.04 Y130.955 E8.47256
G1 X125.537 Y131.332 E8.49347
G1 X125.194 Y131.579 E8.50753
G1 X124.995 Y131.717 E8.51558
G1 X124.456 Y132.079 E8.53718
