;FLAVOR:Marlin
;TIME:3561
;Filament used: 2.40353m
;Layer height: 0.2
;MINX:91.488
;MINY:87.2
;MINZ:0.2
;MAXX:128.512
;MAXY:132.8
;MAXZ:29.8
;Generated with Cura_SteamEngine 4.8.0
M140 S70
M105
M190 S70
M104 S200
M105
M109 S200
M82 ;absolute extrusion mode
; Ender 3 Custom Start G-code
G92 E0 ; Reset Extruder
G28 ; Home all axes
G1 Z2.0 F3000 ; Move Z Axis up little to prevent scratching of Heat Bed
G1 X0.1 Y20 Z0.3 F5000.0 ; Move to start position
G1 X0.1 Y200.0 Z0.3 F1500.0 E15 ; Draw the first line
G1 X0.4 Y200.0 Z0.3 F5000.0 ; Move to side a little
G1 X0.4 Y20 Z0.3 F1500.0 E30 ; Draw the second line
G92 E0 ; Reset Extruder
G1 Z2.0 F3000 ; Move Z Axis up little to prevent scratching of Heat Bed
G1 X5 Y20 Z0.3 F5000.0 ; Move over to prevent blob squish
G92 E0
G92 E0
G1 F1500 E-6.5
;LAYER_COUNT:149
;LAYER:0
M107
G0 F6000 X93.773 Y89.602 Z0.2
;TYPE:SKIRT
G1 F1500 E0
G1 F480 X93.89 Y89.485 E0.0055
G1 X94.476 Y88.955 E0.03178
G1 X95.112 Y88.488 E0.05803
G1 X95.792 Y88.087 E0.08428
G1 X96.51 Y87.757 E0.11057
G1 X97.257 Y87.502 E0.13682
G1 X98.026 Y87.323 E0.16308
G1 X98.81 Y87.223 E0.18937
G1 X99.405 Y87.2 E0.20917
G1 X107.138 Y87.2 E0.46637
G1 X107.734 Y87.23 E0.48622
G1 X107.791 Y87.223 E0.48813
G1 X108.386 Y87.2 E0.50793
G1 X111.614 Y87.2 E0.6153
G1 X112.312 Y87.235 E0.63854
G1 X112.862 Y87.2 E0.65687
G1 X120.595 Y87.2 E0.91407
G1 X121.384 Y87.24 E0.94035
G1 X122.164 Y87.359 E0.96659
G1 X122.929 Y87.557 E0.99288
G1 X123.669 Y87.831 E1.01912
G1 X124.378 Y88.179 E1.04539
G1 X125.049 Y88.597 E1.07168
G1 X125.673 Y89.08 E1.09793
G1 X126.11 Y89.485 E1.11775
G1 X126.227 Y89.602 E1.12325
G1 X126.757 Y90.188 E1.14953
G1 X127.224 Y90.824 E1.17577
G1 X127.625 Y91.504 E1.20203
G1 X127.955 Y92.222 E1.22831
G1 X128.21 Y92.969 E1.25456
G1 X128.389 Y93.738 E1.28082
G1 X128.489 Y94.522 E1.30711
G1 X128.512 Y95.117 E1.32692
G1 X128.512 Y124.883 E2.31694
G1 X128.472 Y125.672 E2.34321
G1 X128.353 Y126.452 E2.36946
G1 X128.155 Y127.217 E2.39574
G1 X127.881 Y127.957 E2.42198
G1 X127.533 Y128.666 E2.44825
G1 X127.115 Y129.337 E2.47455
G1 X126.632 Y129.961 E2.50079
G1 X126.227 Y130.398 E2.52061
G1 X126.11 Y130.515 E2.52611
G1 X125.524 Y131.045 E2.55239
G1 X124.888 Y131.512 E2.57864
G1 X124.208 Y131.913 E2.60489
G1 X123.49 Y132.243 E2.63117
G1 X122.743 Y132.498 E2.65743
G1 X121.974 Y132.677 E2.68369
G1 X121.19 Y132.777 E2.70998
G1 X120.595 Y132.8 E2.72978
G1 X112.862 Y132.8 E2.98698
G1 X112.266 Y132.77 E3.00683
G1 X112.209 Y132.777 E3.00874
G1 X111.614 Y132.8 E3.02854
G1 X108.386 Y132.8 E3.13591
G1 X107.689 Y132.765 E3.15912
G1 X107.139 Y132.8 E3.17745
G1 X99.406 Y132.8 E3.43465
G1 X98.617 Y132.76 E3.46093
G1 X97.837 Y132.641 E3.48717
G1 X97.072 Y132.443 E3.51345
G1 X96.332 Y132.169 E3.5397
G1 X95.623 Y131.821 E3.56597
G1 X94.952 Y131.403 E3.59226
G1 X94.328 Y130.92 E3.6185
G1 X93.891 Y130.515 E3.63832
G1 X93.774 Y130.398 E3.64382
G1 X93.244 Y129.812 E3.6701
G1 X92.777 Y129.176 E3.69635
G1 X92.376 Y128.496 E3.7226
G1 X92.046 Y127.778 E3.74889
G1 X91.791 Y127.031 E3.77514
G1 X91.612 Y126.262 E3.8014
G1 X91.512 Y125.478 E3.82769
G1 X91.489 Y124.883 E3.84749
G1 X91.488 Y95.117 E4.83751
G1 X91.528 Y94.329 E4.86376
G1 X91.647 Y93.548 E4.89003
G1 X91.845 Y92.783 E4.91631
G1 X92.119 Y92.043 E4.94256
G1 X92.467 Y91.334 E4.96883
G1 X92.884 Y90.664 E4.99508
G1 X93.367 Y90.039 E5.02135
G1 X93.773 Y89.602 E5.04119
G0 F6000 X94.055 Y89.884
G1 F480 X94.172 Y89.767 E5.04669
G1 X94.744 Y89.253 E5.07227
G1 X95.366 Y88.8 E5.09786
G1 X96.031 Y88.414 E5.12344
G1 X96.733 Y88.099 E5.14903
G1 X97.464 Y87.859 E5.17462
G1 X98.215 Y87.696 E5.20018
G1 X98.98 Y87.612 E5.22577
G1 X99.405 Y87.6 E5.23992
G1 X107.138 Y87.6 E5.49712
G1 X107.77 Y87.633 E5.51817
G1 X107.961 Y87.612 E5.52456
G1 X108.386 Y87.6 E5.5387
G1 X111.614 Y87.6 E5.64606
G1 X112.231 Y87.632 E5.66661
G1 X112.356 Y87.617 E5.6708
G1 X112.862 Y87.6 E5.68764
G1 X120.595 Y87.6 E5.94484
G1 X121.363 Y87.64 E5.97042
G1 X122.123 Y87.759 E5.996
G1 X122.866 Y87.957 E6.02158
G1 X123.585 Y88.231 E6.04717
G1 X124.271 Y88.578 E6.07274
G1 X124.918 Y88.994 E6.09832
G1 X125.518 Y89.475 E6.1239
G1 X125.828 Y89.767 E6.13806
G1 X125.945 Y89.884 E6.14357
G1 X126.459 Y90.456 E6.16914
G1 X126.912 Y91.078 E6.19474
G1 X127.298 Y91.743 E6.22031
G1 X127.613 Y92.445 E6.2459
G1 X127.853 Y93.176 E6.27149
G1 X128.016 Y93.927 E6.29705
G1 X128.1 Y94.692 E6.32265
G1 X128.112 Y95.117 E6.33679
G1 X128.112 Y124.883 E7.32681
G1 X128.072 Y125.651 E7.35239
G1 X127.953 Y126.411 E7.37797
G1 X127.755 Y127.154 E7.40355
G1 X127.481 Y127.873 E7.42914
G1 X127.134 Y128.559 E7.45471
G1 X126.718 Y129.206 E7.48029
G1 X126.237 Y129.806 E7.50587
G1 X125.945 Y130.116 E7.52004
G1 X125.828 Y130.233 E7.52554
G1 X125.256 Y130.747 E7.55112
G1 X124.634 Y131.2 E7.57671
G1 X123.969 Y131.586 E7.60228
G1 X123.267 Y131.901 E7.62787
G1 X122.536 Y132.141 E7.65346
G1 X121.785 Y132.304 E7.67902
G1 X121.02 Y132.388 E7.70462
G1 X120.595 Y132.4 E7.71876
G1 X112.862 Y132.4 E7.97596
G1 X112.23 Y132.367 E7.99701
G1 X112.039 Y132.388 E8.0034
G1 X111.614 Y132.4 E8.01754
G1 X108.386 Y132.4 E8.12491
G1 X107.769 Y132.368 E8.14546
G1 X107.645 Y132.383 E8.14961
G1 X107.139 Y132.4 E8.16645
G1 X99.406 Y132.4 E8.42365
G1 X98.638 Y132.36 E8.44923
G1 X97.878 Y132.241 E8.47482
G1 X97.135 Y132.043 E8.50039
G1 X96.416 Y131.769 E8.52598
G1 X95.73 Y131.422 E8.55155
G1 X95.083 Y131.006 E8.57713
G1 X94.483 Y130.525 E8.60271
G1 X94.173 Y130.233 E8.61688
G1 X94.056 Y130.116 E8.62238
G1 X93.542 Y129.544 E8.64796
G1 X93.089 Y128.922 E8.67355
G1 X92.703 Y128.257 E8.69912
G1 X92.388 Y127.555 E8.72472
G1 X92.148 Y126.824 E8.75031
G1 X91.985 Y126.073 E8.77587
G1 X91.901 Y125.308 E8.80146
G1 X91.889 Y124.883 E8.8156
G1 X91.888 Y95.117 E9.80562
G1 X91.928 Y94.349 E9.8312
G1 X92.047 Y93.589 E9.85679
G1 X92.245 Y92.846 E9.88236
G1 X92.519 Y92.127 E9.90795
G1 X92.866 Y91.441 E9.93352
G1 X93.282 Y90.794 E9.95911
G1 X93.763 Y90.194 E9.98468
G1 X94.055 Y89.884 E9.99885
G0 F6000 X94.338 Y90.167
G1 F480 X94.455 Y90.05 E10.00435
G1 X95.012 Y89.55 E10.02925
G1 X95.618 Y89.113 E10.0541
G1 X96.268 Y88.742 E10.07899
G1 X96.954 Y88.443 E10.10388
G1 X97.668 Y88.219 E10.12877
G1 X98.401 Y88.072 E10.15363
G1 X99.405 Y88 E10.18711
G1 X107.138 Y88 E10.44431
G1 X107.852 Y88.038 E10.46809
G1 X108.386 Y88 E10.4859
G1 X111.614 Y88 E10.59326
G1 X112.249 Y88.034 E10.61441
G1 X112.862 Y88 E10.63483
G1 X120.595 Y88 E10.89204
G1 X121.342 Y88.04 E10.91692
G1 X122.08 Y88.159 E10.94178
G1 X122.802 Y88.357 E10.96668
G1 X123.498 Y88.63 E10.99155
G1 X124.161 Y88.977 E11.01643
G1 X124.784 Y89.392 E11.04133
G1 X125.545 Y90.05 E11.07479
G1 X125.662 Y90.167 E11.0803
G1 X126.162 Y90.724 E11.10519
G1 X126.599 Y91.33 E11.13004
G1 X126.97 Y91.98 E11.15493
G1 X127.269 Y92.666 E11.17982
G1 X127.493 Y93.38 E11.20471
G1 X127.64 Y94.113 E11.22958
G1 X127.712 Y95.117 E11.26306
G1 X127.712 Y124.883 E12.25308
G1 X127.672 Y125.63 E12.27796
G1 X127.553 Y126.368 E12.30282
G1 X127.355 Y127.09 E12.32772
G1 X127.082 Y127.786 E12.35259
G1 X126.735 Y128.449 E12.37748
G1 X126.32 Y129.072 E12.40237
G1 X125.662 Y129.833 E12.43584
G1 X125.545 Y129.95 E12.44134
G1 X124.988 Y130.45 E12.46623
G1 X124.382 Y130.887 E12.49108
G1 X123.732 Y131.258 E12.51598
G1 X123.046 Y131.557 E12.54087
G1 X122.332 Y131.781 E12.56575
G1 X121.599 Y131.928 E12.59062
G1 X120.595 Y132 E12.6241
G1 X112.862 Y132 E12.8813
G1 X112.148 Y131.962 E12.90508
G1 X111.614 Y132 E12.92289
G1 X108.386 Y132 E13.03025
G1 X107.751 Y131.966 E13.0514
G1 X107.139 Y132 E13.07179
G1 X99.406 Y132 E13.32899
G1 X98.659 Y131.96 E13.35387
G1 X97.921 Y131.841 E13.37873
G1 X97.199 Y131.643 E13.40363
G1 X96.503 Y131.37 E13.4285
G1 X95.84 Y131.023 E13.45339
G1 X95.217 Y130.608 E13.47828
G1 X94.456 Y129.95 E13.51175
G1 X94.339 Y129.833 E13.51725
G1 X93.839 Y129.276 E13.54214
G1 X93.402 Y128.67 E13.56699
G1 X93.031 Y128.02 E13.59189
G1 X92.732 Y127.334 E13.61678
G1 X92.508 Y126.62 E13.64166
G1 X92.361 Y125.887 E13.66653
G1 X92.289 Y124.883 E13.70001
G1 X92.288 Y95.117 E14.69003
G1 X92.328 Y94.37 E14.71491
G1 X92.447 Y93.632 E14.73977
G1 X92.645 Y92.91 E14.76467
G1 X92.918 Y92.214 E14.78954
G1 X93.265 Y91.551 E14.81443
G1 X93.679 Y90.928 E14.83931
G1 X94.338 Y90.167 E14.87279
G0 F6000 X94.621 Y90.45
G1 F480 X94.738 Y90.333 E14.87829
G1 X95.279 Y89.849 E14.90244
G1 X95.87 Y89.426 E14.92661
G1 X96.504 Y89.072 E14.95076
G1 X97.173 Y88.789 E14.97492
G1 X97.869 Y88.581 E14.99908
G1 X98.584 Y88.451 E15.02325
G1 X99.405 Y88.4 E15.05061
G1 X107.138 Y88.4 E15.30781
G1 X107.799 Y88.436 E15.32983
G1 X108.386 Y88.4 E15.34939
G1 X111.614 Y88.4 E15.45676
G1 X112.34 Y88.44 E15.48094
G1 X112.862 Y88.4 E15.49835
G1 X120.595 Y88.4 E15.75555
G1 X121.32 Y88.44 E15.7797
G1 X122.037 Y88.559 E15.80388
G1 X122.736 Y88.757 E15.82804
G1 X123.409 Y89.03 E15.8522
G1 X124.048 Y89.375 E15.87635
G1 X124.645 Y89.789 E15.90051
G1 X125.262 Y90.333 E15.92787
G1 X125.379 Y90.45 E15.93337
G1 X125.863 Y90.991 E15.95752
G1 X126.286 Y91.582 E15.98169
G1 X126.64 Y92.216 E16.00584
G1 X126.923 Y92.885 E16.03
G1 X127.131 Y93.581 E16.05416
G1 X127.261 Y94.296 E16.07833
G1 X127.312 Y95.117 E16.10569
G1 X127.312 Y124.883 E17.09571
G1 X127.272 Y125.608 E17.11986
G1 X127.153 Y126.325 E17.14404
G1 X126.955 Y127.024 E17.1682
G1 X126.682 Y127.697 E17.19236
G1 X126.337 Y128.336 E17.21651
G1 X125.923 Y128.933 E17.24067
G1 X125.379 Y129.55 E17.26803
G1 X125.262 Y129.667 E17.27354
G1 X124.721 Y130.151 E17.29768
G1 X124.13 Y130.574 E17.32185
G1 X123.496 Y130.928 E17.346
G1 X122.827 Y131.211 E17.37016
G1 X122.131 Y131.419 E17.39432
G1 X121.416 Y131.549 E17.4185
G1 X120.595 Y131.6 E17.44585
G1 X112.862 Y131.6 E17.70305
G1 X112.201 Y131.564 E17.72507
G1 X111.614 Y131.6 E17.74463
G1 X108.386 Y131.6 E17.852
G1 X107.66 Y131.56 E17.87618
G1 X107.139 Y131.6 E17.89356
G1 X99.406 Y131.6 E18.15076
G1 X98.681 Y131.56 E18.17491
G1 X97.964 Y131.441 E18.19908
G1 X97.265 Y131.243 E18.22325
G1 X96.592 Y130.97 E18.2474
G1 X95.953 Y130.625 E18.27156
G1 X95.356 Y130.211 E18.29572
G1 X94.739 Y129.667 E18.32308
G1 X94.622 Y129.55 E18.32858
G1 X94.138 Y129.009 E18.35273
G1 X93.715 Y128.418 E18.3769
G1 X93.361 Y127.784 E18.40105
G1 X93.078 Y127.115 E18.42521
G1 X92.87 Y126.419 E18.44937
G1 X92.74 Y125.704 E18.47354
G1 X92.689 Y124.883 E18.5009
G1 X92.688 Y95.117 E19.49092
G1 X92.728 Y94.392 E19.51507
G1 X92.847 Y93.675 E19.53925
G1 X93.045 Y92.976 E19.56341
G1 X93.318 Y92.303 E19.58757
G1 X93.663 Y91.664 E19.61172
G1 X94.077 Y91.067 E19.63588
G1 X94.621 Y90.45 E19.66324
G0 F6000 X94.904 Y90.733
G1 F480 X95.021 Y90.616 E19.66874
G1 X95.546 Y90.147 E19.69216
G1 X96.121 Y89.741 E19.71557
G1 X96.739 Y89.403 E19.739
G1 X97.39 Y89.136 E19.7624
G1 X98.068 Y88.946 E19.78582
G1 X98.763 Y88.833 E19.80924
G1 X99.405 Y88.8 E19.83062
G1 X107.138 Y88.8 E20.08782
G1 X107.744 Y88.833 E20.10801
G1 X108.386 Y88.8 E20.12939
G1 X111.614 Y88.8 E20.23675
G1 X112.244 Y88.836 E20.25774
G1 X112.342 Y88.822 E20.26103
G1 X112.862 Y88.8 E20.27834
G1 X120.595 Y88.8 E20.53554
G1 X121.298 Y88.84 E20.55896
G1 X121.992 Y88.959 E20.58238
G1 X122.667 Y89.157 E20.60578
G1 X123.316 Y89.429 E20.62918
G1 X123.93 Y89.774 E20.65261
G1 X124.501 Y90.185 E20.67601
G1 X124.979 Y90.616 E20.69742
G1 X125.096 Y90.733 E20.70292
G1 X125.565 Y91.258 E20.72633
G1 X125.971 Y91.833 E20.74974
G1 X126.309 Y92.451 E20.77317
G1 X126.576 Y93.102 E20.79658
G1 X126.766 Y93.78 E20.81999
G1 X126.879 Y94.475 E20.84341
G1 X126.912 Y95.117 E20.86479
G1 X126.912 Y124.883 E21.85482
G1 X126.872 Y125.586 E21.87824
G1 X126.753 Y126.28 E21.90166
G1 X126.555 Y126.955 E21.92505
G1 X126.283 Y127.604 E21.94846
G1 X125.938 Y128.218 E21.97188
G1 X125.527 Y128.789 E21.99528
G1 X125.096 Y129.267 E22.01669
G1 X124.979 Y129.384 E22.02219
G1 X124.454 Y129.853 E22.04561
G1 X123.879 Y130.259 E22.06902
G1 X123.261 Y130.597 E22.09245
G1 X122.61 Y130.864 E22.11585
G1 X121.932 Y131.054 E22.13927
G1 X121.237 Y131.167 E22.16269
G1 X120.595 Y131.2 E22.18407
G1 X112.862 Y131.2 E22.44127
G1 X112.256 Y131.167 E22.46145
G1 X111.614 Y131.2 E22.48283
G1 X108.386 Y131.2 E22.5902
G1 X107.756 Y131.164 E22.61119
G1 X107.659 Y131.178 E22.61445
G1 X107.139 Y131.2 E22.63176
G1 X99.406 Y131.2 E22.88896
G1 X98.703 Y131.16 E22.91238
G1 X98.009 Y131.041 E22.9358
G1 X97.334 Y130.843 E22.95919
G1 X96.685 Y130.571 E22.9826
G1 X96.071 Y130.226 E23.00602
G1 X95.5 Y129.815 E23.02942
G1 X95.022 Y129.384 E23.05083
G1 X94.905 Y129.267 E23.05633
G1 X94.436 Y128.742 E23.07975
G1 X94.03 Y128.167 E23.10316
G1 X93.692 Y127.549 E23.12659
G1 X93.425 Y126.898 E23.14999
G1 X93.235 Y126.22 E23.17341
G1 X93.122 Y125.525 E23.19683
G1 X93.089 Y124.883 E23.21821
G1 X93.088 Y95.117 E24.20823
G1 X93.128 Y94.414 E24.23165
G1 X93.247 Y93.721 E24.25504
G1 X93.445 Y93.045 E24.27847
G1 X93.717 Y92.396 E24.30187
G1 X94.062 Y91.782 E24.32529
G1 X94.473 Y91.211 E24.34869
G1 X94.904 Y90.733 E24.3701
G0 F6000 X95.187 Y91.016
G1 F480 X95.304 Y90.899 E24.3756
G1 X95.813 Y90.446 E24.39827
G1 X96.371 Y90.057 E24.42089
G1 X96.971 Y89.735 E24.44354
G1 X97.605 Y89.486 E24.46619
G1 X98.264 Y89.313 E24.48886
G1 X98.938 Y89.219 E24.51149
G1 X99.405 Y89.2 E24.52704
G1 X107.138 Y89.2 E24.78424
G1 X107.783 Y89.238 E24.80573
G1 X107.919 Y89.219 E24.81029
G1 X108.386 Y89.2 E24.82584
G1 X111.614 Y89.2 E24.9332
G1 X112.257 Y89.238 E24.95463
G1 X112.862 Y89.2 E24.97479
G1 X120.595 Y89.2 E25.23199
G1 X121.275 Y89.24 E25.25464
G1 X121.945 Y89.359 E25.27728
G1 X122.597 Y89.556 E25.29993
G1 X123.221 Y89.828 E25.32257
G1 X123.809 Y90.172 E25.34523
G1 X124.353 Y90.582 E25.36789
G1 X124.696 Y90.899 E25.38342
G1 X124.813 Y91.016 E25.38892
G1 X125.266 Y91.525 E25.41159
G1 X125.655 Y92.083 E25.43421
G1 X125.977 Y92.683 E25.45686
G1 X126.226 Y93.317 E25.47951
G1 X126.399 Y93.976 E25.50218
G1 X126.493 Y94.65 E25.52481
G1 X126.512 Y95.117 E25.54036
G1 X126.512 Y124.883 E26.53038
G1 X126.472 Y125.563 E26.55303
G1 X126.353 Y126.233 E26.57567
G1 X126.156 Y126.885 E26.59832
G1 X125.884 Y127.509 E26.62096
G1 X125.54 Y128.097 E26.64362
G1 X125.13 Y128.641 E26.66627
G1 X124.813 Y128.984 E26.68181
G1 X124.696 Y129.101 E26.68731
G1 X124.187 Y129.554 E26.70998
G1 X123.629 Y129.943 E26.7326
G1 X123.029 Y130.265 E26.75525
G1 X122.395 Y130.514 E26.7779
G1 X121.736 Y130.687 E26.80056
G1 X121.062 Y130.781 E26.8232
G1 X120.595 Y130.8 E26.83874
G1 X112.862 Y130.8 E27.09594
G1 X112.217 Y130.762 E27.11743
G1 X112.081 Y130.781 E27.122
G1 X111.614 Y130.8 E27.13755
G1 X108.386 Y130.8 E27.24491
G1 X107.744 Y130.762 E27.2663
G1 X107.139 Y130.8 E27.28646
G1 X99.406 Y130.8 E27.54366
G1 X98.726 Y130.76 E27.56632
G1 X98.056 Y130.641 E27.58895
G1 X97.404 Y130.444 E27.61161
G1 X96.78 Y130.172 E27.63425
G1 X96.192 Y129.828 E27.6569
G1 X95.648 Y129.418 E27.67956
G1 X95.305 Y129.101 E27.6951
G1 X95.188 Y128.984 E27.7006
G1 X94.735 Y128.475 E27.72326
G1 X94.346 Y127.917 E27.74589
G1 X94.024 Y127.317 E27.76853
G1 X93.775 Y126.683 E27.79119
G1 X93.602 Y126.024 E27.81385
G1 X93.508 Y125.35 E27.83648
G1 X93.489 Y124.883 E27.85203
G1 X93.488 Y95.117 E28.84205
G1 X93.528 Y94.437 E28.86471
G1 X93.647 Y93.767 E28.88734
G1 X93.844 Y93.115 E28.90999
G1 X94.116 Y92.491 E28.93263
G1 X94.46 Y91.903 E28.95529
G1 X94.87 Y91.36 E28.97792
G1 X95.187 Y91.016 E28.99348
G0 F6000 X95.47 Y91.299
G1 F480 X95.587 Y91.182 E28.99898
G1 X96.079 Y90.746 E29.02085
G1 X96.62 Y90.374 E29.04269
G1 X97.202 Y90.07 E29.06453
G1 X97.817 Y89.839 E29.08638
G1 X98.456 Y89.684 E29.10825
G1 X99.405 Y89.6 E29.13993
G1 X107.138 Y89.6 E29.39713
G1 X107.794 Y89.64 E29.41899
G1 X107.839 Y89.648 E29.42051
G1 X108.386 Y89.6 E29.43878
G1 X111.614 Y89.6 E29.54614
G1 X112.27 Y89.64 E29.568
G1 X112.303 Y89.646 E29.56911
G1 X112.862 Y89.6 E29.58777
G1 X120.595 Y89.6 E29.84497
G1 X121.251 Y89.64 E29.86683
G1 X121.897 Y89.759 E29.88868
G1 X122.524 Y89.956 E29.91054
G1 X123.122 Y90.228 E29.93239
G1 X123.683 Y90.57 E29.95424
G1 X124.413 Y91.182 E29.98592
G1 X124.53 Y91.299 E29.99143
G1 X124.966 Y91.791 E30.01329
G1 X125.338 Y92.332 E30.03513
G1 X125.642 Y92.914 E30.05697
G1 X125.873 Y93.529 E30.07882
G1 X126.028 Y94.168 E30.10069
G1 X126.112 Y95.117 E30.13237
G1 X126.112 Y124.883 E31.1224
G1 X126.072 Y125.539 E31.14425
