;FLAVOR:Marlin
;TIME:1851
;Filament used: 1.03393m
;Layer height: 0.2
;MINX:86.802
;MINY:86.802
;MINZ:0.2
;MAXX:133.198
;MAXY:133.198
;MAXZ:30
;Generated with Cura_SteamEngine 4.8.0
M140 S70
M105
M190 S70
M104 S200
M105
M109 S200
M82 ;absolute extrusion mode
; Ender 3 Custom Start G-code
G92 E0 ; Reset Extruder
G28 ; Home all axes
G1 Z2.0 F3000 ; Move Z Axis up little to prevent scratching of Heat Bed
G1 X0.1 Y20 Z0.3 F5000.0 ; Move to start position
G1 X0.1 Y200.0 Z0.3 F1500.0 E15 ; Draw the first line
G1 X0.4 Y200.0 Z0.3 F5000.0 ; Move to side a little
G1 X0.4 Y20 Z0.3 F1500.0 E30 ; Draw the second line
G92 E0 ; Reset Extruder
G1 Z2.0 F3000 ; Move Z Axis up little to prevent scratching of Heat Bed
G1 X5 Y20 Z0.3 F5000.0 ; Move over to prevent blob squish
G92 E0
G92 E0
G1 F1500 E-6.5
;LAYER_COUNT:150
;LAYER:0
M107
G0 F6000 X93.456 Y93.739 Z0.2
;TYPE:SKIRT
G1 F1500 E0
G1 F480 X93.745 Y93.45 E0.01359
G1 X94.324 Y92.901 E0.04013
G1 X94.614 Y92.639 E0.05313
G1 X95.217 Y92.122 E0.07955
G1 X95.536 Y91.863 E0.09322
G1 X96.166 Y91.378 E0.11966
G1 X96.489 Y91.143 E0.13295
G1 X97.14 Y90.693 E0.15927
G1 X97.478 Y90.472 E0.1727
G1 X98.147 Y90.059 E0.19885
G1 X98.479 Y89.865 E0.21164
G1 X99.163 Y89.488 E0.23761
G1 X99.529 Y89.299 E0.25131
G1 X100.227 Y88.961 E0.27711
G1 X100.576 Y88.802 E0.28986
G1 X101.282 Y88.502 E0.31538
G1 X101.639 Y88.361 E0.32814
G1 X102.354 Y88.098 E0.35348
G1 X102.724 Y87.972 E0.36648
G1 X103.442 Y87.748 E0.3915
G1 X103.806 Y87.644 E0.40409
G1 X104.523 Y87.458 E0.42873
G1 X104.877 Y87.375 E0.44082
G1 X105.595 Y87.224 E0.46522
G1 X105.958 Y87.157 E0.4775
G1 X106.671 Y87.042 E0.50152
G1 X107.034 Y86.992 E0.51371
G1 X107.739 Y86.912 E0.53731
G1 X108.094 Y86.88 E0.54916
G1 X108.792 Y86.833 E0.57243
G1 X109.145 Y86.817 E0.58419
G1 X109.831 Y86.802 E0.60701
G1 X110.172 Y86.802 E0.61835
G1 X110.859 Y86.817 E0.6412
G1 X111.215 Y86.833 E0.65306
G1 X111.911 Y86.88 E0.67626
G1 X112.262 Y86.911 E0.68798
G1 X112.969 Y86.991 E0.71164
G1 X113.337 Y87.042 E0.724
G1 X114.048 Y87.157 E0.74795
G1 X114.388 Y87.22 E0.75946
G1 X115.106 Y87.369 E0.78385
G1 X115.507 Y87.463 E0.79754
G1 X116.225 Y87.652 E0.82224
G1 X116.574 Y87.753 E0.83432
G1 X117.291 Y87.978 E0.85932
G1 X117.64 Y88.096 E0.87157
G1 X118.355 Y88.358 E0.8969
G1 X118.726 Y88.505 E0.91017
G1 X119.433 Y88.806 E0.93573
G1 X119.785 Y88.967 E0.9486
G1 X120.481 Y89.305 E0.97434
G1 X120.831 Y89.485 E0.98743
G1 X121.517 Y89.862 E1.01346
G1 X121.85 Y90.056 E1.02628
G1 X122.519 Y90.468 E1.05241
G1 X122.866 Y90.695 E1.0662
G1 X123.518 Y91.146 E1.09257
G1 X123.836 Y91.378 E1.10566
G1 X124.464 Y91.861 E1.13201
G1 X124.798 Y92.133 E1.14634
G1 X125.402 Y92.653 E1.17285
G1 X125.684 Y92.908 E1.18549
G1 X126.261 Y93.456 E1.21196
G1 X126.55 Y93.745 E1.22556
G1 X127.099 Y94.324 E1.25209
G1 X127.361 Y94.614 E1.26509
G1 X127.878 Y95.217 E1.29151
G1 X128.137 Y95.536 E1.30518
G1 X128.622 Y96.166 E1.33162
G1 X128.857 Y96.489 E1.34491
G1 X129.307 Y97.14 E1.37123
G1 X129.528 Y97.478 E1.38466
G1 X129.941 Y98.147 E1.41081
G1 X130.135 Y98.479 E1.4236
G1 X130.512 Y99.163 E1.44958
G1 X130.701 Y99.529 E1.46328
G1 X131.039 Y100.227 E1.48907
G1 X131.198 Y100.576 E1.50183
G1 X131.498 Y101.282 E1.52734
G1 X131.638 Y101.636 E1.54
G1 X131.901 Y102.35 E1.56531
G1 X132.029 Y102.726 E1.57852
G1 X132.253 Y103.445 E1.60357
G1 X132.356 Y103.806 E1.61605
G1 X132.542 Y104.523 E1.64069
G1 X132.625 Y104.877 E1.65278
G1 X132.776 Y105.595 E1.67719
G1 X132.843 Y105.955 E1.68937
G1 X132.958 Y106.666 E1.71332
G1 X133.009 Y107.034 E1.72568
G1 X133.089 Y107.741 E1.74934
G1 X133.12 Y108.092 E1.76106
G1 X133.167 Y108.788 E1.78426
G1 X133.183 Y109.144 E1.79612
G1 X133.198 Y109.832 E1.81901
G1 X133.198 Y110.173 E1.83035
G1 X133.183 Y110.859 E1.85317
G1 X133.167 Y111.212 E1.86492
G1 X133.12 Y111.91 E1.88819
G1 X133.088 Y112.265 E1.90005
G1 X133.008 Y112.97 E1.92364
G1 X132.958 Y113.333 E1.93583
G1 X132.843 Y114.046 E1.95985
G1 X132.778 Y114.399 E1.97179
G1 X132.628 Y115.117 E1.99619
G1 X132.538 Y115.5 E2.00927
G1 X132.35 Y116.217 E2.03393
G1 X132.247 Y116.574 E2.04628
G1 X132.022 Y117.291 E2.07128
G1 X131.904 Y117.64 E2.08353
G1 X131.642 Y118.355 E2.10886
G1 X131.495 Y118.726 E2.12213
G1 X131.194 Y119.433 E2.14769
G1 X131.033 Y119.785 E2.16056
G1 X130.695 Y120.481 E2.1863
G1 X130.517 Y120.827 E2.19924
G1 X130.141 Y121.512 E2.22523
G1 X129.943 Y121.852 E2.23832
G1 X129.53 Y122.522 E2.26449
G1 X129.305 Y122.866 E2.27816
G1 X128.854 Y123.518 E2.30453
G1 X128.622 Y123.836 E2.31763
G1 X128.139 Y124.464 E2.34398
G1 X127.867 Y124.798 E2.3583
G1 X127.347 Y125.402 E2.38481
G1 X127.092 Y125.684 E2.39746
G1 X126.544 Y126.261 E2.42392
G1 X126.255 Y126.55 E2.43752
G1 X125.676 Y127.099 E2.46406
G1 X125.386 Y127.361 E2.47705
G1 X124.783 Y127.878 E2.50347
G1 X124.464 Y128.137 E2.51714
G1 X123.834 Y128.622 E2.54358
G1 X123.511 Y128.857 E2.55687
G1 X122.86 Y129.307 E2.58319
G1 X122.522 Y129.528 E2.59662
G1 X121.853 Y129.941 E2.62277
G1 X121.521 Y130.135 E2.63556
G1 X120.837 Y130.512 E2.66154
G1 X120.471 Y130.701 E2.67524
G1 X119.773 Y131.039 E2.70103
G1 X119.424 Y131.198 E2.71379
G1 X118.718 Y131.498 E2.7393
G1 X118.361 Y131.639 E2.75207
G1 X117.646 Y131.902 E2.77741
G1 X117.276 Y132.028 E2.79041
G1 X116.558 Y132.252 E2.81542
G1 X116.194 Y132.356 E2.82801
G1 X115.477 Y132.542 E2.85265
G1 X115.123 Y132.625 E2.86474
G1 X114.405 Y132.776 E2.88915
G1 X114.042 Y132.843 E2.90143
G1 X113.329 Y132.958 E2.92545
G1 X112.966 Y133.008 E2.93763
G1 X112.261 Y133.088 E2.96123
G1 X111.906 Y133.12 E2.97309
G1 X111.208 Y133.167 E2.99636
G1 X110.855 Y133.183 E3.00811
G1 X110.169 Y133.198 E3.03093
G1 X109.827 Y133.198 E3.04231
G1 X109.141 Y133.183 E3.06513
G1 X108.788 Y133.167 E3.07688
G1 X108.09 Y133.12 E3.10015
G1 X107.735 Y133.088 E3.112
G1 X107.03 Y133.008 E3.1356
G1 X106.667 Y132.958 E3.14779
G1 X105.954 Y132.843 E3.17181
G1 X105.601 Y132.778 E3.18375
G1 X104.883 Y132.628 E3.20815
G1 X104.5 Y132.538 E3.22123
G1 X103.783 Y132.35 E3.24588
G1 X103.426 Y132.247 E3.25824
G1 X102.709 Y132.022 E3.28324
G1 X102.36 Y131.904 E3.29549
G1 X101.645 Y131.642 E3.32082
G1 X101.274 Y131.495 E3.33409
G1 X100.567 Y131.194 E3.35965
G1 X100.215 Y131.033 E3.37252
G1 X99.519 Y130.695 E3.39826
G1 X99.169 Y130.515 E3.41135
G1 X98.483 Y130.138 E3.43738
G1 X98.15 Y129.944 E3.4502
G1 X97.481 Y129.532 E3.47633
G1 X97.134 Y129.305 E3.49012
G1 X96.482 Y128.854 E3.51649
G1 X96.164 Y128.622 E3.52958
G1 X95.536 Y128.139 E3.55593
G1 X95.202 Y127.867 E3.57026
G1 X94.598 Y127.347 E3.59677
G1 X94.316 Y127.092 E3.60941
G1 X93.739 Y126.544 E3.63588
G1 X93.45 Y126.255 E3.64948
G1 X92.901 Y125.676 E3.67601
G1 X92.64 Y125.387 E3.68897
G1 X92.122 Y124.783 E3.71543
G1 X91.861 Y124.462 E3.72919
G1 X91.377 Y123.833 E3.75559
G1 X91.143 Y123.511 E3.76883
G1 X90.693 Y122.86 E3.79515
G1 X90.472 Y122.522 E3.80858
G1 X90.059 Y121.853 E3.83473
G1 X89.864 Y121.52 E3.84757
G1 X89.486 Y120.834 E3.87362
G1 X89.298 Y120.469 E3.88727
G1 X88.961 Y119.773 E3.91299
G1 X88.803 Y119.426 E3.92567
G1 X88.502 Y118.718 E3.95126
G1 X88.359 Y118.356 E3.96421
G1 X88.097 Y117.643 E3.98947
G1 X87.972 Y117.276 E4.00237
G1 X87.748 Y116.558 E4.02738
G1 X87.644 Y116.194 E4.03997
G1 X87.458 Y115.477 E4.06461
G1 X87.375 Y115.123 E4.0767
G1 X87.224 Y114.405 E4.10111
G1 X87.157 Y114.042 E4.11338
G1 X87.042 Y113.329 E4.13741
G1 X86.992 Y112.966 E4.14959
G1 X86.912 Y112.261 E4.17319
G1 X86.88 Y111.908 E4.18498
G1 X86.833 Y111.212 E4.20818
G1 X86.817 Y110.856 E4.22003
G1 X86.802 Y110.168 E4.24292
G1 X86.802 Y109.827 E4.25427
G1 X86.817 Y109.141 E4.27709
G1 X86.833 Y108.788 E4.28884
G1 X86.88 Y108.09 E4.31211
G1 X86.912 Y107.735 E4.32396
G1 X86.992 Y107.03 E4.34756
G1 X87.042 Y106.667 E4.35975
G1 X87.157 Y105.954 E4.38377
G1 X87.222 Y105.601 E4.39571
G1 X87.372 Y104.883 E4.42011
G1 X87.462 Y104.5 E4.43319
G1 X87.65 Y103.783 E4.45784
G1 X87.753 Y103.426 E4.4702
G1 X87.978 Y102.709 E4.4952
G1 X88.096 Y102.36 E4.50745
G1 X88.358 Y101.645 E4.53278
G1 X88.505 Y101.274 E4.54605
G1 X88.806 Y100.567 E4.57161
G1 X88.967 Y100.215 E4.58448
G1 X89.305 Y99.519 E4.61022
G1 X89.483 Y99.173 E4.62316
G1 X89.859 Y98.488 E4.64915
G1 X90.057 Y98.148 E4.66223
G1 X90.47 Y97.478 E4.68841
G1 X90.695 Y97.134 E4.70208
G1 X91.146 Y96.482 E4.72845
G1 X91.378 Y96.164 E4.74154
G1 X91.861 Y95.536 E4.76789
G1 X92.133 Y95.202 E4.78222
G1 X92.653 Y94.598 E4.80873
G1 X92.908 Y94.316 E4.82137
G1 X93.456 Y93.739 E4.84784
G0 F6000 X93.746 Y94.014
G1 F480 X94.02 Y93.74 E4.86073
G1 X94.599 Y93.191 E4.88727
G1 X94.874 Y92.943 E4.89958
G1 X95.477 Y92.426 E4.926
G1 X95.78 Y92.18 E4.93898
G1 X96.41 Y91.695 E4.96543
G1 X96.716 Y91.472 E4.97802
G1 X97.367 Y91.022 E5.00434
G1 X97.688 Y90.812 E5.0171
G1 X98.357 Y90.399 E5.04325
G1 X98.672 Y90.215 E5.05538
G1 X99.356 Y89.838 E5.08136
G1 X99.703 Y89.659 E5.09435
G1 X100.401 Y89.321 E5.12014
G1 X100.732 Y89.17 E5.13224
G1 X101.438 Y88.87 E5.15776
G1 X101.777 Y88.736 E5.16988
G1 X102.492 Y88.473 E5.19522
G1 X102.843 Y88.354 E5.20755
G1 X103.561 Y88.13 E5.23256
G1 X103.907 Y88.031 E5.24453
G1 X104.624 Y87.845 E5.26917
G1 X104.959 Y87.766 E5.28062
G1 X105.677 Y87.615 E5.30502
G1 X106.022 Y87.551 E5.31669
G1 X106.735 Y87.436 E5.34071
G1 X107.079 Y87.389 E5.35226
G1 X107.784 Y87.309 E5.37586
G1 X108.121 Y87.279 E5.38711
G1 X108.819 Y87.232 E5.41038
G1 X109.154 Y87.217 E5.42153
G1 X109.84 Y87.202 E5.44435
G1 X110.164 Y87.202 E5.45513
G1 X110.851 Y87.217 E5.47798
G1 X111.188 Y87.232 E5.4892
G1 X111.884 Y87.279 E5.51241
G1 X112.217 Y87.309 E5.52353
G1 X112.924 Y87.389 E5.54719
G1 X113.274 Y87.437 E5.55894
G1 X113.985 Y87.552 E5.5829
G1 X114.307 Y87.611 E5.59379
G1 X115.025 Y87.76 E5.61817
G1 X115.405 Y87.85 E5.63116
G1 X116.123 Y88.039 E5.65586
G1 X116.455 Y88.134 E5.66734
G1 X117.172 Y88.359 E5.69234
G1 X117.502 Y88.472 E5.70394
G1 X118.217 Y88.734 E5.72927
G1 X118.57 Y88.873 E5.74188
G1 X119.277 Y89.174 E5.76744
G1 X119.611 Y89.326 E5.77965
G1 X120.307 Y89.664 E5.80538
G1 X120.638 Y89.836 E5.81779
G1 X121.324 Y90.213 E5.84382
G1 X121.64 Y90.397 E5.85598
G1 X122.309 Y90.809 E5.88212
G1 X122.639 Y91.024 E5.89522
G1 X123.291 Y91.475 E5.92158
G1 X123.592 Y91.695 E5.93399
G1 X124.22 Y92.178 E5.96034
G1 X124.537 Y92.436 E5.97393
G1 X125.141 Y92.956 E6.00044
G1 X125.409 Y93.198 E6.01245
G1 X125.986 Y93.746 E6.03892
G1 X126.26 Y94.02 E6.0518
G1 X126.809 Y94.599 E6.07834
G1 X127.057 Y94.874 E6.09066
G1 X127.574 Y95.477 E6.11708
G1 X127.82 Y95.78 E6.13006
G1 X128.305 Y96.41 E6.1565
G1 X128.528 Y96.716 E6.1691
G1 X128.978 Y97.367 E6.19542
G1 X129.188 Y97.688 E6.20818
G1 X129.601 Y98.357 E6.23432
G1 X129.785 Y98.672 E6.24646
G1 X130.162 Y99.356 E6.27243
G1 X130.341 Y99.703 E6.28542
G1 X130.679 Y100.401 E6.31122
G1 X130.83 Y100.732 E6.32332
G1 X131.13 Y101.438 E6.34883
G1 X131.263 Y101.774 E6.36085
G1 X131.526 Y102.488 E6.38616
G1 X131.647 Y102.845 E6.39869
G1 X131.871 Y103.564 E6.42374
G1 X131.969 Y103.907 E6.43561
G1 X132.155 Y104.624 E6.46024
G1 X132.234 Y104.959 E6.47169
G1 X132.385 Y105.677 E6.49609
G1 X132.448 Y106.018 E6.50763
G1 X132.563 Y106.729 E6.53158
G1 X132.611 Y107.079 E6.54333
G1 X132.691 Y107.786 E6.567
G1 X132.721 Y108.119 E6.57812
G1 X132.768 Y108.815 E6.60132
G1 X132.783 Y109.153 E6.61257
G1 X132.798 Y109.841 E6.63546
G1 X132.798 Y110.164 E6.6462
G1 X132.783 Y110.85 E6.66903
G1 X132.768 Y111.185 E6.68018
G1 X132.721 Y111.883 E6.70345
G1 X132.691 Y112.22 E6.7147
G1 X132.611 Y112.925 E6.7383
G1 X132.564 Y113.269 E6.74985
G1 X132.449 Y113.982 E6.77387
G1 X132.387 Y114.317 E6.7852
G1 X132.237 Y115.035 E6.8096
G1 X132.151 Y115.399 E6.82204
G1 X131.963 Y116.116 E6.84669
G1 X131.866 Y116.455 E6.85842
G1 X131.641 Y117.172 E6.88341
G1 X131.528 Y117.502 E6.89501
G1 X131.266 Y118.217 E6.92034
G1 X131.127 Y118.57 E6.93296
G1 X130.826 Y119.277 E6.95852
G1 X130.674 Y119.611 E6.97072
G1 X130.336 Y120.307 E6.99646
G1 X130.166 Y120.635 E7.00874
G1 X129.79 Y121.32 E7.03473
G1 X129.602 Y121.642 E7.04713
G1 X129.189 Y122.312 E7.07331
G1 X128.976 Y122.639 E7.08629
G1 X128.525 Y123.291 E7.11266
G1 X128.305 Y123.592 E7.12506
G1 X127.822 Y124.22 E7.15141
G1 X127.564 Y124.537 E7.16501
G1 X127.044 Y125.141 E7.19151
G1 X126.802 Y125.409 E7.20352
G1 X126.254 Y125.986 E7.22999
G1 X125.98 Y126.26 E7.24288
G1 X125.401 Y126.809 E7.26942
G1 X125.126 Y127.057 E7.28173
G1 X124.523 Y127.574 E7.30815
G1 X124.22 Y127.82 E7.32113
G1 X123.59 Y128.305 E7.34758
G1 X123.284 Y128.528 E7.36017
G1 X122.633 Y128.978 E7.38649
G1 X122.312 Y129.188 E7.39925
G1 X121.643 Y129.601 E7.4254
G1 X121.328 Y129.785 E7.43753
G1 X120.644 Y130.162 E7.46351
G1 X120.297 Y130.341 E7.4765
G1 X119.599 Y130.679 E7.50229
G1 X119.268 Y130.83 E7.51439
G1 X118.562 Y131.13 E7.5399
G1 X118.223 Y131.264 E7.55203
G1 X117.508 Y131.527 E7.57737
G1 X117.157 Y131.646 E7.58969
G1 X116.439 Y131.87 E7.61471
G1 X116.093 Y131.969 E7.62668
G1 X115.376 Y132.155 E7.65132
G1 X115.041 Y132.234 E7.66277
G1 X114.323 Y132.385 E7.68717
G1 X113.978 Y132.449 E7.69884
G1 X113.265 Y132.564 E7.72286
G1 X112.921 Y132.611 E7.73441
G1 X112.216 Y132.691 E7.75801
G1 X111.879 Y132.721 E7.76926
G1 X111.181 Y132.768 E7.79253
G1 X110.846 Y132.783 E7.80368
G1 X110.16 Y132.798 E7.8265
G1 X109.836 Y132.798 E7.83728
G1 X109.15 Y132.783 E7.8601
G1 X108.815 Y132.768 E7.87125
G1 X108.117 Y132.721 E7.89452
G1 X107.78 Y132.691 E7.90578
G1 X107.075 Y132.611 E7.92937
G1 X106.731 Y132.564 E7.94092
G1 X106.018 Y132.449 E7.96494
G1 X105.683 Y132.387 E7.97627
G1 X104.965 Y132.237 E8.00067
G1 X104.601 Y132.151 E8.01311
G1 X103.884 Y131.963 E8.03776
G1 X103.545 Y131.866 E8.04949
G1 X102.828 Y131.641 E8.07449
G1 X102.498 Y131.528 E8.08609
G1 X101.783 Y131.266 E8.11141
G1 X101.43 Y131.127 E8.12403
G1 X100.723 Y130.826 E8.14959
G1 X100.389 Y130.674 E8.1618
G1 X99.693 Y130.336 E8.18753
G1 X99.362 Y130.164 E8.19994
G1 X98.676 Y129.787 E8.22597
G1 X98.36 Y129.603 E8.23813
G1 X97.691 Y129.191 E8.26427
G1 X97.361 Y128.976 E8.27737
G1 X96.709 Y128.525 E8.30373
G1 X96.408 Y128.305 E8.31613
G1 X95.78 Y127.822 E8.34248
G1 X95.463 Y127.564 E8.35608
G1 X94.859 Y127.044 E8.38259
G1 X94.591 Y126.802 E8.3946
G1 X94.014 Y126.254 E8.42106
G1 X93.74 Y125.98 E8.43395
G1 X93.191 Y125.401 E8.46049
G1 X92.944 Y125.126 E8.47279
G1 X92.426 Y124.522 E8.49925
G1 X92.178 Y124.218 E8.5123
G1 X91.694 Y123.589 E8.5387
G1 X91.472 Y123.284 E8.55124
G1 X91.022 Y122.633 E8.57757
G1 X90.812 Y122.312 E8.59032
G1 X90.399 Y121.643 E8.61647
G1 X90.215 Y121.327 E8.62864
G1 X89.837 Y120.641 E8.65469
G1 X89.658 Y120.295 E8.66764
G1 X89.321 Y119.599 E8.69336
G1 X89.171 Y119.269 E8.70542
G1 X88.87 Y118.561 E8.73101
G1 X88.734 Y118.218 E8.74328
G1 X88.472 Y117.505 E8.76854
G1 X88.354 Y117.157 E8.78077
G1 X88.13 Y116.439 E8.80578
G1 X88.031 Y116.093 E8.81775
G1 X87.845 Y115.376 E8.84239
G1 X87.766 Y115.041 E8.85384
G1 X87.615 Y114.323 E8.87824
G1 X87.551 Y113.978 E8.88991
G1 X87.436 Y113.265 E8.91393
G1 X87.389 Y112.921 E8.92548
G1 X87.309 Y112.216 E8.94908
G1 X87.279 Y111.881 E8.96026
G1 X87.232 Y111.185 E8.98347
G1 X87.217 Y110.847 E8.99472
G1 X87.202 Y110.159 E9.01761
G1 X87.202 Y109.836 E9.02835
G1 X87.217 Y109.15 E9.05117
G1 X87.232 Y108.815 E9.06233
G1 X87.279 Y108.117 E9.08559
G1 X87.309 Y107.78 E9.09685
G1 X87.389 Y107.075 E9.12045
G1 X87.436 Y106.731 E9.13199
G1 X87.551 Y106.018 E9.15601
G1 X87.613 Y105.683 E9.16735
G1 X87.763 Y104.965 E9.19174
G1 X87.849 Y104.601 E9.20418
G1 X88.037 Y103.884 E9.22884
G1 X88.134 Y103.545 E9.24056
G1 X88.359 Y102.828 E9.26556
G1 X88.472 Y102.498 E9.27716
G1 X88.734 Y101.783 E9.30249
G1 X88.873 Y101.43 E9.3151
G1 X89.174 Y100.723 E9.34066
G1 X89.326 Y100.389 E9.35287
G1 X89.664 Y99.693 E9.3786
G1 X89.834 Y99.365 E9.39089
G1 X90.21 Y98.68 E9.41688
G1 X90.398 Y98.358 E9.42928
G1 X90.811 Y97.688 E9.45546
G1 X91.024 Y97.361 E9.46844
G1 X91.475 Y96.709 E9.49481
G1 X91.695 Y96.408 E9.50721
G1 X92.178 Y95.78 E9.53356
G1 X92.436 Y95.463 E9.54715
G1 X92.956 Y94.859 E9.57366
G1 X93.198 Y94.591 E9.58567
G1 X93.746 Y94.014 E9.61214
G0 F6000 X94.036 Y94.289
G1 F480 X94.296 Y94.03 E9.62434
G1 X94.875 Y93.481 E9.65088
G1 X95.135 Y93.247 E9.66252
G1 X95.738 Y92.73 E9.68893
G1 X96.024 Y92.497 E9.7012
G1 X96.654 Y92.012 E9.72765
G1 X96.944 Y91.801 E9.73958
