;FLAVOR:Marlin
;TIME:2892
;Filament used: 2.03696m
;Layer height: 0.2
;MINX:71.802
;MINY:71.802
;MINZ:0.2
;MAXX:148.198
;MAXY:148.198
;MAXZ:30
;Generated with Cura_SteamEngine 4.8.0
M140 S60
M105
M190 S60
M104 S200
M105
M109 S200
M82 ;absolute extrusion mode
; Ender 3 Custom Start G-code
G92 E0 ; Reset Extruder
G28 ; Home all axes
G1 Z2.0 F3000 ; Move Z Axis up little to prevent scratching of Heat Bed
G1 X0.1 Y20 Z0.3 F5000.0 ; Move to start position
G1 X0.1 Y200.0 Z0.3 F1500.0 E15 ; Draw the first line
G1 X0.4 Y200.0 Z0.3 F5000.0 ; Move to side a little
G1 X0.4 Y20 Z0.3 F1500.0 E30 ; Draw the second line
G92 E0 ; Reset Extruder
G1 Z2.0 F3000 ; Move Z Axis up little to prevent scratching of Heat Bed
G1 X5 Y20 Z0.3 F5000.0 ; Move over to prevent blob squish
G92 E0
G92 E0
G1 F1500 E-6.5
;LAYER_COUNT:150
;LAYER:0
M107
G0 F6000 X82.922 Y83.056 Z0.2
;TYPE:SKIRT
G1 F1500 E0
G1 F480 X83.07 Y82.908 E0.00696
G1 X83.634 Y82.36 E0.03312
G1 X83.767 Y82.234 E0.03921
G1 X84.344 Y81.699 E0.06538
G1 X84.511 Y81.549 E0.07285
G1 X85.238 Y80.915 E0.10493
G1 X85.84 Y80.412 E0.13102
G1 X85.999 Y80.283 E0.13783
G1 X86.614 Y79.796 E0.16392
G1 X86.784 Y79.665 E0.17106
G1 X87.411 Y79.196 E0.19711
G1 X87.564 Y79.084 E0.20341
G1 X88.2 Y78.632 E0.22936
G1 X88.367 Y78.517 E0.23611
G1 X89.017 Y78.08 E0.26216
G1 X89.273 Y77.915 E0.27229
G1 X90.594 Y77.1 E0.32391
G1 X90.929 Y76.904 E0.33682
G1 X92.281 Y76.16 E0.38815
G1 X92.636 Y75.977 E0.40143
G1 X94.012 Y75.309 E0.45231
G1 X94.368 Y75.147 E0.46532
G1 X95.764 Y74.554 E0.51576
G1 X96.125 Y74.411 E0.52868
G1 X97.533 Y73.894 E0.57856
G1 X97.89 Y73.773 E0.5911
G1 X99.307 Y73.329 E0.64049
G1 X99.678 Y73.222 E0.65333
G1 X101.095 Y72.854 E0.70203
G1 X101.455 Y72.77 E0.71432
G1 X102.871 Y72.473 E0.76244
G1 X103.236 Y72.406 E0.77479
G1 X104.644 Y72.18 E0.82222
G1 X105 Y72.131 E0.83417
G1 X106.392 Y71.973 E0.88076
G1 X106.747 Y71.941 E0.89262
G1 X108.125 Y71.848 E0.93856
G1 X108.477 Y71.832 E0.95027
G1 X109.831 Y71.802 E0.99532
G1 X110.177 Y71.802 E1.00683
G1 X111.532 Y71.832 E1.05191
G1 X111.885 Y71.848 E1.06366
G1 X113.261 Y71.941 E1.10953
G1 X113.619 Y71.973 E1.12148
G1 X115.013 Y72.132 E1.16815
G1 X115.372 Y72.182 E1.18021
G1 X116.778 Y72.409 E1.22757
G1 X117.131 Y72.474 E1.23951
G1 X118.547 Y72.77 E1.28763
G1 X118.919 Y72.857 E1.30033
G1 X120.338 Y73.227 E1.34911
G1 X120.7 Y73.331 E1.36164
G1 X122.115 Y73.774 E1.41095
G1 X122.475 Y73.896 E1.42359
G1 X123.885 Y74.414 E1.47355
G1 X124.251 Y74.56 E1.48666
G1 X125.646 Y75.154 E1.53709
G1 X125.996 Y75.313 E1.54988
G1 X127.372 Y75.981 E1.60075
G1 X127.727 Y76.164 E1.61403
G1 X129.079 Y76.908 E1.66536
G1 X129.414 Y77.104 E1.67827
G1 X130.733 Y77.918 E1.72982
G1 X130.987 Y78.081 E1.73986
G1 X131.633 Y78.515 E1.76574
G1 X131.805 Y78.635 E1.77272
G1 X132.443 Y79.089 E1.79876
G1 X132.593 Y79.198 E1.80493
G1 X133.22 Y79.667 E1.83097
G1 X133.39 Y79.798 E1.83811
G1 X134.005 Y80.285 E1.8642
G1 X134.159 Y80.41 E1.8708
G1 X134.762 Y80.913 E1.89692
G1 X134.913 Y81.042 E1.90352
G1 X135.504 Y81.561 E1.92968
G1 X135.655 Y81.697 E1.93644
G1 X136.232 Y82.231 E1.96259
G1 X136.38 Y82.372 E1.96939
G1 X136.944 Y82.922 E1.99559
G1 X137.092 Y83.07 E2.00255
G1 X137.64 Y83.634 E2.02871
G1 X137.771 Y83.772 E2.03504
G1 X138.305 Y84.349 E2.06119
G1 X138.445 Y84.505 E2.06816
G1 X138.964 Y85.097 E2.09434
G1 X139.085 Y85.238 E2.10052
G1 X139.588 Y85.84 E2.12661
G1 X139.717 Y85.999 E2.13342
G1 X140.204 Y86.614 E2.15952
G1 X140.335 Y86.784 E2.16665
G1 X140.804 Y87.411 E2.1927
G1 X140.916 Y87.564 E2.199
G1 X141.368 Y88.2 E2.22495
G1 X141.483 Y88.367 E2.2317
G1 X141.92 Y89.017 E2.25775
G1 X142.085 Y89.273 E2.26788
G1 X142.9 Y90.594 E2.31951
G1 X143.096 Y90.929 E2.33241
G1 X143.84 Y92.281 E2.38374
G1 X144.022 Y92.634 E2.39695
G1 X144.69 Y94.009 E2.44779
G1 X144.854 Y94.369 E2.46095
G1 X145.447 Y95.766 E2.51143
G1 X145.589 Y96.125 E2.52427
G1 X146.106 Y97.533 E2.57416
G1 X146.227 Y97.89 E2.58669
G1 X146.671 Y99.307 E2.63608
G1 X146.778 Y99.678 E2.64893
G1 X147.146 Y101.095 E2.69762
G1 X147.23 Y101.455 E2.70991
G1 X147.527 Y102.871 E2.75804
G1 X147.594 Y103.234 E2.77031
G1 X147.82 Y104.64 E2.81768
G1 X147.869 Y105 E2.82976
G1 X148.027 Y106.394 E2.87642
G1 X148.059 Y106.746 E2.88818
G1 X148.152 Y108.122 E2.93405
G1 X148.168 Y108.475 E2.9458
G1 X148.198 Y109.831 E2.99091
G1 X148.198 Y110.177 E3.00242
G1 X148.168 Y111.531 E3.04747
G1 X148.152 Y111.883 E3.05919
G1 X148.059 Y113.261 E3.10512
G1 X148.027 Y113.621 E3.11714
G1 X147.868 Y115.013 E3.16374
G1 X147.819 Y115.369 E3.1757
G1 X147.592 Y116.777 E3.22313
G1 X147.526 Y117.132 E3.23514
G1 X147.23 Y118.548 E3.28325
G1 X147.143 Y118.918 E3.2959
G1 X146.774 Y120.335 E3.3446
G1 X146.668 Y120.704 E3.35737
G1 X146.224 Y122.119 E3.40669
G1 X146.104 Y122.474 E3.41916
G1 X145.586 Y123.884 E3.46912
G1 X145.441 Y124.248 E3.48215
G1 X144.847 Y125.644 E3.53261
G1 X144.687 Y125.996 E3.54547
G1 X144.019 Y127.372 E3.59634
G1 X143.837 Y127.725 E3.60955
G1 X143.094 Y129.076 E3.66083
G1 X142.896 Y129.415 E3.67389
G1 X142.081 Y130.735 E3.72549
G1 X141.919 Y130.987 E3.73545
G1 X141.485 Y131.633 E3.76134
G1 X141.365 Y131.805 E3.76831
G1 X140.911 Y132.443 E3.79436
G1 X140.802 Y132.593 E3.80052
G1 X140.333 Y133.22 E3.82657
G1 X140.202 Y133.39 E3.83371
G1 X139.715 Y134.005 E3.8598
G1 X139.59 Y134.159 E3.86639
G1 X139.087 Y134.762 E3.89251
G1 X138.953 Y134.918 E3.89935
G1 X138.307 Y135.65 E3.93182
G1 X137.774 Y136.227 E3.95795
G1 X137.628 Y136.38 E3.96498
G1 X137.078 Y136.944 E3.99118
G1 X136.93 Y137.092 E3.99815
G1 X136.366 Y137.64 E4.0243
G1 X136.228 Y137.771 E4.03063
G1 X135.651 Y138.305 E4.05678
G1 X135.495 Y138.445 E4.06375
G1 X134.903 Y138.964 E4.08994
G1 X134.762 Y139.085 E4.09612
G1 X134.16 Y139.588 E4.12221
G1 X134.001 Y139.717 E4.12902
G1 X133.386 Y140.204 E4.15511
G1 X133.216 Y140.335 E4.16225
G1 X132.589 Y140.804 E4.18829
G1 X132.436 Y140.916 E4.1946
G1 X131.8 Y141.368 E4.22055
G1 X131.633 Y141.483 E4.22729
G1 X130.983 Y141.92 E4.25334
G1 X130.727 Y142.085 E4.26347
G1 X129.406 Y142.9 E4.3151
G1 X129.071 Y143.096 E4.32801
G1 X127.719 Y143.84 E4.37933
G1 X127.364 Y144.023 E4.39262
G1 X125.988 Y144.691 E4.44349
G1 X125.632 Y144.853 E4.4565
G1 X124.236 Y145.446 E4.50695
G1 X123.875 Y145.589 E4.51986
G1 X122.467 Y146.106 E4.56975
G1 X122.11 Y146.227 E4.58229
G1 X120.693 Y146.671 E4.63168
G1 X120.322 Y146.778 E4.64452
G1 X118.905 Y147.146 E4.69321
G1 X118.545 Y147.23 E4.70551
G1 X117.129 Y147.527 E4.75363
G1 X116.764 Y147.594 E4.76597
G1 X115.356 Y147.82 E4.8134
G1 X115 Y147.869 E4.82535
G1 X113.608 Y148.027 E4.87195
G1 X113.253 Y148.059 E4.8838
G1 X111.875 Y148.152 E4.92974
G1 X111.523 Y148.168 E4.94146
G1 X110.169 Y148.198 E4.9865
G1 X109.823 Y148.198 E4.99801
G1 X108.469 Y148.168 E5.04306
G1 X108.117 Y148.152 E5.05478
G1 X106.739 Y148.059 E5.10071
G1 X106.379 Y148.027 E5.11274
G1 X104.987 Y147.868 E5.15933
G1 X104.631 Y147.819 E5.17129
G1 X103.223 Y147.592 E5.21872
G1 X102.868 Y147.526 E5.23073
G1 X101.452 Y147.23 E5.27885
G1 X101.082 Y147.143 E5.29149
G1 X99.665 Y146.774 E5.34019
G1 X99.296 Y146.668 E5.35296
G1 X97.881 Y146.224 E5.40228
G1 X97.526 Y146.104 E5.41475
G1 X96.116 Y145.586 E5.46471
G1 X95.752 Y145.441 E5.47774
G1 X94.356 Y144.847 E5.5282
G1 X94.004 Y144.687 E5.54106
G1 X92.628 Y144.019 E5.59193
G1 X92.273 Y143.836 E5.60522
G1 X90.921 Y143.092 E5.65655
G1 X90.586 Y142.896 E5.66945
G1 X89.267 Y142.082 E5.72101
G1 X89.011 Y141.917 E5.73114
G1 X88.364 Y141.482 E5.75707
G1 X88.196 Y141.366 E5.76386
G1 X87.559 Y140.913 E5.78985
G1 X87.407 Y140.802 E5.79611
G1 X86.78 Y140.333 E5.82216
G1 X86.61 Y140.202 E5.8293
G1 X85.995 Y139.715 E5.85539
G1 X85.84 Y139.589 E5.86203
G1 X85.236 Y139.085 E5.8882
G1 X85.081 Y138.953 E5.89497
G1 X84.491 Y138.434 E5.9211
G1 X83.772 Y137.772 E5.95361
G1 X83.619 Y137.627 E5.96062
G1 X83.056 Y137.078 E5.98677
G1 X82.908 Y136.93 E5.99374
G1 X82.36 Y136.366 E6.01989
G1 X82.234 Y136.233 E6.02598
G1 X81.699 Y135.656 E6.05216
G1 X81.549 Y135.489 E6.05962
G1 X80.915 Y134.762 E6.09171
G1 X80.412 Y134.16 E6.1178
G1 X80.284 Y134.003 E6.12453
G1 X79.796 Y133.387 E6.15067
G1 X79.663 Y133.213 E6.15796
G1 X79.085 Y132.437 E6.19014
G1 X78.632 Y131.8 E6.21614
G1 X78.514 Y131.63 E6.22302
G1 X78.078 Y130.981 E6.24903
G1 X77.916 Y130.728 E6.25902
G1 X77.1 Y129.406 E6.31069
G1 X76.902 Y129.068 E6.32372
G1 X76.159 Y127.717 E6.375
G1 X75.977 Y127.364 E6.38821
G1 X75.309 Y125.988 E6.43908
G1 X75.147 Y125.632 E6.45209
G1 X74.554 Y124.236 E6.50254
G1 X74.411 Y123.876 E6.51542
G1 X73.893 Y122.466 E6.56538
G1 X73.771 Y122.106 E6.57803
G1 X73.328 Y120.691 E6.62734
G1 X73.222 Y120.322 E6.64011
G1 X72.854 Y118.905 E6.6888
G1 X72.77 Y118.545 E6.7011
G1 X72.473 Y117.129 E6.74922
G1 X72.406 Y116.764 E6.76156
G1 X72.18 Y115.356 E6.80899
G1 X72.131 Y115 E6.82094
G1 X71.973 Y113.608 E6.86754
G1 X71.941 Y113.254 E6.87936
G1 X71.848 Y111.878 E6.92523
G1 X71.832 Y111.525 E6.93699
G1 X71.802 Y110.169 E6.9821
G1 X71.802 Y109.823 E6.99361
G1 X71.832 Y108.469 E7.03865
G1 X71.848 Y108.117 E7.05037
G1 X71.941 Y106.739 E7.09631
G1 X71.973 Y106.379 E7.10833
G1 X72.132 Y104.987 E7.15493
G1 X72.181 Y104.631 E7.16688
G1 X72.408 Y103.223 E7.21431
G1 X72.474 Y102.868 E7.22632
G1 X72.77 Y101.452 E7.27444
G1 X72.857 Y101.082 E7.28708
G1 X73.226 Y99.665 E7.33578
G1 X73.332 Y99.296 E7.34855
G1 X73.776 Y97.881 E7.39788
G1 X73.896 Y97.526 E7.41034
G1 X74.414 Y96.116 E7.4603
G1 X74.559 Y95.752 E7.47333
G1 X75.153 Y94.356 E7.52379
G1 X75.313 Y94.004 E7.53665
G1 X75.981 Y92.628 E7.58753
G1 X76.163 Y92.275 E7.60074
G1 X76.906 Y90.924 E7.65202
G1 X77.104 Y90.585 E7.66508
G1 X77.919 Y89.265 E7.71667
G1 X78.081 Y89.013 E7.72664
G1 X78.515 Y88.367 E7.75252
G1 X78.635 Y88.195 E7.7595
G1 X79.089 Y87.557 E7.78554
G1 X79.198 Y87.407 E7.79171
G1 X79.667 Y86.78 E7.81775
G1 X79.798 Y86.61 E7.82489
G1 X80.285 Y85.995 E7.85098
G1 X80.41 Y85.841 E7.85758
G1 X80.913 Y85.238 E7.8837
G1 X81.042 Y85.087 E7.8903
G1 X81.561 Y84.496 E7.91646
G1 X81.697 Y84.345 E7.92322
G1 X82.231 Y83.768 E7.94937
G1 X82.372 Y83.62 E7.95617
G1 X82.922 Y83.056 E7.98237
G0 F6000 X83.208 Y83.336
G1 F480 X83.349 Y83.195 E7.989
G1 X83.913 Y82.647 E8.01516
G1 X84.616 Y81.993 E8.04709
G1 X84.774 Y81.85 E8.05418
G1 X85.494 Y81.222 E8.08596
G1 X86.096 Y80.719 E8.11205
G1 X86.247 Y80.597 E8.11851
G1 X86.862 Y80.11 E8.1446
G1 X87.024 Y79.985 E8.1514
G1 X87.651 Y79.516 E8.17745
G1 X87.796 Y79.41 E8.18342
G1 X88.432 Y78.958 E8.20937
G1 X88.59 Y78.849 E8.21576
G1 X89.24 Y78.412 E8.24181
G1 X89.483 Y78.255 E8.25143
G1 X90.804 Y77.44 E8.30305
G1 X91.122 Y77.255 E8.31529
G1 X92.474 Y76.511 E8.36662
G1 X92.81 Y76.337 E8.3792
G1 X94.186 Y75.669 E8.43008
G1 X94.525 Y75.515 E8.44246
G1 X95.921 Y74.922 E8.49291
G1 X96.263 Y74.786 E8.50515
G1 X97.671 Y74.269 E8.55504
G1 X98.009 Y74.155 E8.5669
G1 X99.426 Y73.711 E8.61629
G1 X99.779 Y73.61 E8.6285
G1 X101.196 Y73.242 E8.67719
G1 X101.537 Y73.162 E8.68884
G1 X102.953 Y72.865 E8.73696
G1 X103.299 Y72.801 E8.74867
G1 X104.707 Y72.575 E8.7961
G1 X105.045 Y72.528 E8.80745
G1 X106.437 Y72.37 E8.85404
G1 X106.774 Y72.34 E8.8653
G1 X108.152 Y72.247 E8.91123
G1 X108.486 Y72.232 E8.92235
G1 X109.84 Y72.202 E8.9674
G1 X110.168 Y72.202 E8.97831
G1 X111.523 Y72.232 E9.02339
G1 X111.858 Y72.247 E9.03454
G1 X113.234 Y72.34 E9.08041
G1 X113.574 Y72.371 E9.09176
G1 X114.968 Y72.53 E9.13843
G1 X115.308 Y72.577 E9.14985
G1 X116.714 Y72.804 E9.19722
G1 X117.049 Y72.866 E9.20855
G1 X118.465 Y73.162 E9.25666
G1 X118.818 Y73.244 E9.26871
G1 X120.237 Y73.614 E9.31749
G1 X120.581 Y73.713 E9.32939
G1 X121.996 Y74.156 E9.37871
G1 X122.337 Y74.272 E9.39069
G1 X123.747 Y74.79 E9.44065
G1 X124.094 Y74.928 E9.45307
G1 X125.489 Y75.522 E9.5035
G1 X125.822 Y75.673 E9.51566
G1 X127.198 Y76.341 E9.56654
G1 X127.534 Y76.515 E9.57912
G1 X128.886 Y77.259 E9.63045
G1 X129.204 Y77.445 E9.6427
G1 X130.523 Y78.259 E9.69425
G1 X130.764 Y78.413 E9.70377
G1 X131.41 Y78.847 E9.72965
G1 X132.211 Y79.415 E9.76231
G1 X132.353 Y79.518 E9.76814
G1 X132.98 Y79.987 E9.79419
G1 X133.142 Y80.112 E9.80099
G1 X133.757 Y80.599 E9.82708
G1 X133.903 Y80.717 E9.83333
G1 X134.506 Y81.22 E9.85945
G1 X134.649 Y81.343 E9.86572
G1 X135.24 Y81.862 E9.89188
G1 X135.383 Y81.991 E9.89828
G1 X135.96 Y82.525 E9.92443
G1 X136.1 Y82.658 E9.93086
G1 X136.664 Y83.208 E9.95706
G1 X136.805 Y83.349 E9.96369
G1 X137.353 Y83.913 E9.98985
G1 X137.477 Y84.044 E9.99584
G1 X138.011 Y84.621 E10.02199
G1 X138.144 Y84.769 E10.02861
G1 X138.778 Y85.494 E10.06064
G1 X139.281 Y86.096 E10.08674
G1 X139.403 Y86.247 E10.09319
G1 X139.89 Y86.862 E10.11928
G1 X140.015 Y87.024 E10.12609
G1 X140.484 Y87.651 E10.15213
G1 X140.59 Y87.796 E10.15811
G1 X141.042 Y88.432 E10.18406
G1 X141.151 Y88.59 E10.19044
G1 X141.588 Y89.24 E10.21649
G1 X141.745 Y89.483 E10.22612
G1 X142.56 Y90.804 E10.27774
G1 X142.745 Y91.122 E10.28998
G1 X143.489 Y92.474 E10.3413
G1 X143.662 Y92.808 E10.35382
G1 X144.33 Y94.183 E10.40466
G1 X144.486 Y94.526 E10.41719
G1 X145.079 Y95.923 E10.46767
G1 X145.214 Y96.263 E10.47984
G1 X145.731 Y97.671 E10.52972
G1 X145.845 Y98.009 E10.54159
G1 X146.289 Y99.426 E10.59098
G1 X146.39 Y99.779 E10.60319
G1 X146.758 Y101.196 E10.65188
G1 X146.838 Y101.537 E10.66353
G1 X147.135 Y102.953 E10.71165
G1 X147.199 Y103.298 E10.72332
G1 X147.425 Y104.704 E10.77069
G1 X147.472 Y105.045 E10.78214
G1 X147.63 Y106.439 E10.8288
G1 X147.66 Y106.773 E10.83995
G1 X147.753 Y108.149 E10.88582
G1 X147.768 Y108.484 E10.89698
G1 X147.798 Y109.84 E10.94209
G1 X147.798 Y110.168 E10.953
G1 X147.768 Y111.522 E10.99804
G1 X147.753 Y111.856 E11.00916
G1 X147.66 Y113.234 E11.0551
G1 X147.629 Y113.576 E11.06652
G1 X147.47 Y114.968 E11.11312
G1 X147.424 Y115.306 E11.12446
G1 X147.197 Y116.714 E11.1719
G1 X147.134 Y117.05 E11.18327
G1 X146.838 Y118.466 E11.23138
G1 X146.756 Y118.817 E11.24337
G1 X146.387 Y120.234 E11.29207
G1 X146.287 Y120.584 E11.30418
G1 X145.843 Y121.999 E11.35351
G1 X145.728 Y122.336 E11.36535
G1 X145.21 Y123.746 E11.41531
G1 X145.073 Y124.091 E11.42766
G1 X144.479 Y125.487 E11.47812
G1 X144.327 Y125.822 E11.49035
G1 X143.659 Y127.198 E11.54123
G1 X143.486 Y127.532 E11.55374
G1 X142.743 Y128.883 E11.60502
G1 X142.556 Y129.205 E11.6174
G1 X141.741 Y130.525 E11.669
G1 X141.587 Y130.764 E11.67846
G1 X141.153 Y131.41 E11.70434
G1 X140.585 Y132.211 E11.737
G1 X140.482 Y132.353 E11.74284
G1 X140.013 Y132.98 E11.76888
G1 X139.888 Y133.142 E11.77568
G1 X139.401 Y133.757 E11.80178
G1 X139.283 Y133.903 E11.80802
G1 X138.78 Y134.506 E11.83414
G1 X138.653 Y134.654 E11.84062
G1 X138.133 Y135.245 E11.86681
G1 X138.013 Y135.378 E11.87276
G1 X137.48 Y135.955 E11.89889
G1 X137.342 Y136.1 E11.90555
G1 X136.792 Y136.664 E11.93175
G1 X136.651 Y136.805 E11.93838
G1 X136.087 Y137.353 E11.96454
G1 X135.956 Y137.477 E11.97054
G1 X135.379 Y138.011 E11.99669
G1 X135.231 Y138.144 E12.0033
G1 X134.506 Y138.778 E12.03534
G1 X133.904 Y139.281 E12.06143
G1 X133.753 Y139.403 E12.06789
G1 X133.138 Y139.89 E12.09398
G1 X132.976 Y140.015 E12.10078
G1 X132.349 Y140.484 E12.12683
G1 X132.204 Y140.59 E12.1328
G1 X131.568 Y141.042 E12.15875
G1 X131.41 Y141.151 E12.16514
G1 X130.76 Y141.588 E12.19119
G1 X130.517 Y141.745 E12.20081
G1 X129.196 Y142.56 E12.25243
G1 X128.878 Y142.745 E12.26467
G1 X127.526 Y143.489 E12.316
G1 X127.19 Y143.663 E12.32858
G1 X125.814 Y144.331 E12.37946
G1 X125.475 Y144.485 E12.39184
G1 X124.079 Y145.078 E12.44229
G1 X123.737 Y145.214 E12.45453
G1 X122.329 Y145.731 E12.50442
G1 X121.991 Y145.845 E12.51628
G1 X120.574 Y146.289 E12.56567
G1 X120.221 Y146.39 E12.57788
G1 X118.804 Y146.758 E12.62657
G1 X118.463 Y146.838 E12.63822
G1 X117.047 Y147.135 E12.68634
G1 X116.701 Y147.199 E12.69805
G1 X115.293 Y147.425 E12.74548
G1 X114.955 Y147.472 E12.75683
G1 X113.563 Y147.63 E12.80342
G1 X113.226 Y147.66 E12.81468
G1 X111.848 Y147.753 E12.86061
G1 X111.514 Y147.768 E12.87173
G1 X110.16 Y147.798 E12.91678
G1 X109.832 Y147.798 E12.92769
G1 X108.478 Y147.768 E12.97273
G1 X108.144 Y147.753 E12.98385
G1 X106.766 Y147.66 E13.02979
G1 X106.424 Y147.629 E13.04121
G1 X105.032 Y147.47 E13.08781
G1 X104.694 Y147.424 E13.09916
G1 X103.286 Y147.197 E13.14659
G1 X102.95 Y147.134 E13.15796
