;FLAVOR:Marlin
;TIME:2884
;Filament used: 2.15764m
;Layer height: 0.2
;MINX:87.2
;MINY:87.2
;MINZ:0.2
;MAXX:132.8
;MAXY:132.8
;MAXZ:30
;Generated with Cura_SteamEngine 4.8.0
M140 S70
M105
M190 S70
M104 S200
M105
M109 S200
M82 ;absolute extrusion mode
; Ender 3 Custom Start G-code
G92 E0 ; Reset Extruder
G28 ; Home all axes
G1 Z2.0 F3000 ; Move Z Axis up little to prevent scratching of Heat Bed
G1 X0.1 Y20 Z0.3 F5000.0 ; Move to start position
G1 X0.1 Y200.0 Z0.3 F1500.0 E15 ; Draw the first line
G1 X0.4 Y200.0 Z0.3 F5000.0 ; Move to side a little
G1 X0.4 Y20 Z0.3 F1500.0 E30 ; Draw the second line
G92 E0 ; Reset Extruder
G1 Z2.0 F3000 ; Move Z Axis up little to prevent scratching of Heat Bed
G1 X5 Y20 Z0.3 F5000.0 ; Move over to prevent blob squish
G92 E0
G92 E0
G1 F1500 E-6.5
;LAYER_COUNT:150
;LAYER:0
M107
G0 F6000 X92.759 Y95.131 Z0.2
;TYPE:SKIRT
G1 F1500 E0
G1 F480 X95.131 Y92.759 E0.11157
G1 X95.717 Y92.229 E0.13785
G1 X96.495 Y91.67 E0.16971
G1 X99.341 Y89.881 E0.28152
G1 X100.03 Y89.495 E0.30779
G1 X100.917 Y89.122 E0.33979
G1 X104.088 Y88.013 E0.45152
G1 X104.846 Y87.791 E0.47779
G1 X105.79 Y87.625 E0.50967
G1 X109.127 Y87.249 E0.62137
G1 X109.915 Y87.2 E0.64763
G1 X110.873 Y87.249 E0.67953
G1 X114.21 Y87.625 E0.79122
G1 X114.99 Y87.753 E0.81751
G1 X115.912 Y88.013 E0.84937
G1 X119.083 Y89.122 E0.9611
G1 X119.814 Y89.42 E0.98736
G1 X120.659 Y89.881 E1.01938
G1 X123.505 Y91.67 E1.13118
G1 X124.152 Y92.124 E1.15747
G1 X124.869 Y92.759 E1.18933
G1 X127.241 Y95.131 E1.3009
G1 X127.771 Y95.717 E1.32718
G1 X128.33 Y96.495 E1.35904
G1 X130.119 Y99.341 E1.47085
G1 X130.505 Y100.03 E1.49712
G1 X130.877 Y100.916 E1.52908
G1 X131.987 Y104.089 E1.64088
G1 X132.21 Y104.847 E1.66716
G1 X132.376 Y105.793 E1.69911
G1 X132.751 Y109.126 E1.81066
G1 X132.8 Y109.914 E1.83692
G1 X132.751 Y110.873 E1.86886
G1 X132.373 Y114.22 E1.98089
G1 X132.244 Y115 E2.00718
G1 X131.984 Y115.922 E2.03905
G1 X130.877 Y119.085 E2.1505
G1 X130.579 Y119.816 E2.17676
G1 X130.119 Y120.659 E2.2087
G1 X128.33 Y123.505 E2.32051
G1 X127.876 Y124.152 E2.3468
G1 X127.241 Y124.869 E2.37865
G1 X124.869 Y127.241 E2.49022
G1 X124.283 Y127.771 E2.5165
G1 X123.505 Y128.33 E2.54837
G1 X120.659 Y130.119 E2.66017
G1 X119.97 Y130.505 E2.68644
G1 X119.083 Y130.878 E2.71844
G1 X115.912 Y131.987 E2.83018
G1 X115.154 Y132.209 E2.85645
G1 X114.21 Y132.375 E2.88833
G1 X110.873 Y132.751 E3.00002
G1 X110.085 Y132.8 E3.02628
G1 X109.127 Y132.751 E3.05818
G1 X105.79 Y132.375 E3.16987
G1 X105.01 Y132.247 E3.19616
G1 X104.088 Y131.987 E3.22803
G1 X100.917 Y130.878 E3.33976
G1 X100.186 Y130.58 E3.36601
G1 X99.341 Y130.119 E3.39803
G1 X96.495 Y128.33 E3.50983
G1 X95.848 Y127.876 E3.53612
G1 X95.131 Y127.241 E3.56798
G1 X92.759 Y124.869 E3.67955
G1 X92.229 Y124.283 E3.70583
G1 X91.67 Y123.505 E3.73769
G1 X89.881 Y120.659 E3.8495
G1 X89.495 Y119.97 E3.87577
G1 X89.123 Y119.084 E3.90773
G1 X88.013 Y115.911 E4.01953
G1 X87.79 Y115.153 E4.04581
G1 X87.624 Y114.207 E4.07776
G1 X87.249 Y110.874 E4.18931
G1 X87.2 Y110.086 E4.21557
G1 X87.249 Y109.131 E4.24738
G1 X87.624 Y105.794 E4.35907
G1 X87.752 Y105.015 E4.38532
G1 X88.013 Y104.089 E4.41732
G1 X89.123 Y100.916 E4.52913
G1 X89.421 Y100.185 E4.55538
G1 X89.881 Y99.341 E4.58735
G1 X91.67 Y96.495 E4.69916
G1 X92.124 Y95.848 E4.72545
G1 X92.759 Y95.131 E4.7573
G0 F6000 X93.041 Y95.413
G1 F480 X95.413 Y93.041 E4.86888
G1 X95.985 Y92.527 E4.89445
G1 X96.708 Y92.009 E4.92404
G1 X99.554 Y90.22 E5.03584
G1 X100.225 Y89.845 E5.06141
G1 X101.049 Y89.5 E5.09112
G1 X104.22 Y88.391 E5.20285
G1 X104.958 Y88.175 E5.22843
G1 X105.834 Y88.023 E5.258
G1 X109.171 Y87.647 E5.36969
G1 X109.939 Y87.6 E5.39528
G1 X110.829 Y87.647 E5.42492
G1 X114.166 Y88.023 E5.53662
G1 X114.924 Y88.148 E5.56217
G1 X115.78 Y88.391 E5.59176
G1 X118.951 Y89.5 E5.7035
G1 X119.663 Y89.791 E5.72908
G1 X120.446 Y90.22 E5.75877
G1 X123.292 Y92.009 E5.87058
G1 X123.921 Y92.452 E5.89617
G1 X124.587 Y93.041 E5.92574
G1 X126.959 Y95.413 E6.03731
G1 X127.473 Y95.985 E6.06289
G1 X127.991 Y96.708 E6.09247
G1 X129.78 Y99.554 E6.20428
G1 X130.155 Y100.225 E6.22984
G1 X130.5 Y101.048 E6.25952
G1 X131.61 Y104.221 E6.37133
G1 X131.826 Y104.96 E6.39694
G1 X131.979 Y105.838 E6.42658
G1 X132.354 Y109.171 E6.53814
G1 X132.4 Y109.938 E6.56369
G1 X132.353 Y110.828 E6.59333
G1 X131.975 Y114.175 E6.70536
G1 X131.849 Y114.934 E6.73095
G1 X131.607 Y115.789 E6.76051
G1 X130.5 Y118.952 E6.87197
G1 X130.208 Y119.664 E6.89756
G1 X129.78 Y120.446 E6.92721
G1 X127.991 Y123.292 E7.03902
G1 X127.548 Y123.921 E7.06461
G1 X126.959 Y124.587 E7.09418
G1 X124.587 Y126.959 E7.20575
G1 X124.015 Y127.473 E7.23133
G1 X123.292 Y127.991 E7.26091
G1 X120.446 Y129.78 E7.37272
G1 X119.775 Y130.155 E7.39828
G1 X118.951 Y130.5 E7.428
G1 X115.78 Y131.609 E7.53973
G1 X115.042 Y131.825 E7.5653
G1 X114.166 Y131.977 E7.59487
G1 X110.829 Y132.353 E7.70657
G1 X110.061 Y132.4 E7.73216
G1 X109.171 Y132.353 E7.7618
G1 X105.834 Y131.977 E7.87349
G1 X105.076 Y131.852 E7.89904
G1 X104.22 Y131.609 E7.92864
G1 X101.049 Y130.5 E8.04037
G1 X100.337 Y130.209 E8.06595
G1 X99.554 Y129.78 E8.09565
G1 X96.708 Y127.991 E8.20746
G1 X96.079 Y127.548 E8.23304
G1 X95.413 Y126.959 E8.26261
G1 X93.041 Y124.587 E8.37419
G1 X92.527 Y124.015 E8.39976
G1 X92.009 Y123.292 E8.42935
G1 X90.22 Y120.446 E8.54115
G1 X89.845 Y119.775 E8.56672
G1 X89.5 Y118.952 E8.5964
G1 X88.39 Y115.779 E8.70821
G1 X88.174 Y115.04 E8.73381
G1 X88.021 Y114.162 E8.76346
G1 X87.646 Y110.829 E8.87501
G1 X87.6 Y110.062 E8.90057
G1 X87.646 Y109.176 E8.93008
G1 X88.021 Y105.839 E9.04176
G1 X88.147 Y105.08 E9.06735
G1 X88.39 Y104.221 E9.09704
G1 X89.5 Y101.048 E9.20885
G1 X89.791 Y100.337 E9.2344
G1 X90.22 Y99.554 E9.2641
G1 X92.009 Y96.708 E9.3759
G1 X92.452 Y96.079 E9.40149
G1 X93.041 Y95.413 E9.43106
G0 F6000 X93.324 Y95.696
G1 F480 X95.696 Y93.324 E9.54264
G1 X96.253 Y92.824 E9.56753
G1 X96.921 Y92.348 E9.59481
G1 X99.767 Y90.559 E9.70662
G1 X100.42 Y90.195 E9.73148
G1 X101.181 Y89.877 E9.75892
G1 X104.352 Y88.768 E9.87065
G1 X105.07 Y88.56 E9.89551
G1 X105.879 Y88.42 E9.92282
G1 X109.216 Y88.044 E10.03451
G1 X109.963 Y88 E10.0594
G1 X110.784 Y88.044 E10.08674
G1 X114.121 Y88.42 E10.19844
G1 X114.859 Y88.543 E10.22332
G1 X115.648 Y88.768 E10.25061
G1 X118.819 Y89.877 E10.36234
G1 X119.511 Y90.162 E10.38723
G1 X120.233 Y90.559 E10.41464
G1 X123.079 Y92.348 E10.52644
G1 X123.69 Y92.779 E10.55131
G1 X124.304 Y93.324 E10.57862
G1 X126.676 Y95.696 E10.69019
G1 X127.176 Y96.253 E10.71508
G1 X127.652 Y96.921 E10.74237
G1 X129.441 Y99.767 E10.85417
G1 X129.805 Y100.42 E10.87904
G1 X130.122 Y101.181 E10.90646
G1 X131.232 Y104.354 E11.01826
G1 X131.441 Y105.072 E11.04314
G1 X131.581 Y105.882 E11.07048
G1 X131.956 Y109.215 E11.18203
G1 X132 Y109.962 E11.20692
G1 X131.956 Y110.784 E11.2343
G1 X131.578 Y114.131 E11.34633
G1 X131.454 Y114.868 E11.37118
G1 X131.229 Y115.657 E11.39847
G1 X130.122 Y118.82 E11.50993
G1 X129.838 Y119.512 E11.53481
G1 X129.441 Y120.233 E11.56219
G1 X127.652 Y123.079 E11.67399
G1 X127.221 Y123.69 E11.69886
G1 X126.676 Y124.304 E11.72617
G1 X124.304 Y126.676 E11.83774
G1 X123.747 Y127.176 E11.86264
G1 X123.079 Y127.652 E11.88992
G1 X120.233 Y129.441 E12.00172
G1 X119.58 Y129.805 E12.02659
G1 X118.819 Y130.123 E12.05402
G1 X115.648 Y131.232 E12.16575
G1 X114.93 Y131.44 E12.19062
G1 X114.121 Y131.58 E12.21792
G1 X110.784 Y131.956 E12.32961
G1 X110.037 Y132 E12.3545
G1 X109.216 Y131.956 E12.38185
G1 X105.879 Y131.58 E12.49354
G1 X105.141 Y131.457 E12.51842
G1 X104.352 Y131.232 E12.54571
G1 X101.181 Y130.123 E12.65744
G1 X100.489 Y129.838 E12.68234
G1 X99.767 Y129.441 E12.70974
G1 X96.921 Y127.652 E12.82155
G1 X96.31 Y127.221 E12.84642
G1 X95.696 Y126.676 E12.87372
G1 X93.324 Y124.304 E12.98529
G1 X92.824 Y123.747 E13.01019
G1 X92.348 Y123.079 E13.03747
G1 X90.559 Y120.233 E13.14928
G1 X90.195 Y119.58 E13.17414
G1 X89.878 Y118.819 E13.20156
G1 X88.768 Y115.646 E13.31337
G1 X88.559 Y114.928 E13.33824
G1 X88.419 Y114.118 E13.36558
G1 X88.044 Y110.785 E13.47714
G1 X88 Y110.038 E13.50202
G1 X88.044 Y109.22 E13.52927
G1 X88.419 Y105.883 E13.64096
G1 X88.542 Y105.145 E13.66584
G1 X88.768 Y104.354 E13.6932
G1 X89.878 Y101.181 E13.80501
G1 X90.162 Y100.489 E13.82989
G1 X90.559 Y99.767 E13.85729
G1 X92.348 Y96.921 E13.9691
G1 X92.779 Y96.31 E13.99397
G1 X93.324 Y95.696 E14.02127
G0 F6000 X93.607 Y95.979
G1 F480 X95.979 Y93.607 E14.13285
G1 X96.52 Y93.123 E14.15699
G1 X97.134 Y92.686 E14.18206
G1 X99.98 Y90.897 E14.29386
G1 X100.615 Y90.545 E14.31801
G1 X101.313 Y90.255 E14.34315
G1 X104.484 Y89.146 E14.45488
G1 X105.182 Y88.944 E14.47905
G1 X105.924 Y88.818 E14.50408
G1 X109.261 Y88.442 E14.61577
G1 X109.986 Y88.4 E14.63993
G1 X110.739 Y88.442 E14.66501
G1 X114.076 Y88.818 E14.7767
G1 X114.792 Y88.938 E14.80085
G1 X115.516 Y89.146 E14.8259
G1 X118.687 Y90.255 E14.93764
G1 X119.358 Y90.532 E14.96178
G1 X120.02 Y90.897 E14.98692
G1 X122.866 Y92.686 E15.09873
G1 X123.459 Y93.106 E15.1229
G1 X124.021 Y93.607 E15.14794
G1 X126.393 Y95.979 E15.25951
G1 X126.877 Y96.52 E15.28366
G1 X127.314 Y97.134 E15.30872
G1 X129.103 Y99.98 E15.42053
G1 X129.455 Y100.615 E15.44468
G1 X129.745 Y101.313 E15.46982
G1 X130.855 Y104.486 E15.58162
G1 X131.057 Y105.183 E15.60576
G1 X131.184 Y105.927 E15.63086
G1 X131.559 Y109.26 E15.74242
G1 X131.6 Y109.985 E15.76657
G1 X131.558 Y110.739 E15.79169
G1 X131.18 Y114.086 E15.90372
G1 X131.059 Y114.802 E15.92787
G1 X130.851 Y115.525 E15.95289
G1 X129.744 Y118.688 E16.06435
G1 X129.467 Y119.36 E16.08852
G1 X129.103 Y120.02 E16.11359
G1 X127.314 Y122.866 E16.2254
G1 X126.894 Y123.459 E16.24957
G1 X126.393 Y124.021 E16.27461
G1 X124.021 Y126.393 E16.38618
G1 X123.48 Y126.877 E16.41033
G1 X122.866 Y127.314 E16.43539
G1 X120.02 Y129.103 E16.5472
G1 X119.385 Y129.455 E16.57135
G1 X118.687 Y129.745 E16.59649
G1 X115.516 Y130.854 E16.70822
G1 X114.818 Y131.056 E16.73239
G1 X114.076 Y131.182 E16.75742
G1 X110.739 Y131.558 E16.86911
G1 X110.014 Y131.6 E16.89326
G1 X109.261 Y131.558 E16.91835
G1 X105.924 Y131.182 E17.03004
G1 X105.208 Y131.062 E17.05418
G1 X104.484 Y130.854 E17.07924
G1 X101.313 Y129.745 E17.19097
G1 X100.642 Y129.468 E17.21512
G1 X99.98 Y129.103 E17.24026
G1 X97.134 Y127.314 E17.35207
G1 X96.541 Y126.894 E17.37623
G1 X95.979 Y126.393 E17.40128
G1 X93.607 Y124.021 E17.51285
G1 X93.123 Y123.48 E17.53699
G1 X92.686 Y122.866 E17.56206
G1 X90.897 Y120.02 E17.67386
G1 X90.545 Y119.385 E17.69801
G1 X90.255 Y118.687 E17.72315
G1 X89.145 Y115.514 E17.83496
G1 X88.943 Y114.817 E17.85909
G1 X88.816 Y114.073 E17.8842
G1 X88.441 Y110.74 E17.99575
G1 X88.4 Y110.015 E18.0199
G1 X88.441 Y109.265 E18.04489
G1 X88.816 Y105.928 E18.15657
G1 X88.937 Y105.212 E18.18073
G1 X89.145 Y104.486 E18.20584
G1 X90.255 Y101.313 E18.31765
G1 X90.532 Y100.641 E18.34183
G1 X90.897 Y99.98 E18.36694
G1 X92.686 Y97.134 E18.47875
G1 X93.106 Y96.541 E18.50292
G1 X93.607 Y95.979 E18.52796
G0 F6000 X93.89 Y96.262
G1 F480 X96.262 Y93.89 E18.63953
G1 X96.787 Y93.421 E18.66294
G1 X97.346 Y93.025 E18.68573
G1 X100.192 Y91.236 E18.79753
G1 X100.809 Y90.896 E18.82097
G1 X101.445 Y90.633 E18.84386
G1 X104.616 Y89.524 E18.95559
G1 X105.293 Y89.329 E18.97902
G1 X105.969 Y89.215 E19.00182
G1 X109.306 Y88.839 E19.11351
G1 X110.009 Y88.8 E19.13693
G1 X110.694 Y88.839 E19.15975
G1 X114.031 Y89.215 E19.27144
G1 X114.725 Y89.333 E19.29486
G1 X115.384 Y89.524 E19.31768
G1 X118.555 Y90.633 E19.42941
G1 X119.205 Y90.902 E19.45281
G1 X119.808 Y91.236 E19.47573
G1 X122.654 Y93.025 E19.58754
G1 X123.227 Y93.433 E19.61094
G1 X123.738 Y93.89 E19.63374
G1 X126.11 Y96.262 E19.74531
G1 X126.579 Y96.787 E19.76872
G1 X126.975 Y97.346 E19.79151
G1 X128.764 Y100.192 E19.90331
G1 X129.104 Y100.809 E19.92675
G1 X129.367 Y101.445 E19.94964
G1 X130.477 Y104.618 E20.06144
G1 X130.672 Y105.294 E20.08484
G1 X130.786 Y105.972 E20.10771
G1 X131.161 Y109.305 E20.21926
G1 X131.2 Y110.008 E20.24268
G1 X131.161 Y110.694 E20.26554
G1 X130.783 Y114.041 E20.37757
G1 X130.664 Y114.735 E20.40098
G1 X130.474 Y115.393 E20.42376
G1 X129.367 Y118.556 E20.53522
G1 X129.097 Y119.206 E20.55863
G1 X128.764 Y119.808 E20.58151
G1 X126.975 Y122.654 E20.69332
G1 X126.567 Y123.227 E20.71672
G1 X126.11 Y123.738 E20.73952
G1 X123.738 Y126.11 E20.85109
G1 X123.213 Y126.579 E20.8745
G1 X122.654 Y126.975 E20.89729
G1 X119.808 Y128.764 E21.0091
G1 X119.191 Y129.104 E21.03253
G1 X118.555 Y129.367 E21.05542
G1 X115.384 Y130.476 E21.16715
G1 X114.707 Y130.671 E21.19058
G1 X114.031 Y130.785 E21.21338
G1 X110.694 Y131.161 E21.32507
G1 X109.991 Y131.2 E21.34849
G1 X109.306 Y131.161 E21.37131
G1 X105.969 Y130.785 E21.483
G1 X105.275 Y130.667 E21.50642
G1 X104.616 Y130.476 E21.52924
G1 X101.445 Y129.367 E21.64097
G1 X100.795 Y129.098 E21.66437
G1 X100.192 Y128.764 E21.68729
G1 X97.346 Y126.975 E21.7991
G1 X96.773 Y126.567 E21.8225
G1 X96.262 Y126.11 E21.8453
G1 X93.89 Y123.738 E21.95687
G1 X93.421 Y123.213 E21.98028
G1 X93.025 Y122.654 E22.00307
G1 X91.236 Y119.808 E22.11488
G1 X90.896 Y119.191 E22.13831
G1 X90.633 Y118.555 E22.1612
G1 X89.523 Y115.382 E22.273
G1 X89.328 Y114.706 E22.2964
G1 X89.214 Y114.028 E22.31927
G1 X88.839 Y110.695 E22.43083
G1 X88.8 Y109.992 E22.45424
G1 X88.839 Y109.31 E22.47696
G1 X89.214 Y105.973 E22.58865
G1 X89.332 Y105.279 E22.61207
G1 X89.523 Y104.618 E22.63495
G1 X90.633 Y101.445 E22.74676
G1 X90.903 Y100.794 E22.7702
G1 X91.236 Y100.192 E22.79308
G1 X93.025 Y97.346 E22.90489
G1 X93.433 Y96.773 E22.92828
G1 X93.89 Y96.262 E22.95108
G0 F6000 X94.173 Y96.545
G1 F480 X96.545 Y94.173 E23.06265
G1 X97.054 Y93.72 E23.08532
G1 X97.559 Y93.364 E23.10587
G1 X100.405 Y91.575 E23.21767
G1 X101.002 Y91.247 E23.24033
G1 X101.577 Y91.01 E23.26102
G1 X104.748 Y89.901 E23.37275
G1 X105.403 Y89.715 E23.39539
G1 X106.014 Y89.612 E23.416
G1 X109.351 Y89.236 E23.52769
G1 X110.03 Y89.2 E23.55031
G1 X110.649 Y89.236 E23.57093
G1 X113.986 Y89.612 E23.68262
G1 X114.657 Y89.728 E23.70527
G1 X115.252 Y89.901 E23.72588
G1 X118.423 Y91.01 E23.83761
G1 X119.051 Y91.272 E23.86025
G1 X119.595 Y91.575 E23.88096
G1 X122.441 Y93.364 E23.99276
G1 X122.995 Y93.759 E24.01539
G1 X123.455 Y94.173 E24.03598
G1 X125.827 Y96.545 E24.14755
G1 X126.28 Y97.054 E24.17021
G1 X126.636 Y97.559 E24.19076
G1 X128.425 Y100.405 E24.30257
G1 X128.753 Y101.002 E24.32522
G1 X128.99 Y101.577 E24.34591
G1 X130.1 Y104.75 E24.45772
G1 X130.286 Y105.405 E24.48036
G1 X130.389 Y106.017 E24.501
G1 X130.764 Y109.35 E24.61256
G1 X130.8 Y110.029 E24.63517
G1 X130.763 Y110.649 E24.65583
G1 X130.385 Y113.996 E24.76786
G1 X130.269 Y114.667 E24.79051
G1 X130.096 Y115.261 E24.81109
G1 X128.989 Y118.424 E24.92255
G1 X128.727 Y119.052 E24.94518
G1 X128.425 Y119.595 E24.96584
G1 X126.636 Y122.441 E25.07765
G1 X126.241 Y122.995 E25.10028
G1 X125.827 Y123.455 E25.12086
G1 X123.455 Y125.827 E25.23244
G1 X122.946 Y126.28 E25.2551
G1 X122.441 Y126.636 E25.27565
G1 X119.595 Y128.425 E25.38746
G1 X118.998 Y128.753 E25.41011
G1 X118.423 Y128.99 E25.4308
G1 X115.252 Y130.099 E25.54253
G1 X114.597 Y130.285 E25.56518
G1 X113.986 Y130.388 E25.58578
G1 X110.649 Y130.764 E25.69748
G1 X109.97 Y130.8 E25.72009
G1 X109.351 Y130.764 E25.74071
G1 X106.014 Y130.388 E25.85241
G1 X105.343 Y130.272 E25.87505
G1 X104.748 Y130.099 E25.89566
G1 X101.577 Y128.99 E26.0074
G1 X100.949 Y128.728 E26.03003
G1 X100.405 Y128.425 E26.05074
G1 X97.559 Y126.636 E26.16255
G1 X97.005 Y126.241 E26.18518
G1 X96.545 Y125.827 E26.20576
G1 X94.173 Y123.455 E26.31733
G1 X93.72 Y122.946 E26.33999
G1 X93.364 Y122.441 E26.36054
G1 X91.575 Y119.595 E26.47235
G1 X91.247 Y118.998 E26.49501
G1 X91.01 Y118.423 E26.51569
G1 X89.9 Y115.25 E26.6275
G1 X89.714 Y114.595 E26.65014
G1 X89.611 Y113.983 E26.67079
G1 X89.236 Y110.65 E26.78234
G1 X89.2 Y109.971 E26.80496
G1 X89.236 Y109.354 E26.82551
G1 X89.611 Y106.017 E26.9372
G1 X89.727 Y105.346 E26.95985
G1 X89.9 Y104.75 E26.98049
G1 X91.01 Y101.577 E27.0923
G1 X91.272 Y100.948 E27.11496
G1 X91.575 Y100.405 E27.13564
G1 X93.364 Y97.559 E27.24745
G1 X93.759 Y97.005 E27.27008
G1 X94.173 Y96.545 E27.29066
G0 F6000 X94.456 Y96.828
G1 F480 X96.828 Y94.456 E27.40223
G1 X97.32 Y94.02 E27.4241
