;FLAVOR:Marlin
;TIME:6490
;Filament used: 3.38004m
;Layer height: 0.2
;MINX:73.127
;MINY:90.906
;MINZ:0.2
;MAXX:139.789
;MAXY:129.093
;MAXZ:48
;Generated with Cura_SteamEngine 4.8.0
M140 S60
M105
M190 S60
M104 S200
M105
M109 S200
M82 ;absolute extrusion mode
; Ender 3 Custom Start G-code
G92 E0 ; Reset Extruder
G28 ; Home all axes
G1 Z2.0 F3000 ; Move Z Axis up little to prevent scratching of Heat Bed
G1 X0.1 Y20 Z0.3 F5000.0 ; Move to start position
G1 X0.1 Y200.0 Z0.3 F1500.0 E15 ; Draw the first line
G1 X0.4 Y200.0 Z0.3 F5000.0 ; Move to side a little
G1 X0.4 Y20 Z0.3 F1500.0 E30 ; Draw the second line
G92 E0 ; Reset Extruder
G1 Z2.0 F3000 ; Move Z Axis up little to prevent scratching of Heat Bed
G1 X5 Y20 Z0.3 F5000.0 ; Move over to prevent blob squish
G92 E0
G92 E0
G1 F1500 E-6.5
;LAYER_COUNT:240
;LAYER:0
M107
G0 F6000 X77.833 Y95.204 Z0.2
;TYPE:SKIRT
G1 F1500 E0
G1 F1200 X77.997 Y95.073 E0.00698
G1 X78.754 Y94.52 E0.03816
G1 X79.319 Y94.166 E0.06034
G1 X79.487 Y94.068 E0.06681
G1 X80.317 Y93.631 E0.098
G1 X80.851 Y93.395 E0.11742
G1 X81.131 Y93.28 E0.12749
G1 X82.013 Y92.961 E0.15869
G1 X82.773 Y92.751 E0.18491
G1 X83.119 Y92.669 E0.19674
G1 X84.04 Y92.492 E0.22793
G1 X84.716 Y92.413 E0.25057
G1 X85.357 Y92.358 E0.27197
G1 X85.63 Y92.338 E0.28107
G1 X108.156 Y90.97 E1.03167
G1 X108.851 Y90.936 E1.05481
G1 X109.142 Y90.926 E1.0645
G1 X109.947 Y90.908 E1.09128
G1 X110.365 Y90.906 E1.10518
G1 X110.786 Y90.917 E1.11919
G1 X111.282 Y90.938 E1.1357
G1 X111.622 Y90.957 E1.14703
G1 X112.14 Y90.995 E1.1643
G1 X112.456 Y91.023 E1.17485
G1 X112.993 Y91.078 E1.19281
G1 X113.295 Y91.113 E1.20292
G1 X113.64 Y91.158 E1.21449
G1 X113.94 Y91.202 E1.22457
G1 X114.167 Y91.238 E1.23222
G1 X114.497 Y91.295 E1.24336
G1 X115.234 Y91.435 E1.26831
G1 X115.541 Y91.498 E1.27873
G1 X115.755 Y91.545 E1.28602
G1 X116.038 Y91.611 E1.29568
G1 X116.64 Y91.76 E1.31631
G1 X117.098 Y91.884 E1.33209
G1 X117.663 Y92.05 E1.35168
G1 X118.107 Y92.191 E1.36717
G1 X118.668 Y92.382 E1.38688
G1 X119.103 Y92.54 E1.40228
G1 X119.541 Y92.71 E1.4179
G1 X119.823 Y92.824 E1.42802
G1 X120.375 Y93.056 E1.44794
G1 X120.896 Y93.291 E1.46695
G1 X121.652 Y93.656 E1.49487
G1 X121.985 Y93.824 E1.50727
G1 X122.301 Y93.99 E1.51914
G1 X122.778 Y94.251 E1.53723
G1 X123.117 Y94.445 E1.55022
G1 X123.346 Y94.582 E1.5591
G1 X123.777 Y94.848 E1.57594
G1 X123.972 Y94.971 E1.58361
G1 X124.269 Y95.163 E1.59537
G1 X124.528 Y95.336 E1.60573
G1 X124.995 Y95.657 E1.62458
G1 X125.414 Y95.959 E1.64176
G1 X125.866 Y96.302 E1.66063
G1 X126.138 Y96.516 E1.67214
G1 X126.611 Y96.899 E1.69238
G1 X126.852 Y97.1 E1.70282
G1 X127.014 Y97.239 E1.70992
G1 X127.221 Y97.421 E1.71909
G1 X127.488 Y97.662 E1.73105
G1 X127.654 Y97.815 E1.73856
G1 X128.023 Y98.162 E1.75541
G1 X128.289 Y98.42 E1.76773
G1 X128.586 Y98.725 E1.78189
G1 X128.979 Y99.144 E1.801
G1 X129.243 Y99.435 E1.81407
G1 X129.827 Y100.104 E1.8436
G1 X130.062 Y100.382 E1.85571
G1 X130.333 Y100.714 E1.86996
G1 X130.634 Y101.101 E1.88627
G1 X130.972 Y101.555 E1.9051
G1 X131.123 Y101.762 E1.91362
G1 X131.448 Y102.224 E1.93241
G1 X131.559 Y102.387 E1.93897
G1 X131.786 Y102.735 E1.95278
G1 X132.087 Y103.215 E1.97163
G1 X132.347 Y103.651 E1.98851
G1 X132.5 Y103.922 E1.99886
G1 X132.829 Y104.553 E2.02253
G1 X132.937 Y104.777 E2.0308
G1 X133.308 Y105.638 E2.06199
G1 X133.59 Y106.477 E2.09143
G1 X133.627 Y106.604 E2.09582
G1 X133.851 Y107.515 E2.12703
G1 X133.952 Y108.105 E2.14694
G1 X133.995 Y108.402 E2.15692
G1 X134.09 Y109.335 E2.18811
G1 X134.088 Y110.656 E2.23205
G1 X134.083 Y110.737 E2.23475
G1 X134.036 Y111.28 E2.25287
G1 X134.013 Y111.486 E2.25977
G1 X133.869 Y112.412 E2.29094
G1 X133.554 Y113.628 E2.33272
G1 X133.484 Y113.846 E2.34033
G1 X133.16 Y114.726 E2.37152
G1 X132.828 Y115.445 E2.39786
G1 X132.688 Y115.722 E2.40818
G1 X132.478 Y116.118 E2.42309
G1 X132.225 Y116.553 E2.43983
G1 X131.917 Y117.056 E2.45945
G1 X131.593 Y117.555 E2.47924
G1 X131.127 Y118.231 E2.50654
G1 X130.87 Y118.588 E2.52117
G1 X130.717 Y118.792 E2.52966
G1 X130.54 Y119.022 E2.53931
G1 X130.121 Y119.551 E2.56175
G1 X129.685 Y120.056 E2.58394
G1 X129.69 Y120.06 E2.58416
G1 X128.967 Y120.869 E2.62024
G1 X128.498 Y121.362 E2.64288
G1 X127.976 Y121.878 E2.66729
G1 X127.773 Y122.074 E2.67667
G1 X127.609 Y122.228 E2.68416
G1 X127.375 Y122.441 E2.69468
G1 X127.111 Y122.675 E2.70641
G1 X126.916 Y122.844 E2.715
G1 X126.522 Y123.177 E2.73215
G1 X126.203 Y123.438 E2.74586
G1 X125.986 Y123.606 E2.75499
G1 X125.29 Y124.133 E2.78403
G1 X125.175 Y124.217 E2.78876
G1 X124.902 Y124.41 E2.79988
G1 X124.588 Y124.625 E2.81254
G1 X124.19 Y124.885 E2.82835
G1 X123.373 Y125.394 E2.86037
G1 X122.818 Y125.718 E2.88174
G1 X122.047 Y126.138 E2.91094
G1 X121.555 Y126.39 E2.92933
G1 X120.944 Y126.684 E2.95188
G1 X120.592 Y126.846 E2.96477
G1 X120.234 Y127.003 E2.97777
G1 X119.978 Y127.111 E2.98701
G1 X119.567 Y127.279 E3.00178
G1 X119.286 Y127.39 E3.01183
G1 X118.981 Y127.505 E3.02267
G1 X118.502 Y127.676 E3.03959
G1 X118.235 Y127.766 E3.04896
G1 X117.83 Y127.897 E3.06312
G1 X117.345 Y128.045 E3.07998
G1 X116.893 Y128.17 E3.09558
G1 X116.148 Y128.359 E3.12114
G1 X115.785 Y128.445 E3.13355
G1 X115.395 Y128.53 E3.14683
G1 X115.053 Y128.599 E3.15843
G1 X114.323 Y128.734 E3.18312
G1 X113.973 Y128.792 E3.19492
G1 X113.475 Y128.865 E3.21166
G1 X112.922 Y128.934 E3.2302
G1 X112.563 Y128.972 E3.24221
G1 X112.157 Y129.008 E3.25576
G1 X111.947 Y129.023 E3.26277
G1 X111.305 Y129.062 E3.28416
G1 X110.833 Y129.08 E3.29987
G1 X110.156 Y129.092 E3.32239
G1 X109.848 Y129.093 E3.33263
G1 X109.439 Y129.087 E3.34624
G1 X109 Y129.072 E3.36085
G1 X108.121 Y129.029 E3.39012
G1 X90.817 Y127.978 E3.96671
G1 X85.732 Y127.668 E4.13615
G1 X84.899 Y127.606 E4.16394
G1 X84.315 Y127.546 E4.18346
G1 X84.215 Y127.533 E4.18682
G1 X83.637 Y127.442 E4.20628
G1 X83.404 Y127.399 E4.21416
G1 X82.489 Y127.19 E4.24537
G1 X81.759 Y126.962 E4.27081
G1 X81.511 Y126.875 E4.27955
G1 X80.64 Y126.527 E4.31075
G1 X79.835 Y126.125 E4.34068
G1 X79.576 Y125.982 E4.35052
G1 X78.775 Y125.494 E4.38171
G1 X78.091 Y124.997 E4.40983
G1 X77.894 Y124.842 E4.41817
G1 X77.182 Y124.231 E4.44938
G1 X76.686 Y123.736 E4.47268
G1 X76.526 Y123.566 E4.48045
G1 X75.913 Y122.856 E4.51165
G1 X75.481 Y122.273 E4.53578
G1 X75.352 Y122.086 E4.54334
G1 X74.853 Y121.292 E4.57453
G1 X74.444 Y120.503 E4.60409
G1 X74.268 Y120.127 E4.61789
G1 X73.907 Y119.262 E4.64907
G1 X73.596 Y118.275 E4.68349
G1 X73.559 Y118.135 E4.6883
G1 X73.298 Y116.833 E4.73247
G1 X73.244 Y116.443 E4.74557
G1 X73.156 Y115.52 E4.7764
G1 X73.148 Y115.37 E4.7814
G1 X73.132 Y114.875 E4.79787
G1 X73.127 Y114.18 E4.82099
G1 X73.129 Y105.642 E5.10496
G1 X73.139 Y104.949 E5.12802
G1 X73.167 Y104.31 E5.14929
G1 X73.175 Y104.2 E5.15296
G1 X73.222 Y103.707 E5.16943
G1 X73.25 Y103.47 E5.17737
G1 X73.493 Y102.13 E5.22266
G1 X73.544 Y101.923 E5.22975
G1 X73.807 Y101.022 E5.26097
G1 X74.05 Y100.375 E5.28396
G1 X74.165 Y100.095 E5.29403
G1 X74.558 Y99.243 E5.32523
G1 X74.936 Y98.568 E5.35096
G1 X75.044 Y98.39 E5.35789
G1 X75.564 Y97.61 E5.38907
G1 X76.033 Y97.012 E5.41434
G1 X76.283 Y96.715 E5.42726
G1 X76.917 Y96.024 E5.45845
G1 X77.833 Y95.204 E5.49934
G0 F6000 X78.082 Y95.517
G1 F1200 X78.246 Y95.386 E5.50632
G1 X78.99 Y94.843 E5.53695
G1 X79.521 Y94.512 E5.55777
G1 X79.689 Y94.414 E5.56423
G1 X80.504 Y93.985 E5.59487
G1 X81.003 Y93.765 E5.61301
G1 X81.283 Y93.65 E5.62307
G1 X82.149 Y93.337 E5.6537
G1 X82.866 Y93.141 E5.67842
G1 X83.212 Y93.059 E5.69025
G1 X84.116 Y92.885 E5.72087
G1 X84.75 Y92.812 E5.7421
G1 X85.391 Y92.757 E5.76349
G1 X85.654 Y92.738 E5.77226
G1 X108.175 Y91.37 E6.5227
G1 X108.87 Y91.336 E6.54584
G1 X109.151 Y91.326 E6.55519
G1 X109.956 Y91.308 E6.58197
G1 X110.359 Y91.306 E6.59538
G1 X110.769 Y91.316 E6.60902
G1 X111.265 Y91.337 E6.62553
G1 X111.593 Y91.356 E6.63646
G1 X112.111 Y91.394 E6.65373
G1 X112.415 Y91.421 E6.66388
G1 X112.952 Y91.476 E6.68184
G1 X113.243 Y91.51 E6.69158
G1 X113.588 Y91.555 E6.70315
G1 X113.877 Y91.597 E6.71287
G1 X114.104 Y91.633 E6.72051
G1 X114.422 Y91.688 E6.73124
G1 X115.159 Y91.828 E6.7562
G1 X115.455 Y91.889 E6.76625
G1 X115.942 Y91.999 E6.78285
G1 X116.544 Y92.148 E6.80348
G1 X116.985 Y92.268 E6.81868
G1 X117.55 Y92.434 E6.83827
G1 X117.978 Y92.57 E6.8532
G1 X118.539 Y92.761 E6.87291
G1 X118.958 Y92.913 E6.88774
G1 X119.396 Y93.083 E6.90337
G1 X119.668 Y93.193 E6.91312
G1 X120.22 Y93.425 E6.93304
G1 X120.722 Y93.651 E6.95135
G1 X121.478 Y94.016 E6.97927
G1 X121.799 Y94.178 E6.99123
G1 X122.115 Y94.344 E7.0031
G1 X122.585 Y94.601 E7.02092
G1 X122.916 Y94.79 E7.0336
G1 X123.136 Y94.923 E7.04215
G1 X123.755 Y95.307 E7.06638
G1 X124.052 Y95.499 E7.07814
G1 X124.301 Y95.666 E7.08811
G1 X124.768 Y95.987 E7.10696
G1 X125.172 Y96.278 E7.12352
G1 X125.624 Y96.621 E7.14239
G1 X125.887 Y96.827 E7.1535
G1 X126.36 Y97.21 E7.17374
G1 X126.591 Y97.403 E7.18376
G1 X126.753 Y97.542 E7.19086
G1 X126.953 Y97.718 E7.19972
G1 X127.38 Y98.106 E7.21891
G1 X127.749 Y98.453 E7.23575
G1 X128.009 Y98.705 E7.2478
G1 X128.294 Y98.998 E7.26139
G1 X128.687 Y99.417 E7.2805
G1 X128.941 Y99.698 E7.2931
G1 X129.525 Y100.367 E7.32263
G1 X129.752 Y100.635 E7.33431
G1 X130.023 Y100.967 E7.34857
G1 X130.313 Y101.34 E7.36428
G1 X130.651 Y101.794 E7.38311
G1 X130.797 Y101.994 E7.39134
G1 X131.004 Y102.286 E7.40325
G1 X131.228 Y102.613 E7.41643
G1 X131.447 Y102.948 E7.42974
G1 X131.748 Y103.428 E7.44859
G1 X131.999 Y103.848 E7.46486
G1 X132.152 Y104.119 E7.47521
G1 X132.469 Y104.726 E7.49799
G1 X132.577 Y104.95 E7.50626
G1 X132.941 Y105.796 E7.53689
G1 X133.206 Y106.589 E7.5647
G1 X133.243 Y106.716 E7.5691
G1 X133.462 Y107.61 E7.59971
G1 X133.557 Y108.162 E7.61834
G1 X133.6 Y108.459 E7.62832
G1 X133.692 Y109.375 E7.65894
G1 X133.689 Y110.631 E7.70072
G1 X133.684 Y110.712 E7.70342
G1 X133.639 Y111.235 E7.72088
G1 X133.616 Y111.441 E7.72777
G1 X133.474 Y112.351 E7.75841
G1 X133.173 Y113.506 E7.7981
G1 X133.103 Y113.724 E7.80572
G1 X132.784 Y114.587 E7.83632
G1 X132.471 Y115.264 E7.86113
G1 X132.331 Y115.541 E7.87145
G1 X132.128 Y115.925 E7.8859
G1 X131.884 Y116.344 E7.90202
G1 X131.576 Y116.847 E7.92164
G1 X131.263 Y117.328 E7.94073
G1 X130.797 Y118.004 E7.96804
G1 X130.55 Y118.348 E7.98212
G1 X130.397 Y118.552 E7.9906
G1 X130.226 Y118.773 E7.9999
G1 X129.807 Y119.302 E8.02234
G1 X129.387 Y119.788 E8.04371
G1 X129.392 Y119.793 E8.04394
G1 X128.669 Y120.602 E8.08003
G1 X128.217 Y121.078 E8.10186
G1 X127.695 Y121.594 E8.12627
G1 X127.335 Y121.936 E8.14279
G1 X127.11 Y122.141 E8.15291
G1 X126.846 Y122.375 E8.16465
G1 X126.657 Y122.539 E8.17297
G1 X126.263 Y122.872 E8.19013
G1 X125.953 Y123.125 E8.20344
G1 X125.744 Y123.288 E8.21225
G1 X125.215 Y123.69 E8.23435
G1 X124.939 Y123.894 E8.24577
G1 X124.676 Y124.08 E8.25648
G1 X124.362 Y124.295 E8.26914
G1 X123.978 Y124.546 E8.28439
G1 X123.161 Y125.055 E8.31641
G1 X122.627 Y125.366 E8.33696
G1 X121.856 Y125.786 E8.36617
G1 X121.381 Y126.03 E8.38393
G1 X120.77 Y126.324 E8.40648
G1 X120.431 Y126.48 E8.41889
G1 X120.073 Y126.637 E8.43189
G1 X119.827 Y126.741 E8.44078
G1 X119.416 Y126.909 E8.45554
G1 X119.145 Y127.015 E8.46522
G1 X118.62 Y127.211 E8.48386
G1 X118.37 Y127.299 E8.49268
G1 X118.112 Y127.386 E8.50173
G1 X117.707 Y127.517 E8.51589
G1 X117.23 Y127.662 E8.53247
G1 X116.795 Y127.783 E8.54749
G1 X116.05 Y127.972 E8.57305
G1 X115.7 Y128.054 E8.58501
G1 X115.31 Y128.139 E8.59828
G1 X114.981 Y128.205 E8.60944
G1 X114.251 Y128.34 E8.63414
G1 X113.913 Y128.397 E8.64554
G1 X113.424 Y128.469 E8.66198
G1 X113.122 Y128.508 E8.6721
G1 X112.88 Y128.536 E8.68021
G1 X112.521 Y128.574 E8.69221
G1 X112.125 Y128.609 E8.70544
G1 X111.281 Y128.662 E8.73356
G1 X110.826 Y128.68 E8.74871
G1 X110.149 Y128.692 E8.77123
G1 X109.852 Y128.693 E8.78111
G1 X109.451 Y128.687 E8.79445
G1 X109.02 Y128.673 E8.80879
G1 X108.145 Y128.63 E8.83793
G1 X89.301 Y127.486 E9.46583
G1 X85.601 Y127.259 E9.58913
G1 X84.93 Y127.208 E9.61151
G1 X84.366 Y127.15 E9.63037
G1 X84.266 Y127.137 E9.63372
G1 X83.709 Y127.049 E9.65248
G1 X83.476 Y127.006 E9.66036
G1 X82.579 Y126.8 E9.69097
G1 X81.891 Y126.584 E9.71495
G1 X81.643 Y126.497 E9.7237
G1 X80.788 Y126.155 E9.75432
G1 X80.029 Y125.775 E9.78255
G1 X79.77 Y125.632 E9.79239
G1 X78.984 Y125.152 E9.82303
G1 X78.338 Y124.683 E9.84958
G1 X78.141 Y124.528 E9.85792
G1 X77.443 Y123.927 E9.88855
G1 X76.977 Y123.462 E9.91045
G1 X76.817 Y123.292 E9.91821
G1 X76.216 Y122.595 E9.94882
G1 X75.811 Y122.046 E9.97151
G1 X75.682 Y121.859 E9.97907
G1 X75.192 Y121.079 E10.00971
G1 X74.807 Y120.334 E10.0376
G1 X74.631 Y119.958 E10.05141
G1 X74.277 Y119.108 E10.08203
G1 X73.983 Y118.172 E10.11466
G1 X73.946 Y118.032 E10.11948
G1 X73.694 Y116.778 E10.16202
G1 X73.64 Y116.388 E10.17512
G1 X73.555 Y115.499 E10.20482
G1 X73.547 Y115.349 E10.20981
G1 X73.532 Y114.872 E10.22569
G1 X73.527 Y114.18 E10.2487
G1 X73.529 Y105.648 E10.53248
G1 X73.539 Y104.955 E10.55553
G1 X73.566 Y104.339 E10.57604
G1 X73.574 Y104.229 E10.57971
G1 X73.619 Y103.754 E10.59558
G1 X73.647 Y103.517 E10.60351
G1 X73.882 Y102.225 E10.64719
G1 X73.933 Y102.018 E10.65428
G1 X74.192 Y101.135 E10.68489
G1 X74.42 Y100.527 E10.70649
G1 X74.535 Y100.247 E10.71655
G1 X74.921 Y99.411 E10.74718
G1 X75.278 Y98.775 E10.77144
G1 X75.386 Y98.597 E10.77836
G1 X75.897 Y97.832 E10.80896
G1 X76.339 Y97.27 E10.83274
G1 X76.589 Y96.973 E10.84565
G1 X77.211 Y96.295 E10.87626
G1 X78.082 Y95.517 E10.9151
G0 F6000 X78.332 Y95.829
G1 F1200 X78.496 Y95.698 E10.92208
G1 X79.226 Y95.167 E10.9521
G1 X79.723 Y94.857 E10.97159
G1 X79.891 Y94.759 E10.97806
G1 X80.69 Y94.339 E11.00808
G1 X81.155 Y94.135 E11.02497
G1 X81.435 Y94.02 E11.03503
G1 X82.285 Y93.714 E11.06508
G1 X82.958 Y93.53 E11.08829
G1 X83.304 Y93.448 E11.10011
G1 X84.191 Y93.279 E11.13015
G1 X84.784 Y93.21 E11.15
G1 X85.425 Y93.155 E11.1714
G1 X85.678 Y93.137 E11.17984
G1 X108.195 Y91.769 E11.93014
G1 X108.89 Y91.735 E11.95328
G1 X109.16 Y91.726 E11.96227
G1 X109.965 Y91.708 E11.98905
G1 X110.352 Y91.706 E12.00192
G1 X110.752 Y91.716 E12.01523
G1 X111.248 Y91.737 E12.03174
G1 X111.563 Y91.755 E12.04223
G1 X112.081 Y91.793 E12.05951
G1 X112.374 Y91.819 E12.06929
G1 X112.911 Y91.874 E12.08724
G1 X113.191 Y91.907 E12.09662
G1 X113.536 Y91.952 E12.10819
G1 X113.815 Y91.992 E12.11757
G1 X114.042 Y92.028 E12.12521
G1 X114.348 Y92.081 E12.13554
G1 X115.085 Y92.221 E12.16049
G1 X115.369 Y92.279 E12.17013
G1 X115.583 Y92.326 E12.17742
G1 X115.846 Y92.388 E12.18641
G1 X116.448 Y92.537 E12.20704
G1 X116.872 Y92.652 E12.22165
G1 X117.437 Y92.818 E12.24123
G1 X117.849 Y92.948 E12.2556
G1 X118.41 Y93.139 E12.27531
G1 X118.814 Y93.286 E12.28961
G1 X119.252 Y93.456 E12.30524
G1 X119.513 Y93.562 E12.31461
G1 X120.065 Y93.794 E12.33452
G1 X120.548 Y94.012 E12.35215
G1 X121.304 Y94.377 E12.38007
G1 X121.613 Y94.532 E12.39157
G1 X122.109 Y94.795 E12.41024
G1 X122.392 Y94.951 E12.42099
G1 X122.714 Y95.136 E12.43334
G1 X122.926 Y95.263 E12.44156
G1 X123.538 Y95.643 E12.46552
G1 X123.835 Y95.835 E12.47728
G1 X124.075 Y95.995 E12.48688
G1 X124.542 Y96.316 E12.50572
G1 X124.93 Y96.597 E12.52166
G1 X125.382 Y96.94 E12.54053
G1 X125.635 Y97.138 E12.55122
G1 X126.108 Y97.521 E12.57146
G1 X126.331 Y97.707 E12.58112
G1 X126.493 Y97.846 E12.58822
G1 X126.685 Y98.015 E12.59672
G1 X127.106 Y98.397 E12.61563
G1 X127.475 Y98.744 E12.63248
G1 X127.728 Y98.99 E12.64422
G1 X128.003 Y99.272 E12.65732
G1 X128.396 Y99.691 E12.67642
G1 X128.64 Y99.961 E12.68853
G1 X129.224 Y100.63 E12.71806
G1 X129.442 Y100.888 E12.7293
G1 X129.713 Y101.22 E12.74355
G1 X129.993 Y101.579 E12.75869
G1 X130.331 Y102.033 E12.77752
G1 X130.47 Y102.225 E12.7854
G1 X130.787 Y102.675 E12.80371
G1 X130.898 Y102.838 E12.81027
G1 X131.108 Y103.16 E12.82306
G1 X131.409 Y103.64 E12.8419
G1 X131.65 Y104.044 E12.85755
G1 X131.803 Y104.315 E12.8679
G1 X132.109 Y104.9 E12.88986
G1 X132.217 Y105.124 E12.89813
G1 X132.573 Y105.954 E12.92817
G1 X132.822 Y106.701 E12.95435
G1 X132.859 Y106.828 E12.95875
G1 X133.073 Y107.705 E12.98878
G1 X133.161 Y108.219 E13.00612
G1 X133.204 Y108.516 E13.0161
G1 X133.293 Y109.415 E13.04615
G1 X133.29 Y110.606 E13.08576
G1 X133.285 Y110.687 E13.08846
G1 X133.241 Y111.191 E13.10529
