;FLAVOR:Marlin
;TIME:1457
;Filament used: 1.17413m
;Layer height: 0.28
;MINX:92.2
;MINY:118.7
;MINZ:0.28
;MAXX:127.8
;MAXY:154.3
;MAXZ:19.88
;Generated with Cura_SteamEngine 4.8.0
M140 S60
M105
M190 S60
M104 S200
M105
M109 S200
M82 ;absolute extrusion mode
; Ender 3 Custom Start G-code
G92 E0 ; Reset Extruder
G28 ; Home all axes
G1 Z2.0 F3000 ; Move Z Axis up little to prevent scratching of Heat Bed
G1 X0.1 Y20 Z0.3 F5000.0 ; Move to start position
G1 X0.1 Y200.0 Z0.3 F1500.0 E15 ; Draw the first line
G1 X0.4 Y200.0 Z0.3 F5000.0 ; Move to side a little
G1 X0.4 Y20 Z0.3 F1500.0 E30 ; Draw the second line
G92 E0 ; Reset Extruder
G1 Z2.0 F3000 ; Move Z Axis up little to prevent scratching of Heat Bed
G1 X5 Y20 Z0.3 F5000.0 ; Move over to prevent blob squish
G92 E0
G92 E0
G1 F1500 E-6.5
;LAYER_COUNT:71
;LAYER:0
M107
G0 F6000 X95.222 Y120.334 Z0.28
;TYPE:SKIRT
G1 F1500 E0
G1 F480 X95.87 Y119.883 E0.03676
G1 X96.561 Y119.499 E0.07357
G1 X97.286 Y119.187 E0.11033
G1 X98.039 Y118.95 E0.14708
G1 X98.813 Y118.791 E0.18388
G1 X99.598 Y118.71 E0.22062
G1 X100 Y118.7 E0.23935
G1 X120 Y118.7 E1.17063
G1 X120.789 Y118.74 E1.20742
G1 X121.569 Y118.859 E1.24416
G1 X122.334 Y119.057 E1.28095
G1 X123.074 Y119.331 E1.3177
G1 X123.783 Y119.679 E1.35447
G1 X124.454 Y120.097 E1.39129
G1 X125.078 Y120.58 E1.42803
G1 X125.651 Y121.123 E1.46479
G1 X126.166 Y121.722 E1.50157
G1 X126.617 Y122.37 E1.53833
G1 X127.001 Y123.061 E1.57514
G1 X127.313 Y123.786 E1.6119
G1 X127.55 Y124.539 E1.64865
G1 X127.709 Y125.313 E1.68545
G1 X127.79 Y126.098 E1.72219
G1 X127.8 Y126.5 E1.74092
G1 X127.8 Y146.5 E2.6722
G1 X127.76 Y147.289 E2.70899
G1 X127.641 Y148.069 E2.74573
G1 X127.443 Y148.834 E2.78253
G1 X127.169 Y149.574 E2.81927
G1 X126.821 Y150.283 E2.85605
G1 X126.403 Y150.954 E2.89286
G1 X125.92 Y151.578 E2.9296
G1 X125.377 Y152.151 E2.96636
G1 X124.778 Y152.666 E3.00314
G1 X124.13 Y153.117 E3.0399
G1 X123.439 Y153.501 E3.07671
G1 X122.714 Y153.813 E3.11347
G1 X121.961 Y154.05 E3.15023
G1 X121.187 Y154.209 E3.18702
G1 X120.402 Y154.29 E3.22377
G1 X120 Y154.3 E3.24249
G1 X100 Y154.3 E4.17377
G1 X99.211 Y154.26 E4.21056
G1 X98.431 Y154.141 E4.2473
G1 X97.666 Y153.943 E4.2841
G1 X96.926 Y153.669 E4.32084
G1 X96.217 Y153.321 E4.35762
G1 X95.546 Y152.903 E4.39443
G1 X94.922 Y152.42 E4.43117
G1 X94.349 Y151.877 E4.46793
G1 X93.834 Y151.278 E4.50471
G1 X93.383 Y150.63 E4.54148
G1 X92.999 Y149.939 E4.57829
G1 X92.687 Y149.214 E4.61504
G1 X92.45 Y148.461 E4.6518
G1 X92.291 Y147.687 E4.68859
G1 X92.21 Y146.902 E4.72534
G1 X92.2 Y146.5 E4.74406
G1 X92.2 Y126.5 E5.67535
G1 X92.24 Y125.711 E5.71213
G1 X92.359 Y124.931 E5.74887
G1 X92.557 Y124.166 E5.78567
G1 X92.831 Y123.426 E5.82241
G1 X93.179 Y122.717 E5.85919
G1 X93.597 Y122.046 E5.896
G1 X94.08 Y121.422 E5.93274
G1 X94.623 Y120.849 E5.9695
G1 X95.222 Y120.334 E6.00628
G0 F6000 X95.611 Y120.542
G1 F480 X96.253 Y120.119 E6.04208
G1 X96.936 Y119.764 E6.07793
G1 X97.651 Y119.483 E6.1137
G1 X98.393 Y119.277 E6.14956
G1 X99.151 Y119.149 E6.18535
G1 X100 Y119.1 E6.22495
G1 X120 Y119.1 E7.15623
G1 X120.768 Y119.14 E7.19204
G1 X121.528 Y119.259 E7.22786
G1 X122.271 Y119.457 E7.26367
G1 X122.99 Y119.731 E7.2995
G1 X123.676 Y120.078 E7.33529
G1 X124.323 Y120.494 E7.37111
G1 X124.923 Y120.975 E7.40692
G1 X125.47 Y121.516 E7.44274
G1 X125.958 Y122.111 E7.47857
G1 X126.381 Y122.753 E7.51437
G1 X126.736 Y123.436 E7.55022
G1 X127.017 Y124.151 E7.58599
G1 X127.223 Y124.893 E7.62185
G1 X127.351 Y125.651 E7.65764
G1 X127.4 Y126.5 E7.69724
G1 X127.4 Y146.5 E8.62853
G1 X127.36 Y147.268 E8.66433
G1 X127.241 Y148.028 E8.70015
G1 X127.043 Y148.771 E8.73596
G1 X126.769 Y149.49 E8.77179
G1 X126.422 Y150.176 E8.80758
G1 X126.006 Y150.823 E8.8434
G1 X125.525 Y151.423 E8.87921
G1 X124.984 Y151.97 E8.91503
G1 X124.389 Y152.458 E8.95087
G1 X123.747 Y152.881 E8.98667
G1 X123.064 Y153.236 E9.02251
G1 X122.349 Y153.517 E9.05828
G1 X121.607 Y153.723 E9.09414
G1 X120.849 Y153.851 E9.12993
G1 X120 Y153.9 E9.16953
G1 X100 Y153.9 E10.10082
G1 X99.232 Y153.86 E10.13663
G1 X98.472 Y153.741 E10.17245
G1 X97.729 Y153.543 E10.20825
G1 X97.01 Y153.269 E10.24408
G1 X96.324 Y152.922 E10.27988
G1 X95.677 Y152.506 E10.31569
G1 X95.077 Y152.025 E10.3515
G1 X94.53 Y151.484 E10.38732
G1 X94.042 Y150.889 E10.42316
G1 X93.619 Y150.247 E10.45896
G1 X93.264 Y149.564 E10.4948
G1 X92.983 Y148.849 E10.53057
G1 X92.777 Y148.107 E10.56643
G1 X92.649 Y147.349 E10.60222
G1 X92.6 Y146.5 E10.64182
G1 X92.6 Y126.5 E11.57311
G1 X92.64 Y125.732 E11.60892
G1 X92.759 Y124.972 E11.64474
G1 X92.957 Y124.229 E11.68054
G1 X93.231 Y123.51 E11.71637
G1 X93.578 Y122.824 E11.75217
G1 X93.994 Y122.177 E11.78798
G1 X94.475 Y121.577 E11.82379
G1 X95.016 Y121.03 E11.85962
G1 X95.611 Y120.542 E11.89545
G0 F6000 X95.998 Y120.757
G1 F480 X96.634 Y120.362 E11.93031
G1 X97.308 Y120.038 E11.96513
G1 X98.013 Y119.788 E11.99996
G1 X98.741 Y119.614 E12.03482
G1 X99.483 Y119.519 E12.06965
G1 X100 Y119.5 E12.09374
G1 X120 Y119.5 E13.02502
G1 X120.747 Y119.54 E13.05986
G1 X121.485 Y119.659 E13.09466
G1 X122.207 Y119.857 E13.12952
G1 X122.903 Y120.13 E13.16434
G1 X123.566 Y120.477 E13.19918
G1 X124.189 Y120.892 E13.23404
G1 X124.763 Y121.371 E13.26885
G1 X125.284 Y121.908 E13.30369
G1 X125.743 Y122.498 E13.3385
G1 X126.138 Y123.134 E13.37336
G1 X126.462 Y123.808 E13.40818
G1 X126.712 Y124.513 E13.44301
G1 X126.886 Y125.241 E13.47787
G1 X126.981 Y125.983 E13.5127
G1 X127 Y126.5 E13.53679
G1 X127 Y146.5 E14.46807
G1 X126.96 Y147.247 E14.5029
G1 X126.841 Y147.985 E14.53771
G1 X126.643 Y148.707 E14.57257
G1 X126.37 Y149.403 E14.60739
G1 X126.023 Y150.066 E14.64223
G1 X125.608 Y150.689 E14.67709
G1 X125.129 Y151.263 E14.7119
G1 X124.592 Y151.784 E14.74674
G1 X124.002 Y152.243 E14.78155
G1 X123.366 Y152.638 E14.81641
G1 X122.692 Y152.962 E14.85123
G1 X121.987 Y153.212 E14.88606
G1 X121.259 Y153.386 E14.92091
G1 X120.517 Y153.481 E14.95575
G1 X120 Y153.5 E14.97984
G1 X100 Y153.5 E15.91112
G1 X99.253 Y153.46 E15.94595
G1 X98.515 Y153.341 E15.98076
G1 X97.793 Y153.143 E16.01562
G1 X97.097 Y152.87 E16.05044
G1 X96.434 Y152.523 E16.08528
G1 X95.811 Y152.108 E16.12014
G1 X95.237 Y151.629 E16.15495
G1 X94.716 Y151.092 E16.18979
G1 X94.257 Y150.502 E16.2246
G1 X93.862 Y149.866 E16.25946
G1 X93.538 Y149.192 E16.29428
G1 X93.288 Y148.487 E16.32911
G1 X93.114 Y147.759 E16.36396
G1 X93.019 Y147.017 E16.3988
G1 X93 Y146.5 E16.42289
G1 X93 Y126.5 E17.35417
G1 X93.04 Y125.753 E17.389
G1 X93.159 Y125.015 E17.42381
G1 X93.357 Y124.293 E17.45867
G1 X93.63 Y123.597 E17.49348
G1 X93.977 Y122.934 E17.52833
G1 X94.392 Y122.311 E17.56319
G1 X94.871 Y121.737 E17.598
G1 X95.408 Y121.216 E17.63284
G1 X95.998 Y120.757 E17.66764
G0 F6000 X95.799 Y121.409
G1 F480 X96.384 Y120.979 E17.70145
G1 X97.013 Y120.615 E17.73529
G1 X97.678 Y120.322 E17.76913
G1 X98.371 Y120.104 E17.80296
G1 X99.083 Y119.964 E17.83675
G1 X100 Y119.9 E17.87955
G1 X120 Y119.9 E18.81083
G1 X120.725 Y119.94 E18.84464
G1 X121.442 Y120.059 E18.87849
G1 X122.141 Y120.257 E18.91232
G1 X122.814 Y120.53 E18.94613
G1 X123.453 Y120.875 E18.97995
G1 X124.05 Y121.289 E19.01378
G1 X124.598 Y121.765 E19.04758
G1 X125.091 Y122.299 E19.08142
G1 X125.521 Y122.884 E19.11522
G1 X125.885 Y123.513 E19.14906
G1 X126.178 Y124.178 E19.1829
G1 X126.396 Y124.871 E19.21673
G1 X126.536 Y125.583 E19.25052
G1 X126.6 Y126.5 E19.29332
G1 X126.6 Y146.5 E20.22461
G1 X126.56 Y147.225 E20.25842
G1 X126.441 Y147.942 E20.29226
G1 X126.243 Y148.641 E20.32609
G1 X125.97 Y149.314 E20.35991
G1 X125.625 Y149.953 E20.39372
G1 X125.211 Y150.55 E20.42755
G1 X124.735 Y151.098 E20.46135
G1 X124.201 Y151.591 E20.49519
G1 X123.616 Y152.021 E20.529
G1 X122.987 Y152.385 E20.56284
G1 X122.322 Y152.678 E20.59667
G1 X121.629 Y152.896 E20.6305
G1 X120.917 Y153.036 E20.66429
G1 X120 Y153.1 E20.70709
G1 X100 Y153.1 E21.63838
G1 X99.275 Y153.06 E21.67219
G1 X98.558 Y152.941 E21.70603
G1 X97.859 Y152.743 E21.73986
G1 X97.186 Y152.47 E21.77368
G1 X96.547 Y152.125 E21.80749
G1 X95.95 Y151.711 E21.84132
G1 X95.402 Y151.235 E21.87512
G1 X94.909 Y150.701 E21.90896
G1 X94.479 Y150.116 E21.94277
G1 X94.115 Y149.487 E21.97661
G1 X93.822 Y148.822 E22.01045
G1 X93.604 Y148.129 E22.04427
G1 X93.464 Y147.417 E22.07806
G1 X93.4 Y146.5 E22.12087
G1 X93.4 Y126.5 E23.05215
G1 X93.44 Y125.775 E23.08596
G1 X93.559 Y125.058 E23.1198
G1 X93.757 Y124.359 E23.15363
G1 X94.03 Y123.686 E23.18745
G1 X94.375 Y123.047 E23.22127
G1 X94.789 Y122.45 E23.25509
G1 X95.265 Y121.902 E23.28889
G1 X95.799 Y121.409 E23.32274
G0 F6000 X96.189 Y121.609
G1 F480 X96.768 Y121.209 E23.3555
G1 X97.389 Y120.877 E23.38829
G1 X98.043 Y120.617 E23.42106
G1 X98.723 Y120.433 E23.45387
G1 X99.419 Y120.327 E23.48665
G1 X100 Y120.3 E23.51373
G1 X120 Y120.3 E24.44502
G1 X120.703 Y120.34 E24.4778
G1 X121.397 Y120.459 E24.51059
G1 X122.072 Y120.657 E24.54335
G1 X122.721 Y120.929 E24.57611
G1 X123.335 Y121.274 E24.60891
G1 X123.906 Y121.685 E24.64167
G1 X124.427 Y122.159 E24.67446
G1 X124.891 Y122.689 E24.70727
G1 X125.291 Y123.268 E24.74003
G1 X125.623 Y123.889 E24.77282
G1 X125.883 Y124.543 E24.80559
G1 X126.067 Y125.223 E24.8384
G1 X126.173 Y125.919 E24.87118
G1 X126.2 Y126.5 E24.89826
G1 X126.2 Y146.5 E25.82955
G1 X126.16 Y147.203 E25.86233
G1 X126.041 Y147.897 E25.89512
G1 X125.843 Y148.572 E25.92788
G1 X125.571 Y149.221 E25.96064
G1 X125.226 Y149.835 E25.99344
G1 X124.815 Y150.406 E26.0262
G1 X124.341 Y150.927 E26.05899
G1 X123.811 Y151.391 E26.0918
G1 X123.232 Y151.791 E26.12456
G1 X122.611 Y152.123 E26.15735
G1 X121.957 Y152.383 E26.19012
G1 X121.277 Y152.567 E26.22293
G1 X120.581 Y152.673 E26.25571
G1 X120 Y152.7 E26.28279
G1 X100 Y152.7 E27.21408
G1 X99.297 Y152.66 E27.24686
G1 X98.603 Y152.541 E27.27965
G1 X97.928 Y152.343 E27.31241
G1 X97.279 Y152.071 E27.34517
G1 X96.665 Y151.726 E27.37797
G1 X96.094 Y151.315 E27.41073
G1 X95.573 Y150.841 E27.44352
G1 X95.109 Y150.311 E27.47633
G1 X94.709 Y149.732 E27.50909
G1 X94.377 Y149.111 E27.54188
G1 X94.117 Y148.457 E27.57465
G1 X93.933 Y147.777 E27.60746
G1 X93.827 Y147.081 E27.64024
G1 X93.8 Y146.5 E27.66732
G1 X93.8 Y126.5 E28.59861
G1 X93.84 Y125.797 E28.63139
G1 X93.959 Y125.103 E28.66418
G1 X94.157 Y124.428 E28.69694
G1 X94.429 Y123.779 E28.7297
G1 X94.774 Y123.165 E28.7625
G1 X95.185 Y122.594 E28.79526
G1 X95.659 Y122.073 E28.82806
G1 X96.189 Y121.609 E28.86086
G0 F6000 X96.578 Y121.817
G1 F480 X97.15 Y121.448 E28.89255
G1 X97.762 Y121.149 E28.92427
G1 X98.404 Y120.924 E28.95594
G1 X99.069 Y120.775 E28.98768
G1 X100 Y120.7 E29.03117
G1 X120 Y120.7 E29.96245
G1 X120.68 Y120.74 E29.99417
G1 X121.35 Y120.859 E30.02586
G1 X122.002 Y121.056 E30.05757
G1 X122.626 Y121.328 E30.08927
G1 X123.214 Y121.672 E30.12099
G1 X123.758 Y122.082 E30.15271
G1 X124.249 Y122.553 E30.18439
G1 X124.683 Y123.078 E30.21611
G1 X125.052 Y123.65 E30.24781
G1 X125.351 Y124.262 E30.27952
G1 X125.576 Y124.904 E30.3112
G1 X125.725 Y125.569 E30.34293
G1 X125.8 Y126.5 E30.38642
G1 X125.8 Y146.5 E31.31771
G1 X125.76 Y147.18 E31.34943
G1 X125.641 Y147.85 E31.38111
G1 X125.444 Y148.502 E31.41283
G1 X125.172 Y149.126 E31.44452
G1 X124.828 Y149.714 E31.47625
G1 X124.418 Y150.258 E31.50796
G1 X123.947 Y150.749 E31.53965
G1 X123.422 Y151.183 E31.57136
G1 X122.85 Y151.552 E31.60306
G1 X122.238 Y151.851 E31.63478
G1 X121.596 Y152.076 E31.66645
G1 X120.931 Y152.225 E31.69819
G1 X120 Y152.3 E31.74168
G1 X100 Y152.3 E32.67296
G1 X99.32 Y152.26 E32.70468
G1 X98.65 Y152.141 E32.73637
G1 X97.998 Y151.944 E32.76808
G1 X97.374 Y151.672 E32.79978
G1 X96.786 Y151.328 E32.8315
G1 X96.242 Y150.918 E32.86322
G1 X95.751 Y150.447 E32.8949
G1 X95.317 Y149.922 E32.92662
G1 X94.948 Y149.35 E32.95831
G1 X94.649 Y148.738 E32.99003
G1 X94.424 Y148.096 E33.02171
G1 X94.275 Y147.431 E33.05344
G1 X94.2 Y146.5 E33.09693
G1 X94.2 Y126.5 E34.02822
G1 X94.24 Y125.82 E34.05993
G1 X94.359 Y125.15 E34.09162
G1 X94.556 Y124.498 E34.12334
G1 X94.828 Y123.874 E34.15503
G1 X95.172 Y123.286 E34.18675
G1 X95.582 Y122.742 E34.21847
G1 X96.053 Y122.251 E34.25016
G1 X96.578 Y121.817 E34.28187
G0 F6000 X96.445 Y122.435
G1 F480 X96.965 Y122.034 E34.31245
G1 X97.529 Y121.698 E34.34302
G1 X98.131 Y121.434 E34.37363
G1 X98.76 Y121.244 E34.40422
G1 X99.407 Y121.133 E34.43479
G1 X100 Y121.1 E34.46245
G1 X120 Y121.1 E35.39373
G1 X120.656 Y121.14 E35.42433
G1 X121.302 Y121.259 E35.45492
G1 X121.929 Y121.456 E35.48552
G1 X122.527 Y121.728 E35.51611
G1 X123.088 Y122.07 E35.54671
G1 X123.603 Y122.478 E35.5773
G1 X124.065 Y122.945 E35.60789
G1 X124.466 Y123.465 E35.63847
G1 X124.802 Y124.029 E35.66904
G1 X125.066 Y124.631 E35.69964
G1 X125.256 Y125.26 E35.73024
G1 X125.367 Y125.907 E35.76081
G1 X125.4 Y126.5 E35.78846
G1 X125.4 Y146.5 E36.71975
G1 X125.36 Y147.156 E36.75035
G1 X125.241 Y147.802 E36.78094
G1 X125.044 Y148.429 E36.81154
G1 X124.772 Y149.027 E36.84213
G1 X124.43 Y149.588 E36.87272
G1 X124.022 Y150.103 E36.90332
G1 X123.555 Y150.565 E36.93391
G1 X123.035 Y150.966 E36.96448
G1 X122.471 Y151.302 E36.99505
G1 X121.869 Y151.566 E37.02566
G1 X121.24 Y151.756 E37.05626
G1 X120.593 Y151.867 E37.08682
G1 X120 Y151.9 E37.11448
G1 X100 Y151.9 E38.04576
G1 X99.344 Y151.86 E38.07637
G1 X98.698 Y151.741 E38.10695
G1 X98.071 Y151.544 E38.13756
G1 X97.473 Y151.272 E38.16815
G1 X96.912 Y150.93 E38.19874
G1 X96.397 Y150.522 E38.22933
G1 X95.935 Y150.055 E38.25992
G1 X95.534 Y149.535 E38.2905
G1 X95.198 Y148.971 E38.32107
G1 X94.934 Y148.369 E38.35168
G1 X94.744 Y147.74 E38.38227
G1 X94.633 Y147.093 E38.41284
G1 X94.6 Y146.5 E38.4405
G1 X94.6 Y126.5 E39.37178
G1 X94.64 Y125.844 E39.40238
G1 X94.759 Y125.198 E39.43297
G1 X94.956 Y124.571 E39.46357
G1 X95.228 Y123.973 E39.49416
G1 X95.57 Y123.412 E39.52476
G1 X95.978 Y122.897 E39.55535
G1 X96.445 Y122.435 E39.58594
G0 F6000 X96.836 Y122.629
G1 F480 X97.35 Y122.26 E39.6154
G1 X97.906 Y121.96 E39.64482
G1 X98.495 Y121.732 E39.67423
G1 X99.109 Y121.58 E39.70368
G1 X100 Y121.5 E39.74534
G1 X120 Y121.5 E40.67662
G1 X120.631 Y121.54 E40.70606
G1 X121.252 Y121.659 E40.73551
G1 X121.852 Y121.856 E40.76491
G1 X122.424 Y122.127 E40.79438
G1 X122.956 Y122.467 E40.82378
G1 X123.441 Y122.873 E40.85324
G1 X123.871 Y123.336 E40.88266
G1 X124.24 Y123.85 E40.91212
G1 X124.54 Y124.406 E40.94154
G1 X124.768 Y124.995 E40.97095
G1 X124.92 Y125.609 E41.0004
G1 X125 Y126.5 E41.04206
G1 X125 Y146.5 E41.97334
G1 X124.96 Y147.131 E42.00278
G1 X124.841 Y147.752 E42.03222
G1 X124.644 Y148.352 E42.06163
G1 X124.373 Y148.924 E42.0911
G1 X124.033 Y149.456 E42.1205
G1 X123.627 Y149.941 E42.14995
G1 X123.164 Y150.371 E42.17938
G1 X122.65 Y150.74 E42.20884
G1 X122.094 Y151.04 E42.23826
G1 X121.505 Y151.268 E42.26767
G1 X120.891 Y151.42 E42.29712
G1 X120 Y151.5 E42.33878
G1 X100 Y151.5 E43.27006
G1 X99.369 Y151.46 E43.2995
G1 X98.748 Y151.341 E43.32894
G1 X98.148 Y151.144 E43.35835
G1 X97.576 Y150.873 E43.38782
G1 X97.044 Y150.533 E43.41722
G1 X96.559 Y150.127 E43.44667
G1 X96.129 Y149.664 E43.4761
G1 X95.76 Y149.15 E43.50556
G1 X95.46 Y148.594 E43.53498
G1 X95.232 Y148.005 E43.56439
G1 X95.08 Y147.391 E43.59384
G1 X95 Y146.5 E43.6355
G1 X95 Y126.5 E44.56678
G1 X95.04 Y125.869 E44.59622
G1 X95.159 Y125.248 E44.62566
G1 X95.356 Y124.648 E44.65507
G1 X95.627 Y124.076 E44.68454
G1 X95.967 Y123.544 E44.71394
G1 X96.373 Y123.059 E44.74339
G1 X96.836 Y122.629 E44.77282
G0 F6000 X97.225 Y122.831
G1 F480 X97.732 Y122.498 E44.80106
G1 X98.278 Y122.234 E44.8293
G1 X98.854 Y122.045 E44.85753
G1 X99.45 Y121.933 E44.88577
G1 X100 Y121.9 E44.91142
G1 X120 Y121.9 E45.84271
G1 X120.605 Y121.94 E45.87094
G1 X121.199 Y122.059 E45.89915
G1 X121.773 Y122.255 E45.92739
G1 X122.316 Y122.526 E45.95565
G1 X122.819 Y122.865 E45.98389
G1 X123.272 Y123.267 E46.0121
G1 X123.669 Y123.725 E46.04032
G1 X124.002 Y124.232 E46.06856
G1 X124.266 Y124.778 E46.0968
G1 X124.455 Y125.354 E46.12503
G1 X124.567 Y125.95 E46.15327
G1 X124.6 Y126.5 E46.17893
G1 X124.6 Y146.5 E47.11021
G1 X124.56 Y147.105 E47.13844
G1 X124.441 Y147.699 E47.16665
G1 X124.245 Y148.273 E47.19489
G1 X123.974 Y148.816 E47.22315
G1 X123.635 Y149.319 E47.2514
G1 X123.233 Y149.772 E47.2796
G1 X122.775 Y150.169 E47.30782
G1 X122.268 Y150.502 E47.33607
