;FLAVOR:Marlin
;TIME:2156
;Filament used: 0.770409m
;Layer height: 0.2
;MINX:87.2
;MINY:87.2
;MINZ:0.2
;MAXX:132.799
;MAXY:132.799
;MAXZ:30.108
;Generated with Cura_SteamEngine 4.8.0
M140 S70
M105
M190 S70
M104 S200
M105
M109 S200
M82 ;absolute extrusion mode
; Ender 3 Custom Start G-code
G92 E0 ; Reset Extruder
G28 ; Home all axes
G1 Z2.0 F3000 ; Move Z Axis up little to prevent scratching of Heat Bed
G1 X0.1 Y20 Z0.3 F5000.0 ; Move to start position
G1 X0.1 Y200.0 Z0.3 F1500.0 E15 ; Draw the first line
G1 X0.4 Y200.0 Z0.3 F5000.0 ; Move to side a little
G1 X0.4 Y20 Z0.3 F1500.0 E30 ; Draw the second line
G92 E0 ; Reset Extruder
G1 Z2.0 F3000 ; Move Z Axis up little to prevent scratching of Heat Bed
G1 X5 Y20 Z0.3 F5000.0 ; Move over to prevent blob squish
G92 E0
G92 E0
G1 F1500 E-6.5
;LAYER_COUNT:150
;LAYER:0
M107
G0 F6000 X93.727 Y94.031 Z0.2
;TYPE:SKIRT
G1 F1500 E0
G1 F480 X94.086 Y93.673 E0.01686
G1 X94.45 Y93.326 E0.03359
G1 X94.704 Y93.092 E0.04508
G1 X94.87 Y92.944 E0.05247
G1 X95.254 Y92.612 E0.06936
G1 X95.634 Y92.297 E0.08577
G1 X95.902 Y92.082 E0.0972
G1 X96.074 Y91.948 E0.10445
G1 X96.47 Y91.65 E0.12094
G1 X96.749 Y91.447 E0.13241
G1 X97.18 Y91.146 E0.1499
G1 X97.621 Y90.853 E0.16751
G1 X97.802 Y90.737 E0.17466
G1 X98.236 Y90.47 E0.19161
G1 X98.656 Y90.224 E0.20779
G1 X99.142 Y89.951 E0.22633
G1 X99.447 Y89.789 E0.23782
G1 X99.918 Y89.551 E0.25537
G1 X100.374 Y89.332 E0.2722
G1 X100.556 Y89.248 E0.27886
G1 X101.025 Y89.041 E0.29592
G1 X101.342 Y88.908 E0.30735
G1 X101.831 Y88.714 E0.32485
G1 X102.316 Y88.534 E0.34205
G1 X102.825 Y88.359 E0.35996
G1 X103.317 Y88.202 E0.37713
G1 X103.82 Y88.054 E0.39457
G1 X104.006 Y88.002 E0.40099
G1 X104.499 Y87.874 E0.41794
G1 X104.835 Y87.793 E0.42943
G1 X105.349 Y87.68 E0.44694
G1 X105.87 Y87.578 E0.46459
G1 X106.053 Y87.545 E0.47078
G1 X106.552 Y87.463 E0.4876
G1 X107.094 Y87.386 E0.5058
G1 X107.595 Y87.328 E0.52258
G1 X108.121 Y87.278 E0.54015
G1 X108.466 Y87.252 E0.55166
G1 X108.991 Y87.223 E0.56915
G1 X109.171 Y87.215 E0.57514
G1 X109.516 Y87.205 E0.58662
G1 X110.042 Y87.2 E0.60412
G1 X110.568 Y87.207 E0.62161
G1 X110.748 Y87.212 E0.6276
G1 X111.093 Y87.226 E0.63909
G1 X111.619 Y87.258 E0.65661
G1 X111.796 Y87.271 E0.66252
G1 X112.141 Y87.301 E0.67403
G1 X112.643 Y87.354 E0.69082
G1 X112.852 Y87.379 E0.69782
G1 X113.345 Y87.447 E0.71438
G1 X113.687 Y87.5 E0.72589
G1 X114.231 Y87.597 E0.74427
G1 X114.73 Y87.697 E0.76119
G1 X114.891 Y87.731 E0.76667
G1 X115.227 Y87.807 E0.77812
G1 X115.759 Y87.94 E0.79636
G1 X115.933 Y87.986 E0.80235
G1 X116.423 Y88.124 E0.81928
G1 X116.752 Y88.223 E0.83071
G1 X116.943 Y88.283 E0.83737
G1 X117.414 Y88.44 E0.85388
G1 X117.739 Y88.554 E0.86534
G1 X117.925 Y88.622 E0.87192
G1 X118.417 Y88.811 E0.88945
G1 X118.914 Y89.015 E0.90732
G1 X119.359 Y89.21 E0.92348
G1 X119.672 Y89.353 E0.93493
G1 X119.865 Y89.445 E0.94204
G1 X120.32 Y89.669 E0.9589
G1 X120.626 Y89.827 E0.97036
G1 X121.089 Y90.078 E0.98788
G1 X121.267 Y90.178 E0.99467
G1 X121.565 Y90.351 E1.00613
G1 X122.007 Y90.619 E1.02332
G1 X122.42 Y90.88 E1.03957
G1 X122.593 Y90.993 E1.04644
G1 X122.878 Y91.185 E1.05787
G1 X123.047 Y91.302 E1.06471
G1 X123.431 Y91.577 E1.08042
G1 X123.709 Y91.782 E1.0919
G1 X123.875 Y91.908 E1.09884
G1 X124.285 Y92.23 E1.11618
G1 X124.552 Y92.448 E1.12764
G1 X124.955 Y92.791 E1.14524
G1 X125.108 Y92.925 E1.15201
G1 X125.471 Y93.254 E1.1683
G1 X125.723 Y93.49 E1.17978
G1 X126.108 Y93.866 E1.19768
G1 X126.243 Y94.002 E1.20406
G1 X126.581 Y94.353 E1.22026
G1 X126.817 Y94.606 E1.23177
G1 X126.968 Y94.772 E1.23923
G1 X127.196 Y95.031 E1.25071
G1 X127.523 Y95.417 E1.26754
G1 X127.842 Y95.808 E1.28432
G1 X127.968 Y95.968 E1.29109
G1 X128.261 Y96.351 E1.30713
G1 X128.466 Y96.628 E1.3186
G1 X128.59 Y96.801 E1.32567
G1 X128.89 Y97.234 E1.3432
G1 X129.171 Y97.66 E1.36017
G1 X129.355 Y97.95 E1.37159
G1 X129.459 Y98.119 E1.37819
G1 X129.637 Y98.416 E1.38971
G1 X129.903 Y98.881 E1.40753
G1 X130.149 Y99.334 E1.42467
G1 X130.225 Y99.478 E1.43009
G1 X130.464 Y99.949 E1.44765
G1 X130.614 Y100.26 E1.45914
G1 X130.826 Y100.721 E1.47601
G1 X130.914 Y100.922 E1.48331
G1 X131.103 Y101.372 E1.49955
G1 X131.232 Y101.693 E1.51105
G1 X131.314 Y101.905 E1.51861
G1 X131.477 Y102.35 E1.53437
G1 X131.591 Y102.676 E1.54586
G1 X131.661 Y102.886 E1.55322
G1 X131.812 Y103.367 E1.56999
G1 X131.959 Y103.871 E1.58745
G1 X132.092 Y104.368 E1.60457
G1 X132.175 Y104.703 E1.61604
G1 X132.221 Y104.901 E1.62281
G1 X132.327 Y105.385 E1.63928
G1 X132.395 Y105.725 E1.65082
G1 X132.432 Y105.925 E1.65758
G1 X132.515 Y106.413 E1.67405
G1 X132.567 Y106.752 E1.68545
G1 X132.639 Y107.308 E1.7041
G1 X132.658 Y107.466 E1.70939
G1 X132.694 Y107.81 E1.7209
G1 X132.738 Y108.33 E1.73825
G1 X132.751 Y108.515 E1.74442
G1 X132.771 Y108.861 E1.75595
G1 X132.791 Y109.385 E1.77339
G1 X132.799 Y109.909 E1.79082
G1 X132.795 Y110.436 E1.80835
G1 X132.791 Y110.616 E1.81434
G1 X132.771 Y111.146 E1.83198
G1 X132.751 Y111.489 E1.84341
G1 X132.71 Y112.012 E1.86085
G1 X132.694 Y112.191 E1.86683
G1 X132.658 Y112.535 E1.87834
G1 X132.596 Y113.038 E1.89519
G1 X132.516 Y113.579 E1.91338
G1 X132.431 Y114.081 E1.93032
G1 X132.397 Y114.264 E1.93651
G1 X132.294 Y114.775 E1.95384
G1 X132.219 Y115.113 E1.96536
G1 X132.171 Y115.315 E1.97227
G1 X132.052 Y115.784 E1.98836
G1 X131.91 Y116.304 E2.00629
G1 X131.766 Y116.786 E2.02302
G1 X131.661 Y117.116 E2.03454
G1 X131.588 Y117.333 E2.04215
G1 X131.431 Y117.778 E2.05785
G1 X131.311 Y118.103 E2.06937
G1 X131.236 Y118.298 E2.07632
G1 X131.046 Y118.769 E2.09321
G1 X130.911 Y119.087 E2.1047
G1 X130.83 Y119.272 E2.11142
G1 X130.618 Y119.733 E2.12829
G1 X130.468 Y120.045 E2.13981
G1 X130.226 Y120.523 E2.15763
G1 X129.982 Y120.979 E2.17483
G1 X129.728 Y121.43 E2.19205
G1 X129.451 Y121.894 E2.21002
G1 X129.358 Y122.045 E2.21592
G1 X129.084 Y122.474 E2.23285
G1 X128.787 Y122.918 E2.25061
G1 X128.482 Y123.351 E2.26823
G1 X128.182 Y123.757 E2.28502
G1 X127.972 Y124.031 E2.2965
G1 X127.845 Y124.192 E2.30332
G1 X127.629 Y124.459 E2.31475
G1 X127.286 Y124.866 E2.33245
G1 X127.174 Y124.996 E2.33816
G1 X126.827 Y125.384 E2.35547
G1 X126.482 Y125.753 E2.37227
G1 X126.241 Y126.002 E2.3838
G1 X126.095 Y126.149 E2.39069
G1 X125.848 Y126.391 E2.40219
G1 X125.481 Y126.737 E2.41896
G1 X125.342 Y126.865 E2.42525
G1 X124.939 Y127.223 E2.44318
G1 X124.549 Y127.553 E2.46017
G1 X124.283 Y127.77 E2.47159
G1 X123.879 Y128.087 E2.48867
G1 X123.718 Y128.21 E2.49541
G1 X123.441 Y128.415 E2.50687
G1 X123.028 Y128.709 E2.52373
G1 X122.601 Y129 E2.54092
G1 X122.434 Y129.11 E2.54757
G1 X122.143 Y129.296 E2.55905
G1 X121.693 Y129.571 E2.57659
G1 X121.563 Y129.649 E2.58164
G1 X121.265 Y129.822 E2.5931
G1 X120.804 Y130.077 E2.61062
G1 X120.607 Y130.182 E2.61804
G1 X120.173 Y130.403 E2.63424
G1 X119.863 Y130.555 E2.64573
G1 X119.68 Y130.642 E2.65247
G1 X119.218 Y130.852 E2.66934
G1 X118.902 Y130.989 E2.6808
G1 X118.415 Y131.189 E2.69831
G1 X117.932 Y131.375 E2.71553
G1 X117.731 Y131.449 E2.72265
G1 X117.269 Y131.609 E2.73891
G1 X116.941 Y131.717 E2.7504
G1 X116.447 Y131.869 E2.76759
G1 X116.233 Y131.932 E2.77501
G1 X115.901 Y132.023 E2.78646
G1 X115.422 Y132.145 E2.8029
G1 X115.208 Y132.197 E2.81022
G1 X114.746 Y132.299 E2.82596
G1 X114.407 Y132.369 E2.83747
G1 X113.889 Y132.465 E2.85499
G1 X113.685 Y132.5 E2.86188
G1 X113.191 Y132.575 E2.8785
G1 X112.85 Y132.621 E2.88994
G1 X112.641 Y132.646 E2.89694
G1 X112.139 Y132.699 E2.91373
G1 X111.794 Y132.729 E2.92525
G1 X111.274 Y132.764 E2.94258
G1 X111.091 Y132.774 E2.94868
G1 X110.746 Y132.788 E2.96016
G1 X110.221 Y132.799 E2.97763
G1 X109.695 Y132.798 E2.99512
G1 X109.514 Y132.795 E3.00114
G1 X109.169 Y132.785 E3.01262
G1 X108.644 Y132.759 E3.03011
G1 X108.466 Y132.748 E3.03604
G1 X107.935 Y132.706 E3.05375
G1 X107.43 Y132.654 E3.07064
G1 X107.089 Y132.613 E3.08206
G1 X106.892 Y132.587 E3.08867
G1 X106.392 Y132.512 E3.10549
G1 X106.051 Y132.455 E3.11699
G1 X105.529 Y132.357 E3.13465
G1 X105.347 Y132.32 E3.14083
G1 X104.833 Y132.207 E3.15833
G1 X104.497 Y132.126 E3.16983
G1 X103.987 Y131.992 E3.18737
G1 X103.832 Y131.95 E3.19271
G1 X103.502 Y131.855 E3.20413
G1 X102.985 Y131.694 E3.22214
G1 X102.484 Y131.525 E3.23973
G1 X102.33 Y131.471 E3.24515
G1 X101.829 Y131.286 E3.26292
G1 X101.508 Y131.16 E3.27439
G1 X101.037 Y130.965 E3.29134
G1 X100.852 Y130.885 E3.29805
G1 X100.372 Y130.668 E3.31557
G1 X99.916 Y130.449 E3.33239
G1 X99.445 Y130.211 E3.34994
G1 X99.14 Y130.049 E3.36143
G1 X98.654 Y129.776 E3.37997
G1 X98.218 Y129.519 E3.3968
G1 X97.8 Y129.262 E3.41312
G1 X97.624 Y129.15 E3.42006
G1 X97.335 Y128.96 E3.43156
G1 X96.906 Y128.666 E3.44886
G1 X96.468 Y128.35 E3.46683
G1 X96.062 Y128.044 E3.48374
G1 X95.653 Y127.721 E3.50107
G1 X95.238 Y127.376 E3.51902
G1 X95.104 Y127.262 E3.52487
G1 X94.844 Y127.034 E3.53637
G1 X94.46 Y126.684 E3.55365
G1 X94.083 Y126.324 E3.57099
G1 X93.957 Y126.201 E3.57685
G1 X93.713 Y125.956 E3.58835
G1 X93.579 Y125.818 E3.59475
G1 X93.223 Y125.44 E3.61202
G1 X92.991 Y125.184 E3.62351
G1 X92.863 Y125.039 E3.62994
G1 X92.535 Y124.656 E3.64671
G1 X92.204 Y124.253 E3.66406
G1 X91.99 Y123.982 E3.67554
G1 X91.665 Y123.552 E3.69347
G1 X91.36 Y123.129 E3.71081
G1 X91.062 Y122.695 E3.72832
G1 X90.777 Y122.259 E3.74565
G1 X90.499 Y121.811 E3.76319
G1 X90.24 Y121.374 E3.78008
G1 X90.14 Y121.199 E3.78679
G1 X89.906 Y120.773 E3.80295
G1 X89.745 Y120.469 E3.81439
G1 X89.639 Y120.261 E3.82216
G1 X89.42 Y119.813 E3.83874
G1 X89.274 Y119.501 E3.8502
G1 X89.192 Y119.319 E3.85684
G1 X88.996 Y118.867 E3.87323
G1 X88.864 Y118.549 E3.88468
G1 X88.789 Y118.362 E3.89138
G1 X88.61 Y117.892 E3.90811
G1 X88.492 Y117.566 E3.91964
G1 X88.422 Y117.364 E3.92675
G1 X88.266 Y116.888 E3.94341
G1 X88.111 Y116.38 E3.96107
G1 X87.974 Y115.889 E3.97803
G1 X87.887 Y115.555 E3.98951
G1 X87.837 Y115.353 E3.99643
G1 X87.759 Y115.017 E4.0079
G1 X87.653 Y114.518 E4.02487
G1 X87.557 Y114.018 E4.0418
G1 X87.522 Y113.821 E4.04846
G1 X87.467 Y113.481 E4.05991
G1 X87.439 Y113.294 E4.0662
G1 X87.373 Y112.798 E4.08284
G1 X87.333 Y112.456 E4.0943
G1 X87.282 Y111.928 E4.11194
G1 X87.267 Y111.749 E4.11791
G1 X87.232 Y111.223 E4.13545
G1 X87.216 Y110.878 E4.14693
G1 X87.202 Y110.353 E4.1644
G1 X87.2 Y109.826 E4.18193
G1 X87.202 Y109.645 E4.18795
G1 X87.216 Y109.12 E4.20542
G1 X87.232 Y108.775 E4.21691
G1 X87.267 Y108.249 E4.23444
G1 X87.281 Y108.073 E4.24031
G1 X87.313 Y107.728 E4.25184
G1 X87.373 Y107.202 E4.26944
G1 X87.44 Y106.701 E4.28626
G1 X87.467 Y106.517 E4.29244
G1 X87.522 Y106.177 E4.3039
G1 X87.621 Y105.64 E4.32206
G1 X87.717 Y105.167 E4.33811
G1 X87.764 Y104.954 E4.34537
G1 X87.843 Y104.619 E4.35681
G1 X87.974 Y104.109 E4.37433
G1 X88.113 Y103.613 E4.39146
G1 X88.264 Y103.116 E4.40874
G1 X88.318 Y102.946 E4.41467
G1 X88.427 Y102.619 E4.42613
G1 X88.605 Y102.119 E4.44378
G1 X88.789 Y101.636 E4.46098
G1 X88.993 Y101.138 E4.47888
G1 X89.061 Y100.977 E4.48469
G1 X89.201 Y100.659 E4.49624
G1 X89.416 Y100.195 E4.51325
G1 X89.644 Y99.729 E4.53051
G1 X89.745 Y99.53 E4.53793
G1 X89.968 Y99.112 E4.55369
G1 X90.135 Y98.809 E4.5652
G1 X90.236 Y98.631 E4.572
G1 X90.508 Y98.171 E4.58978
G1 X90.77 Y97.75 E4.60627
G1 X90.958 Y97.459 E4.61779
G1 X91.252 Y97.024 E4.63525
G1 X91.37 Y96.855 E4.64211
G1 X91.657 Y96.458 E4.6584
G1 X91.864 Y96.181 E4.66991
G1 X91.988 Y96.019 E4.67669
G1 X92.201 Y95.749 E4.68813
G1 X92.537 Y95.34 E4.70573
G1 X92.661 Y95.194 E4.7121
G1 X92.888 Y94.933 E4.72361
G1 X93.236 Y94.548 E4.74087
G1 X93.571 Y94.191 E4.75715
G1 X93.727 Y94.031 E4.76459
G0 F6000 X94.009 Y94.313
G1 F480 X94.254 Y94.068 E4.77611
G1 X94.611 Y93.724 E4.7926
G1 X94.975 Y93.387 E4.8091
G1 X95.133 Y93.245 E4.81616
G1 X95.394 Y93.018 E4.82767
G1 X95.776 Y92.698 E4.84424
G1 X96.152 Y92.394 E4.86032
G1 X96.592 Y92.058 E4.87874
G1 X96.705 Y91.973 E4.88344
G1 X96.984 Y91.77 E4.89492
G1 X97.408 Y91.475 E4.9121
G1 X97.551 Y91.378 E4.91784
G1 X98.012 Y91.077 E4.93616
G1 X98.44 Y90.814 E4.95286
G1 X98.853 Y90.572 E4.96879
G1 X99.153 Y90.402 E4.98025
G1 X99.33 Y90.305 E4.98697
G1 X99.788 Y90.064 E5.00418
G1 X100.235 Y89.841 E5.02079
G1 X100.546 Y89.693 E5.03225
G1 X101.036 Y89.473 E5.05012
G1 X101.18 Y89.41 E5.05534
G1 X101.497 Y89.277 E5.06678
G1 X101.977 Y89.087 E5.08395
G1 X102.454 Y88.91 E5.10087
G1 X102.626 Y88.849 E5.10694
G1 X103.108 Y88.687 E5.12385
G1 X103.438 Y88.583 E5.13536
G1 X103.932 Y88.438 E5.15248
G1 X104.108 Y88.389 E5.15856
G1 X104.593 Y88.263 E5.17523
G1 X104.929 Y88.182 E5.18672
G1 X105.433 Y88.071 E5.20389
G1 X105.607 Y88.035 E5.2098
G1 X106.119 Y87.939 E5.22712
G1 X106.46 Y87.882 E5.23862
G1 X106.952 Y87.809 E5.25516
G1 X107.141 Y87.784 E5.26151
G1 X107.634 Y87.726 E5.27802
G1 X107.977 Y87.692 E5.28948
G1 X108.496 Y87.651 E5.3068
G1 X108.666 Y87.64 E5.31246
G1 X109.183 Y87.615 E5.32968
G1 X109.699 Y87.602 E5.34685
G1 X110.044 Y87.6 E5.35832
G1 X110.561 Y87.607 E5.37552
G1 X111.077 Y87.626 E5.39269
G1 X111.251 Y87.635 E5.39849
G1 X111.594 Y87.657 E5.40992
G1 X112.106 Y87.7 E5.42701
G1 X112.256 Y87.714 E5.43202
G1 X112.6 Y87.751 E5.44352
G1 X112.798 Y87.775 E5.45016
G1 X113.283 Y87.842 E5.46644
G1 X113.625 Y87.895 E5.47795
G1 X113.82 Y87.928 E5.48453
G1 X114.16 Y87.99 E5.49603
G1 X114.803 Y88.121 E5.51785
G1 X115.139 Y88.197 E5.52931
G1 X115.326 Y88.242 E5.53571
G1 X115.826 Y88.371 E5.55288
G1 X116.307 Y88.507 E5.56951
G1 X116.818 Y88.663 E5.58728
G1 X117.281 Y88.817 E5.60351
G1 X117.606 Y88.931 E5.61496
G1 X118.107 Y89.119 E5.63276
G1 X118.266 Y89.181 E5.63844
G1 X118.586 Y89.311 E5.64992
G1 X118.755 Y89.382 E5.65602
G1 X119.193 Y89.574 E5.67193
G1 X119.506 Y89.717 E5.68337
G1 X119.689 Y89.804 E5.69011
G1 X120.136 Y90.025 E5.7067
G1 X120.593 Y90.263 E5.72383
G1 X120.897 Y90.429 E5.73535
G1 X121.066 Y90.524 E5.7418
G1 X121.503 Y90.78 E5.75865
G1 X121.914 Y91.032 E5.77468
G1 X122.205 Y91.217 E5.78615
G1 X122.37 Y91.325 E5.79271
G1 X122.655 Y91.517 E5.80414
G1 X122.815 Y91.628 E5.81062
G1 X123.194 Y91.899 E5.82611
G1 X123.472 Y92.104 E5.8376
G1 X123.629 Y92.223 E5.84415
G1 X123.901 Y92.435 E5.85562
G1 X124.299 Y92.758 E5.87267
G1 X124.431 Y92.868 E5.87839
G1 X124.695 Y93.094 E5.88995
G1 X125.096 Y93.453 E5.90785
G1 X125.449 Y93.782 E5.9239
G1 X125.581 Y93.908 E5.92997
G1 X125.828 Y94.151 E5.94149
G1 X125.956 Y94.28 E5.94754
G1 X126.288 Y94.625 E5.96346
G1 X126.524 Y94.878 E5.97497
G1 X126.667 Y95.036 E5.98206
G1 X126.996 Y95.412 E5.99867
G1 X127.314 Y95.791 E6.01513
G1 X127.531 Y96.059 E6.0266
G1 X127.651 Y96.211 E6.03304
G1 X127.939 Y96.589 E6.04884
G1 X128.144 Y96.866 E6.06031
G1 X128.262 Y97.03 E6.06703
G1 X128.557 Y97.455 E6.08423
G1 X128.833 Y97.874 E6.10092
G1 X129.017 Y98.164 E6.11234
G1 X129.294 Y98.622 E6.13015
G1 X129.385 Y98.778 E6.13615
G1 X129.634 Y99.22 E6.15303
G1 X129.869 Y99.66 E6.16962
G1 X130.027 Y99.969 E6.18116
G1 X130.253 Y100.434 E6.19836
G1 X130.462 Y100.887 E6.21495
G1 X130.546 Y101.078 E6.22189
G1 X130.732 Y101.522 E6.2379
G1 X130.861 Y101.843 E6.24941
G1 X130.939 Y102.044 E6.25658
G1 X131.099 Y102.482 E6.27209
G1 X131.213 Y102.808 E6.28357
G1 X131.28 Y103.007 E6.29056
G1 X131.429 Y103.48 E6.30705
G1 X131.527 Y103.811 E6.31853
G1 X131.663 Y104.308 E6.33567
G1 X131.704 Y104.464 E6.34104
G1 X131.787 Y104.799 E6.35251
G1 X131.831 Y104.987 E6.35894
G1 X131.934 Y105.464 E6.37517
G1 X132.038 Y105.993 E6.3931
G1 X132.097 Y106.334 E6.40461
G1 X132.171 Y106.813 E6.42073
G1 X132.2 Y107.015 E6.42752
G1 X132.26 Y107.508 E6.44404
G1 X132.296 Y107.852 E6.45554
G1 X132.339 Y108.363 E6.4726
G1 X132.352 Y108.538 E6.47843
G1 X132.38 Y109.054 E6.49562
G1 X132.392 Y109.399 E6.5071
G1 X132.399 Y109.914 E6.52423
G1 X132.4 Y110.086 E6.52995
G1 X132.392 Y110.602 E6.54712
G1 X132.38 Y110.948 E6.55863
G1 X132.351 Y111.466 E6.57589
G1 X132.34 Y111.635 E6.58152
G1 X132.312 Y111.979 E6.593
G1 X132.26 Y112.493 E6.61018
G1 X132.199 Y112.988 E6.62677
G1 X132.173 Y113.177 E6.63312
G1 X132.096 Y113.672 E6.64978
G1 X132.005 Y114.186 E6.66714
G1 X131.938 Y114.524 E6.6786
G1 X131.828 Y115.026 E6.69569
G1 X131.783 Y115.218 E6.70225
G1 X131.666 Y115.68 E6.7181
G1 X131.527 Y116.191 E6.73572
G1 X131.385 Y116.665 E6.75217
G1 X131.28 Y116.995 E6.76369
G1 X131.211 Y117.2 E6.77089
G1 X131.056 Y117.639 E6.78637
