;FLAVOR:Marlin
;TIME:5830
;Filament used: 2.1742m
;Layer height: 0.2
;MINX:76.634
;MINY:94.069
;MINZ:0.2
;MAXX:143.363
;MAXY:125.93
;MAXZ:75.6
;POSTPROCESSED
;Generated with Cura_SteamEngine 4.8.0
M140 S70
M105
M190 S70
M104 S200
M105
M109 S200
M82 ;absolute extrusion mode
; Ender 3 Custom Start G-code
G92 E0 ; Reset Extruder
G28 ; Home all axes
G1 Z2.0 F3000 ; Move Z Axis up little to prevent scratching of Heat Bed
G1 X0.1 Y20 Z0.3 F5000.0 ; Move to start position
G1 X0.1 Y200.0 Z0.3 F1500.0 E15 ; Draw the first line
G1 X0.4 Y200.0 Z0.3 F5000.0 ; Move to side a little
G1 X0.4 Y20 Z0.3 F1500.0 E30 ; Draw the second line
G92 E0 ; Reset Extruder
G1 Z2.0 F3000 ; Move Z Axis up little to prevent scratching of Heat Bed
G1 X5 Y20 Z0.3 F5000.0 ; Move over to prevent blob squish
G92 E0
G92 E0
G1 F1500 E-6.5
;LAYER_COUNT:378
;LAYER:0
M107
G0 F6000 X80.532 Y96.734 Z0.2
;TYPE:SKIRT
G1 F1500 E0
G1 F480 X81.273 Y96.159 E0.02683
G1 X82.06 Y95.649 E0.05365
G1 X82.888 Y95.208 E0.08049
G1 X83.75 Y94.839 E0.10731
G1 X84.251 Y94.663 E0.1225
G1 X84.396 Y94.616 E0.12686
G1 X85.3 Y94.365 E0.15369
G1 X86.222 Y94.192 E0.18052
G1 X87.621 Y94.081 E0.22067
G1 X88.514 Y94.069 E0.24621
G1 X131.718 Y94.071 E1.48201
G1 X132.417 Y94.081 E1.502
G1 X133.354 Y94.135 E1.52885
G1 X134.282 Y94.267 E1.55566
G1 X135.196 Y94.479 E1.5825
G1 X136.088 Y94.768 E1.60932
G1 X136.953 Y95.131 E1.63615
G1 X137.783 Y95.567 E1.66297
G1 X138.573 Y96.072 E1.68979
G1 X139.318 Y96.643 E1.71664
G1 X140.011 Y97.275 E1.74347
G1 X140.648 Y97.963 E1.77028
G1 X141.01 Y98.414 E1.78683
G1 X141.09 Y98.519 E1.7906
G1 X141.626 Y99.288 E1.81741
G1 X142.094 Y100.101 E1.84425
G1 X142.492 Y100.95 E1.87107
G1 X142.816 Y101.83 E1.89789
G1 X143.064 Y102.735 E1.92473
G1 X143.233 Y103.657 E1.95154
G1 X143.337 Y104.949 E1.98862
G1 X143.36 Y106.023 E2.01935
G1 X143.363 Y106.26 E2.02613
G1 X143.361 Y114.224 E2.25393
G1 X143.351 Y114.939 E2.27438
G1 X143.298 Y115.875 E2.3012
G1 X143.165 Y116.804 E2.32804
G1 X142.954 Y117.717 E2.35484
G1 X142.666 Y118.61 E2.38168
G1 X142.302 Y119.475 E2.40852
G1 X141.867 Y120.305 E2.43533
G1 X141.364 Y121.093 E2.46207
G1 X141.273 Y121.223 E2.46661
G1 X140.702 Y121.968 E2.49346
G1 X140.071 Y122.661 E2.52027
G1 X139.383 Y123.298 E2.54708
G1 X138.643 Y123.875 E2.57393
G1 X137.856 Y124.386 E2.60077
G1 X137.029 Y124.828 E2.62759
G1 X136.168 Y125.198 E2.65439
G1 X135.277 Y125.493 E2.68124
G1 X134.365 Y125.712 E2.70807
G1 X133.438 Y125.852 E2.73488
G1 X132.452 Y125.913 E2.76314
G1 X131.399 Y125.93 E2.79326
G1 X88.325 Y125.93 E4.02534
G1 X87.616 Y125.919 E4.04562
G1 X86.68 Y125.864 E4.07244
G1 X85.752 Y125.73 E4.09926
G1 X84.838 Y125.517 E4.12611
G1 X83.581 Y125.084 E4.16414
G1 X83.436 Y125.024 E4.16862
G1 X82.586 Y124.629 E4.19543
G1 X81.772 Y124.163 E4.22226
G1 X81.001 Y123.629 E4.24909
G1 X80.278 Y123.031 E4.27593
G1 X79.609 Y122.374 E4.30275
G1 X78.998 Y121.663 E4.32956
G1 X78.45 Y120.902 E4.35639
G1 X77.968 Y120.097 E4.38322
G1 X77.558 Y119.254 E4.41004
G1 X77.22 Y118.379 E4.43687
G1 X76.958 Y117.478 E4.46371
G1 X76.774 Y116.558 E4.49054
G1 X76.669 Y115.626 E4.51737
G1 X76.646 Y115.153 E4.53092
G1 X76.638 Y114.853 E4.5395
G1 X76.634 Y114.561 E4.54785
G1 X76.634 Y105.628 E4.80337
G1 X76.644 Y104.962 E4.82242
G1 X76.698 Y104.026 E4.84924
G1 X76.832 Y103.097 E4.87609
G1 X77.044 Y102.184 E4.9029
G1 X77.333 Y101.292 E4.92972
G1 X77.698 Y100.427 E4.95657
G1 X78.134 Y99.597 E4.98339
G1 X78.64 Y98.807 E5.01023
G1 X79.211 Y98.063 E5.03705
G1 X79.843 Y97.371 E5.06386
G1 X80.532 Y96.734 E5.0907
G0 F6000 X80.921 Y96.931
G1 F480 X81.657 Y96.379 E5.11701
G1 X82.439 Y95.893 E5.14335
G1 X83.26 Y95.476 E5.16969
G1 X84.375 Y95.043 E5.2039
G1 X84.52 Y94.996 E5.20826
G1 X85.407 Y94.751 E5.23459
G1 X86.312 Y94.583 E5.26091
G1 X87.627 Y94.481 E5.29864
G1 X88.514 Y94.469 E5.32401
G1 X131.713 Y94.471 E6.55967
G1 X132.412 Y94.481 E6.57966
G1 X133.331 Y94.534 E6.60599
G1 X134.242 Y94.667 E6.63233
G1 X135.138 Y94.878 E6.65866
G1 X136.012 Y95.166 E6.68498
G1 X136.858 Y95.529 E6.71131
G1 X137.67 Y95.964 E6.73766
G1 X138.44 Y96.468 E6.76398
G1 X139.164 Y97.037 E6.79032
G1 X139.836 Y97.666 E6.81665
G1 X140.692 Y98.656 E6.85409
G1 X140.772 Y98.761 E6.85786
G1 X141.297 Y99.517 E6.88419
G1 X141.755 Y100.315 E6.91051
G1 X142.142 Y101.151 E6.93686
G1 X142.455 Y102.017 E6.9632
G1 X142.692 Y102.906 E6.98951
G1 X142.851 Y103.813 E7.01585
G1 X142.938 Y104.958 E7.0487
G1 X142.961 Y106.032 E7.07943
G1 X142.963 Y106.26 E7.08595
G1 X142.961 Y114.218 E7.31358
G1 X142.951 Y114.933 E7.33403
G1 X142.898 Y115.852 E7.36036
G1 X142.766 Y116.763 E7.38669
G1 X142.555 Y117.66 E7.41305
G1 X142.267 Y118.534 E7.43937
G1 X141.904 Y119.38 E7.4657
G1 X141.469 Y120.192 E7.49205
G1 X141.036 Y120.864 E7.51492
G1 X140.945 Y120.994 E7.51946
G1 X140.385 Y121.724 E7.54577
G1 X139.763 Y122.404 E7.57213
G1 X139.085 Y123.026 E7.59845
G1 X138.355 Y123.588 E7.6248
G1 X137.58 Y124.084 E7.65112
G1 X136.764 Y124.511 E7.67747
G1 X135.915 Y124.865 E7.70378
G1 X135.037 Y125.145 E7.73014
G1 X134.139 Y125.347 E7.75647
G1 X133.227 Y125.471 E7.78279
G1 X132.445 Y125.513 E7.80519
G1 X131.399 Y125.53 E7.83512
G1 X88.332 Y125.53 E9.06699
G1 X87.623 Y125.519 E9.08728
G1 X86.704 Y125.464 E9.11361
G1 X85.793 Y125.331 E9.13994
G1 X84.897 Y125.118 E9.16629
G1 X83.734 Y124.715 E9.20149
G1 X83.589 Y124.655 E9.20598
G1 X82.754 Y124.266 E9.23233
G1 X81.957 Y123.806 E9.25865
G1 X81.202 Y123.279 E9.28499
G1 X80.496 Y122.689 E9.31131
G1 X79.843 Y122.039 E9.33766
G1 X79.25 Y121.335 E9.36399
G1 X78.719 Y120.583 E9.39032
G1 X78.257 Y119.787 E9.41665
G1 X77.864 Y118.954 E9.44299
G1 X77.546 Y118.09 E9.46933
G1 X77.304 Y117.202 E9.49565
G1 X77.14 Y116.296 E9.52199
G1 X77.046 Y115.143 E9.55508
G1 X77.038 Y114.843 E9.56366
G1 X77.034 Y114.561 E9.57173
G1 X77.034 Y105.634 E9.82708
G1 X77.044 Y104.968 E9.84613
G1 X77.098 Y104.049 E9.87246
G1 X77.231 Y103.138 E9.89879
G1 X77.443 Y102.242 E9.92513
G1 X77.732 Y101.368 E9.95146
G1 X78.096 Y100.522 E9.97781
G1 X78.531 Y99.711 E10.00413
G1 X79.036 Y98.941 E10.03047
G1 X79.605 Y98.217 E10.05681
G1 X80.235 Y97.546 E10.08313
G1 X80.921 Y96.931 E10.10949
G0 F6000 X81.308 Y97.133
G1 F480 X82.04 Y96.604 E10.13532
G1 X82.816 Y96.141 E10.16117
G1 X83.63 Y95.75 E10.187
G1 X84.498 Y95.424 E10.21352
G1 X84.643 Y95.377 E10.21788
G1 X85.513 Y95.137 E10.24369
G1 X86.402 Y94.975 E10.26954
G1 X87.633 Y94.881 E10.30486
G1 X88.514 Y94.869 E10.33006
G1 X131.707 Y94.871 E11.56554
G1 X132.406 Y94.881 E11.58553
G1 X133.307 Y94.934 E11.61135
G1 X134.201 Y95.066 E11.6372
G1 X135.079 Y95.277 E11.66303
G1 X135.935 Y95.565 E11.68886
G1 X136.762 Y95.927 E11.71468
G1 X137.554 Y96.361 E11.74052
G1 X138.305 Y96.864 E11.76637
G1 X139.008 Y97.431 E11.79221
G1 X139.658 Y98.058 E11.81804
G1 X140.373 Y98.898 E11.84959
G1 X140.453 Y99.003 E11.85337
G1 X140.968 Y99.745 E11.8792
G1 X141.416 Y100.53 E11.90505
G1 X141.792 Y101.351 E11.93088
G1 X142.094 Y102.202 E11.95671
G1 X142.32 Y103.076 E11.98254
G1 X142.467 Y103.967 E12.00837
G1 X142.538 Y104.967 E12.03704
G1 X142.561 Y106.041 E12.06777
G1 X142.563 Y106.26 E12.07403
G1 X142.561 Y114.213 E12.30152
G1 X142.551 Y114.928 E12.32197
G1 X142.498 Y115.829 E12.34779
G1 X142.366 Y116.723 E12.37364
G1 X142.156 Y117.601 E12.39946
G1 X141.868 Y118.457 E12.42529
G1 X141.506 Y119.284 E12.45112
G1 X141.072 Y120.076 E12.47695
G1 X140.708 Y120.634 E12.496
G1 X140.617 Y120.764 E12.50054
G1 X140.067 Y121.481 E12.52639
G1 X139.456 Y122.145 E12.5522
G1 X138.788 Y122.753 E12.57804
G1 X138.069 Y123.3 E12.60388
G1 X137.305 Y123.781 E12.6297
G1 X136.501 Y124.192 E12.65553
G1 X135.663 Y124.531 E12.68139
G1 X134.8 Y124.794 E12.70719
G1 X133.916 Y124.98 E12.73303
G1 X133.019 Y125.087 E12.75887
G1 X132.438 Y125.113 E12.77551
G1 X131.399 Y125.13 E12.80523
G1 X88.338 Y125.13 E14.03694
G1 X87.629 Y125.119 E14.05722
G1 X86.727 Y125.065 E14.08307
G1 X85.834 Y124.931 E14.10889
G1 X84.956 Y124.719 E14.13473
G1 X83.887 Y124.345 E14.16713
G1 X83.742 Y124.285 E14.17161
G1 X82.924 Y123.903 E14.19744
G1 X82.142 Y123.45 E14.22329
G1 X81.404 Y122.93 E14.24911
G1 X80.715 Y122.347 E14.27493
G1 X80.08 Y121.705 E14.30076
G1 X79.504 Y121.009 E14.3266
G1 X78.992 Y120.265 E14.35243
G1 X78.548 Y119.479 E14.37825
G1 X78.175 Y118.656 E14.4041
G1 X77.876 Y117.804 E14.42993
G1 X77.654 Y116.928 E14.45577
G1 X77.51 Y116.037 E14.48159
G1 X77.446 Y115.132 E14.50754
G1 X77.438 Y114.832 E14.51613
G1 X77.434 Y114.561 E14.52388
G1 X77.434 Y105.64 E14.77905
G1 X77.444 Y104.974 E14.79811
G1 X77.498 Y104.072 E14.82395
G1 X77.631 Y103.179 E14.84978
G1 X77.842 Y102.301 E14.87561
G1 X78.131 Y101.445 E14.90145
G1 X78.494 Y100.618 E14.92728
G1 X78.928 Y99.827 E14.95309
G1 X79.431 Y99.077 E14.97892
G1 X79.999 Y98.374 E15.00477
G1 X80.626 Y97.724 E15.0306
G1 X81.308 Y97.133 E15.05642
G1 F1500 E8.55642
;MESH:PLATempTower
G0 F6000 X87.684 Y104.405
G0 X88.047 Y105.483
G0 X88.233 Y114.331
;TYPE:WALL-INNER
G1 F1500 E15.05642
G1 F480 X88.233 Y114.132 E15.06211
G1 X88.233 Y105.868 E15.29849
G1 X88.233 Y105.669 E15.30418
G1 X88.432 Y105.669 E15.30787
G1 X131.564 Y105.67 E16.5416
G1 X131.763 Y105.67 E16.54729
G1 X131.763 Y105.869 E16.55098
G1 X131.762 Y114.33 E16.79299
G1 X88.432 Y114.331 E18.03239
G1 X88.233 Y114.331 E18.03607
G0 F6000 X87.833 Y114.731
;TYPE:WALL-OUTER
G1 F480 X87.833 Y105.269 E18.30672
G1 X132.163 Y105.27 E19.57473
G1 X132.162 Y114.73 E19.84532
G1 X87.833 Y114.731 E21.11329
G0 F6000 X88.103 Y114.461
G0 X88.343 Y113.941
G0 X88.623 Y113.941
;TYPE:SKIN
G1 F480 X88.623 Y106.059 E21.33875
G1 X131.373 Y106.06 E22.56155
G1 X131.372 Y113.94 E22.78695
G1 X88.623 Y113.941 E24.00973
G0 F6000 X88.889 Y113.779
G1 F480 X88.782 Y113.673 E24.01404
G0 F6000 X88.782 Y113.107
G1 F480 X89.455 Y113.779 E24.04124
G0 F6000 X90.021 Y113.779
G1 F480 X88.782 Y112.541 E24.09134
G0 F6000 X88.782 Y111.976
G1 F480 X90.586 Y113.779 E24.1643
G0 F6000 X91.152 Y113.779
G1 F480 X88.782 Y111.41 E24.26015
G0 F6000 X88.782 Y110.844
G1 F480 X91.718 Y113.779 E24.37889
G0 F6000 X92.283 Y113.779
G1 F480 X88.782 Y110.278 E24.52052
G0 F6000 X88.782 Y109.713
G1 F480 X92.849 Y113.779 E24.68501
G0 F6000 X93.415 Y113.779
G1 F480 X88.782 Y109.147 E24.87241
G0 F6000 X88.782 Y108.581
G1 F480 X93.98 Y113.779 E25.08267
G0 F6000 X94.546 Y113.779
G1 F480 X88.782 Y108.016 E25.31582
G0 F6000 X88.782 Y107.45
G1 F480 X95.112 Y113.779 E25.57186
G0 F6000 X95.677 Y113.779
G1 F480 X88.782 Y106.884 E25.85077
G0 F6000 X88.782 Y106.319
G1 F480 X96.243 Y113.779 E26.15256
G0 F6000 X96.809 Y113.779
G1 F480 X89.248 Y106.219 E26.4584
G0 F6000 X89.814 Y106.219
G1 F480 X97.374 Y113.779 E26.76421
G0 F6000 X97.94 Y113.779
G1 F480 X90.38 Y106.219 E27.07003
G0 F6000 X90.945 Y106.219
G1 F480 X98.506 Y113.779 E27.37586
G0 F6000 X99.072 Y113.779
G1 F480 X91.511 Y106.219 E27.6817
G0 F6000 X92.077 Y106.219
G1 F480 X99.637 Y113.779 E27.98752
G0 F6000 X100.203 Y113.779
G1 F480 X92.643 Y106.219 E28.29333
G0 F6000 X93.208 Y106.219
G1 F480 X100.769 Y113.779 E28.59917
G0 F6000 X101.334 Y113.779
G1 F480 X93.774 Y106.219 E28.90498
G0 F6000 X94.34 Y106.219
G1 F480 X101.9 Y113.779 E29.2108
G0 F6000 X102.466 Y113.779
G1 F480 X94.905 Y106.219 E29.51663
G0 F6000 X95.471 Y106.219
G1 F480 X103.031 Y113.779 E29.82245
G0 F6000 X103.597 Y113.779
G1 F480 X96.037 Y106.219 E30.12826
G0 F6000 X96.602 Y106.219
G1 F480 X104.163 Y113.779 E30.4341
G0 F6000 X104.728 Y113.779
G1 F480 X97.168 Y106.219 E30.73991
G0 F6000 X97.734 Y106.219
G1 F480 X105.294 Y113.779 E31.04573
G0 F6000 X105.86 Y113.779
G1 F480 X98.299 Y106.219 E31.35156
G0 F6000 X98.865 Y106.219
G1 F480 X106.425 Y113.779 E31.65738
G0 F6000 X106.991 Y113.779
G1 F480 X99.431 Y106.219 E31.9632
G0 F6000 X99.996 Y106.219
G1 F480 X107.557 Y113.779 E32.26903
G0 F6000 X108.122 Y113.779
G1 F480 X100.562 Y106.219 E32.57485
G0 F6000 X101.128 Y106.219
G1 F480 X108.688 Y113.779 E32.88066
G0 F6000 X109.254 Y113.779
G1 F480 X101.693 Y106.219 E33.1865
G0 F6000 X102.259 Y106.219
G1 F480 X109.82 Y113.779 E33.49233
G0 F6000 X110.385 Y113.779
G1 F480 X102.825 Y106.219 E33.79815
G0 F6000 X103.391 Y106.219
G1 F480 X110.951 Y113.779 E34.10396
G0 F6000 X111.517 Y113.779
G1 F480 X103.956 Y106.219 E34.4098
G0 F6000 X104.522 Y106.219
G1 F480 X112.082 Y113.779 E34.71561
G0 F6000 X112.648 Y113.779
G1 F480 X105.088 Y106.219 E35.02143
G0 F6000 X105.653 Y106.219
G1 F480 X113.214 Y113.779 E35.32727
G0 F6000 X113.779 Y113.779
G1 F480 X106.219 Y106.219 E35.63308
G0 F6000 X106.785 Y106.219
G1 F480 X114.345 Y113.779 E35.9389
G0 F6000 X114.911 Y113.779
G1 F480 X107.35 Y106.219 E36.24473
G0 F6000 X107.916 Y106.219
G1 F480 X115.476 Y113.779 E36.55055
G0 F6000 X116.042 Y113.779
G1 F480 X108.482 Y106.219 E36.85636
G0 F6000 X109.047 Y106.219
G1 F480 X116.608 Y113.779 E37.1622
G0 F6000 X117.173 Y113.779
G1 F480 X109.613 Y106.219 E37.46801
G0 F6000 X110.179 Y106.22
G1 F480 X117.739 Y113.779 E37.77381
G0 F6000 X118.305 Y113.779
G1 F480 X110.745 Y106.22 E38.0796
G0 F6000 X111.311 Y106.22
G1 F480 X118.871 Y113.779 E38.3854
G0 F6000 X119.436 Y113.779
G1 F480 X111.877 Y106.22 E38.69117
G0 F6000 X112.442 Y106.22
G1 F480 X120.002 Y113.779 E38.99697
G0 F6000 X120.568 Y113.779
G1 F480 X113.008 Y106.22 E39.30276
G0 F6000 X113.574 Y106.22
G1 F480 X121.133 Y113.779 E39.60854
G0 F6000 X121.699 Y113.779
G1 F480 X114.139 Y106.22 E39.91433
G0 F6000 X114.705 Y106.22
G1 F480 X122.265 Y113.779 E40.22013
G0 F6000 X122.83 Y113.779
G1 F480 X115.271 Y106.22 E40.5259
G0 F6000 X115.836 Y106.22
G1 F480 X123.396 Y113.779 E40.8317
G0 F6000 X123.962 Y113.779
G1 F480 X116.402 Y106.22 E41.13749
G0 F6000 X116.968 Y106.22
G1 F480 X124.527 Y113.779 E41.44327
G0 F6000 X125.093 Y113.779
G1 F480 X117.533 Y106.22 E41.74906
G0 F6000 X118.099 Y106.22
G1 F480 X125.659 Y113.779 E42.05486
G0 F6000 X126.224 Y113.779
G1 F480 X118.665 Y106.22 E42.36063
G0 F6000 X119.23 Y106.22
G1 F480 X126.79 Y113.779 E42.66643
G0 F6000 X127.356 Y113.779
G1 F480 X119.796 Y106.22 E42.97222
G0 F6000 X120.362 Y106.22
G1 F480 X127.921 Y113.779 E43.278
G0 F6000 X128.487 Y113.779
G1 F480 X120.927 Y106.22 E43.58379
G0 F6000 X121.493 Y106.22
G1 F480 X129.053 Y113.779 E43.88959
G0 F6000 X129.619 Y113.779
G1 F480 X122.059 Y106.22 E44.19538
G0 F6000 X122.625 Y106.22
G1 F480 X130.184 Y113.779 E44.50116
G0 F6000 X130.75 Y113.779
G1 F480 X123.19 Y106.22 E44.80695
G0 F6000 X123.756 Y106.22
G1 F480 X131.212 Y113.675 E45.10854
G0 F6000 X131.212 Y113.11
G1 F480 X124.322 Y106.22 E45.38725
G0 F6000 X124.887 Y106.22
G1 F480 X131.212 Y112.544 E45.64309
G0 F6000 X131.212 Y111.978
G1 F480 X125.453 Y106.22 E45.87603
G0 F6000 X126.019 Y106.22
G1 F480 X131.212 Y111.413 E46.0861
G0 F6000 X131.212 Y110.847
G1 F480 X126.584 Y106.22 E46.27329
G0 F6000 X127.15 Y106.22
G1 F480 X131.212 Y110.281 E46.43758
G0 F6000 X131.212 Y109.716
G1 F480 X127.716 Y106.22 E46.579
G0 F6000 X128.281 Y106.22
G1 F480 X131.212 Y109.15 E46.69755
G0 F6000 X131.212 Y108.584
G1 F480 X128.847 Y106.22 E46.7932
G0 F6000 X129.413 Y106.22
G1 F480 X131.212 Y108.019 E46.86597
G0 F6000 X131.212 Y107.453
G1 F480 X129.978 Y106.22 E46.91587
G0 F6000 X130.544 Y106.22
G1 F480 X131.212 Y106.887 E46.94287
G0 F6000 X131.212 Y106.321
G1 F480 X131.11 Y106.22 E46.94697
G0 F6000 X131.111 Y105.869
G1 F1500 E40.44697
;MESH:NONMESH
G0 F300 X131.111 Y105.869 Z0.4
G0 F6000 X131.111 Y105.78
G0 X88.415 Y105.851
G0 X88.215 Y114.352
;TIME_ELAPSED:217.586257
;LAYER:1
M140 S65
M106 S85
;TYPE:WALL-INNER
;MESH:PLATempTower
G1 F1500 E46.94697
G1 F990 X88.215 Y105.648 E47.19594
G1 X131.785 Y105.648 E48.4422
G1 X131.785 Y114.352 E48.69117
G1 X88.215 Y114.352 E49.93743
G0 F7500 X87.815 Y114.749
;TYPE:WALL-OUTER
G1 F990 X87.815 Y105.251 E50.20911
G1 X87.825 Y105.248 E50.20941
G1 X132.172 Y105.248 E51.4779
G1 X132.185 Y105.266 E51.47854
G1 X132.185 Y114.734 E51.74936
G1 X132.172 Y114.752 E51.74999
G1 X87.825 Y114.752 E53.01848
G1 X87.815 Y114.749 E53.01878
G0 F7500 X88.085 Y114.482
G0 X88.325 Y113.962
G0 X88.605 Y113.962
;TYPE:SKIN
G1 F990 X88.605 Y106.038 E53.24543
G1 X131.395 Y106.038 E54.46939
G1 X131.395 Y113.962 E54.69604
G1 X88.605 Y113.962 E55.92
G0 F7500 X88.325 Y113.962
G0 X88.325 Y106.396
G0 X88.765 Y106.396
G1 F990 X88.964 Y106.196 E55.92807
G0 F7500 X89.53 Y106.196
